; generated by Slic3r 1.2.9 on 2015-12-05 at 21:01:21

; external perimeters extrusion width = 0.55mm
; perimeters extrusion width = 0.61mm
; infill extrusion width = 0.60mm
; solid infill extrusion width = 0.60mm
; top infill extrusion width = 0.60mm
; support material extrusion width = 0.70mm

M107 ; disable fan
;start gcode
M80 ;ATX on
M190 S52 ; wait for start bed temperature to be reached PLA
;M190 S82 ; wait for start bed temperature to be reached
M140 S65 ; set  bed temp to be
M104 S205 ; set temperature
G28 ; home all axes
M190 S65 ; set and wait for bed temp to be reached
M109 S205; wait for extruder temp to be reached
G21 ; set units to millimeters
G90 ; use absolute coordinates
M82 ; use absolute distances for extrusion
G92 E0 ; reset extrusion distance
G1 E-1.10000 F1800.00000 ; retract
G92 E0 ; reset extrusion distance
G1 Z0.430 F7800.000 ; lift Z
G1 Z0.630 F7800.000 ; move to next layer (0)
G1 Z0.830 F7800.000 ; lift Z
G1 X33.957 Y41.255 F7800.000 ; move to first brim point
G1 Z0.630 F7800.000 ; restore layer Z
G1 E1.10000 F1800.00000 ; unretract
M204 S2000 ; adjust acceleration
G1 X38.634 Y37.416 E1.31750 F1200.000 ; brim
G1 X38.844 Y37.293 E1.32624 ; brim
G1 X44.610 Y35.049 E1.54863 ; brim
G1 X44.797 Y35.002 E1.55556 ; brim
G1 X48.354 Y34.575 E1.68432 ; brim
G1 X51.009 Y34.483 E1.77980 ; brim
G1 X57.592 Y34.335 E2.01647 ; brim
G1 X63.440 Y34.303 E2.22666 ; brim
G1 X75.519 Y34.353 E2.66083 F1200.000 ; brim
G1 X118.288 Y34.345 E4.19805 ; brim
G1 X130.465 Y34.366 E4.63571 ; brim
G1 X136.880 Y35.171 E4.86810 ; brim
G1 X137.072 Y35.221 E4.87522 ; brim
G1 X142.968 Y37.599 E5.10375 ; brim
G1 X143.104 Y37.671 E5.10925 ; brim
G1 X146.356 Y39.814 E5.24925 ; brim
G1 X147.901 Y41.071 E5.32084 ; brim
G1 X152.330 Y46.076 E5.56105 ; brim
G1 X152.440 Y46.239 E5.56811 ; brim
G1 X155.128 Y51.567 E5.78260 ; brim
G1 X155.917 Y54.057 E5.87651 ; brim
G1 X156.658 Y57.866 E6.01596 ; brim
G1 X156.672 Y58.024 E6.02165 ; brim
G1 X156.580 Y64.601 E6.25806 ; brim
G1 X156.552 Y64.797 E6.26520 ; brim
G1 X154.845 Y70.913 E6.49342 ; brim
G1 X154.777 Y71.080 E6.49991 ; brim
G1 X151.759 Y76.512 E6.72325 ; brim
G1 X151.642 Y76.670 E6.73031 ; brim
G1 X147.305 Y81.220 E6.95624 ; brim
G1 X143.651 Y83.685 E7.11468 ; brim
G1 X141.810 Y84.650 E7.18936 ; brim
G1 X136.076 Y86.767 E7.40908 ; brim
G1 X135.916 Y86.808 E7.41501 ; brim
G1 X129.612 Y87.691 E7.64379 ; brim
G1 X127.144 Y87.680 E7.73250 ; brim
G1 X123.388 Y87.534 E7.86760 ; brim
G1 X117.344 Y87.390 E8.08490 ; brim
G1 X110.744 Y87.364 E8.32211 ; brim
G1 X105.385 Y87.388 E8.51473 ; brim
G1 X94.406 Y87.374 E8.90935 ; brim
G1 X87.077 Y87.321 E9.17278 ; brim
G1 X74.558 Y87.172 E9.62277 ; brim
G1 X68.452 Y87.149 E9.84223 ; brim
G1 X61.722 Y87.196 E10.08415 ; brim
G1 X56.309 Y87.079 E10.27876 ; brim
G1 X50.170 Y86.511 E10.50035 ; brim
G1 X44.937 Y85.674 E10.69081 ; brim
G1 X43.944 Y85.462 E10.72730 ; brim
G1 X43.781 Y85.407 E10.73349 ; brim
G1 X38.010 Y82.722 E10.96227 ; brim
G1 X37.734 Y82.507 E10.97485 ; brim
G1 X33.855 Y77.725 E11.19615 ; brim
G1 X33.741 Y77.534 E11.20417 ; brim
G1 X32.635 Y74.845 E11.30865 ; brim
G1 X31.606 Y71.559 E11.43243 ; brim
G1 X29.996 Y65.526 E11.65683 ; brim
G1 X28.803 Y59.814 E11.86659 ; brim
G1 X28.514 Y58.143 E11.92753 ; brim
G1 X28.326 Y53.016 E12.11193 ; brim
G1 X28.356 Y52.774 E12.12069 ; brim
G1 X30.085 Y46.800 E12.34422 ; brim
G1 X30.185 Y46.586 E12.35273 ; brim
G1 X33.137 Y42.172 E12.54358 ; brim
G1 X33.903 Y41.307 E12.58509 ; brim
M204 S3000 ; adjust acceleration
G1 X34.365 Y41.715 F7800.000 ; move to first brim point
M204 S2000 ; adjust acceleration
G1 X38.986 Y37.922 E12.79998 F1200.000 ; brim
G1 X39.112 Y37.848 E12.80522 ; brim
G1 X44.797 Y35.635 E13.02448 ; brim
G1 X44.909 Y35.607 E13.02864 ; brim
G1 X48.388 Y35.188 E13.15460 ; brim
G1 X51.024 Y35.097 E13.24940 ; brim
G1 X57.603 Y34.949 E13.48591 ; brim
G1 X63.372 Y34.917 E13.69326 ; brim
G1 X75.517 Y34.967 E14.12979 F1200.000 ; brim
G1 X118.288 Y34.959 E15.66708 ; brim
G1 X130.444 Y34.981 E16.10401 ; brim
G1 X136.764 Y35.775 E16.33294 ; brim
G1 X136.879 Y35.805 E16.33721 ; brim
G1 X142.792 Y38.200 E16.56650 ; brim
G1 X146.005 Y40.318 E16.70483 ; brim
G1 X147.493 Y41.531 E16.77383 ; brim
G1 X151.843 Y46.453 E17.00993 ; brim
G1 X151.909 Y46.551 E17.01417 ; brim
G1 X154.568 Y51.821 E17.22635 ; brim
G1 X155.318 Y54.192 E17.31571 ; brim
G1 X156.049 Y57.952 E17.45340 ; brim
G1 X155.967 Y64.552 E17.69064 ; brim
G1 X155.950 Y64.670 E17.69492 ; brim
G1 X154.263 Y70.713 E17.92042 ; brim
G1 X151.241 Y76.179 E18.14492 ; brim
G1 X151.171 Y76.274 E18.14916 ; brim
G1 X146.861 Y80.779 E18.37323 ; brim
G1 X143.321 Y83.166 E18.52670 ; brim
G1 X141.579 Y84.080 E18.59742 ; brim
G1 X135.894 Y86.180 E18.81524 ; brim
G1 X129.549 Y87.079 E19.04556 ; brim
G1 X127.163 Y87.066 E19.13132 ; brim
G1 X123.407 Y86.921 E19.26642 ; brim
G1 X117.353 Y86.776 E19.48410 ; brim
G1 X110.744 Y86.749 E19.72162 ; brim
G1 X105.384 Y86.774 E19.91427 ; brim
G1 X94.409 Y86.760 E20.30877 ; brim
G1 X87.083 Y86.707 E20.57207 ; brim
G1 X74.563 Y86.558 E21.02211 ; brim
G1 X68.452 Y86.535 E21.24177 ; brim
G1 X61.730 Y86.582 E21.48336 ; brim
G1 X56.333 Y86.466 E21.67740 ; brim
G1 X50.257 Y85.903 E21.89672 ; brim
G1 X45.042 Y85.068 E22.08653 ; brim
G1 X44.107 Y84.868 E22.12091 ; brim
G1 X38.332 Y82.195 E22.34963 ; brim
G1 X38.167 Y82.065 E22.35717 ; brim
G1 X34.360 Y77.373 E22.57435 ; brim
G1 X34.292 Y77.258 E22.57917 ; brim
G1 X33.217 Y74.649 E22.68058 ; brim
G1 X32.198 Y71.394 E22.80318 ; brim
G1 X30.596 Y65.392 E23.02644 ; brim
G1 X29.405 Y59.693 E23.23570 ; brim
G1 X29.123 Y58.059 E23.29530 ; brim
G1 X28.941 Y53.043 E23.47571 ; brim
G1 X28.959 Y52.898 E23.48097 ; brim
G1 X30.662 Y47.017 E23.70104 ; brim
G1 X30.722 Y46.888 E23.70614 ; brim
G1 X33.636 Y42.531 E23.89453 ; brim
G1 X34.311 Y41.767 E23.93118 ; brim
M204 S3000 ; adjust acceleration
G1 X34.773 Y42.174 F7800.000 ; move to first brim point
M204 S2000 ; adjust acceleration
G1 X39.380 Y38.403 E24.14519 F1200.000 ; brim
G1 X45.021 Y36.212 E24.36269 ; brim
G1 X48.423 Y35.801 E24.48584 ; brim
G1 X51.040 Y35.711 E24.57997 ; brim
G1 X57.614 Y35.563 E24.81631 ; brim
G1 X63.434 Y35.531 E25.02550 ; brim
G1 X75.516 Y35.582 E25.45977 F1200.000 ; brim
G1 X118.288 Y35.573 E26.99709 ; brim
G1 X130.424 Y35.595 E27.43328 ; brim
G1 X136.686 Y36.389 E27.66016 ; brim
G1 X142.479 Y38.730 E27.88473 ; brim
G1 X145.654 Y40.822 E28.02140 ; brim
G1 X147.085 Y41.990 E28.08780 ; brim
G1 X151.357 Y46.830 E28.31980 ; brim
G1 X154.009 Y52.076 E28.53107 ; brim
G1 X154.718 Y54.326 E28.61588 ; brim
G1 X155.440 Y58.038 E28.75181 ; brim
G1 X155.353 Y64.504 E28.98423 ; brim
G1 X153.682 Y70.513 E29.20842 ; brim
G1 X150.700 Y75.878 E29.42903 ; brim
G1 X146.493 Y80.282 E29.64795 ; brim
G1 X142.992 Y82.647 E29.79979 ; brim
G1 X141.347 Y83.511 E29.86655 ; brim
G1 X135.712 Y85.592 E30.08247 ; brim
G1 X129.486 Y86.468 E30.30844 ; brim
G1 X127.182 Y86.453 E30.39126 ; brim
G1 X123.427 Y86.307 E30.52635 ; brim
G1 X117.361 Y86.162 E30.74441 ; brim
G1 X110.744 Y86.135 E30.98225 ; brim
G1 X105.384 Y86.159 E31.17492 ; brim
G1 X94.411 Y86.146 E31.56930 ; brim
G1 X87.090 Y86.093 E31.83244 ; brim
G1 X74.579 Y85.944 E32.28215 ; brim
G1 X68.451 Y85.921 E32.50242 ; brim
G1 X61.738 Y85.968 E32.74369 ; brim
G1 X56.357 Y85.852 E32.93715 ; brim
G1 X50.344 Y85.295 E33.15420 ; brim
G1 X45.147 Y84.463 E33.34335 ; brim
G1 X44.269 Y84.275 E33.37562 ; brim
G1 X38.655 Y81.667 E33.59813 ; brim
G1 X38.600 Y81.624 E33.60065 ; brim
G1 X34.865 Y77.021 E33.81371 ; brim
G1 X33.799 Y74.453 E33.91365 ; brim
G1 X32.792 Y71.235 E34.03483 ; brim
G1 X31.195 Y65.259 E34.25717 ; brim
G1 X30.007 Y59.573 E34.46594 ; brim
G1 X29.732 Y57.975 E34.52421 ; brim
G1 X29.563 Y53.022 E34.70235 ; brim
G1 X31.259 Y47.190 E34.92065 ; brim
G1 X34.135 Y42.891 E35.10657 ; brim
G1 X34.722 Y42.229 E35.13836 ; brim
M204 S3000 ; adjust acceleration
G1 E34.03836 F1800.00000 ; retract
G92 E0 ; reset extrusion distance
G1 Z0.830 F7800.000 ; lift Z
G1 X64.689 Y85.290 F7800.000 ; move to first perimeter point
G1 Z0.630 F7800.000 ; restore layer Z
G1 E1.10000 F1800.00000 ; unretract
M204 S2000 ; adjust acceleration
G1 X61.745 Y85.311 E1.20583 F1200.000 ; perimeter
G1 X56.389 Y85.195 E1.39837 ; perimeter
G1 X50.431 Y84.644 E1.61343 ; perimeter
G1 X45.264 Y83.817 E1.80150 ; perimeter
G1 X44.463 Y83.645 E1.83097 ; perimeter
G1 X39.037 Y81.120 E2.04605 ; perimeter
G1 X35.422 Y76.664 E2.25231 ; perimeter
G1 X34.419 Y74.235 E2.34674 ; perimeter
G1 X33.422 Y71.049 E2.46674 ; perimeter
G1 X31.835 Y65.111 E2.68767 ; perimeter
G1 X30.652 Y59.447 E2.89562 ; perimeter
G1 X30.385 Y57.897 E2.95215 ; perimeter
G1 X30.216 Y53.127 E3.12370 ; perimeter
G1 X31.848 Y47.490 E3.33462 ; perimeter
G1 X34.662 Y43.285 E3.51649 ; perimeter
G1 X35.220 Y42.657 E3.54669 ; perimeter
G1 X39.693 Y38.986 E3.75468 ; perimeter
G1 X45.163 Y36.856 E3.96564 ; perimeter
G1 X48.467 Y36.457 E4.08526 ; perimeter
G1 X51.058 Y36.368 E4.17844 ; perimeter
G1 X57.625 Y36.220 E4.41453 ; perimeter
G1 X63.433 Y36.188 E4.62330 ; perimeter
G1 X75.515 Y36.239 E5.05757 ; perimeter
G1 X118.288 Y36.230 E6.59491 F1200.000 ; perimeter
G1 X130.391 Y36.252 E7.02995 ; perimeter
G1 X136.501 Y37.023 E7.25127 ; perimeter
G1 X142.160 Y39.306 E7.47060 ; perimeter
G1 X145.271 Y41.357 E7.60453 ; perimeter
G1 X146.638 Y42.473 E7.66796 ; perimeter
G1 X150.821 Y47.216 E7.89527 ; perimeter
G1 X153.404 Y52.335 E8.10135 ; perimeter
G1 X154.079 Y54.479 E8.18215 ; perimeter
G1 X154.785 Y58.113 E8.31518 ; perimeter
G1 X154.697 Y64.430 E8.54225 ; perimeter
G1 X153.065 Y70.280 E8.76055 ; perimeter
G1 X150.180 Y75.471 E8.97401 ; perimeter
G1 X146.055 Y79.789 E9.18866 ; perimeter
G1 X142.647 Y82.087 E9.33638 ; perimeter
G1 X141.089 Y82.906 E9.39965 ; perimeter
G1 X135.535 Y84.957 E9.61244 ; perimeter
G1 X129.432 Y85.812 E9.83396 ; perimeter
G1 X127.200 Y85.796 E9.91418 ; perimeter
G1 X123.449 Y85.650 E10.04908 ; perimeter
G1 X117.373 Y85.505 E10.26753 ; perimeter
G1 X110.743 Y85.478 E10.50586 ; perimeter
G1 X105.383 Y85.502 E10.69852 ; perimeter
G1 X94.414 Y85.489 E11.09276 ; perimeter
G1 X87.096 Y85.436 E11.35578 ; perimeter
G1 X74.574 Y85.287 E11.80589 ; perimeter
G1 X68.451 Y85.264 E12.02596 ; perimeter
G1 X64.764 Y85.290 E12.15849 ; perimeter
M204 S3000 ; adjust acceleration
G1 X64.436 Y84.859 F7800.000 ; move inwards before travel
G1 X64.685 Y84.676 F7800.000 ; move to first perimeter point
M204 S2000 ; adjust acceleration
G1 X61.749 Y84.697 E12.26400 F1200.000 ; perimeter
G1 X56.424 Y84.582 E12.45545 ; perimeter
G1 X50.508 Y84.034 E12.66899 ; perimeter
G1 X45.377 Y83.213 E12.85575 ; perimeter
G1 X44.659 Y83.059 E12.88215 ; perimeter
G1 X39.425 Y80.623 E13.08966 ; perimeter
G1 X35.955 Y76.347 E13.28759 ; perimeter
G1 X34.997 Y74.026 E13.37783 ; perimeter
G1 X34.012 Y70.878 E13.49639 ; perimeter
G1 X32.433 Y64.969 E13.71624 ; perimeter
G1 X31.256 Y59.332 E13.92320 ; perimeter
G1 X30.997 Y57.834 E13.97784 ; perimeter
G1 X30.834 Y53.204 E14.14436 ; perimeter
G1 X32.411 Y47.753 E14.34833 ; perimeter
G1 X35.149 Y43.662 E14.52525 ; perimeter
G1 X35.647 Y43.101 E14.55220 ; perimeter
G1 X40.007 Y39.523 E14.75495 ; perimeter
G1 X45.313 Y37.457 E14.95961 ; perimeter
G1 X48.515 Y37.070 E15.07550 ; perimeter
G1 X51.075 Y36.981 E15.16759 ; perimeter
G1 X57.633 Y36.834 E15.40336 ; perimeter
G1 X63.433 Y36.802 E15.61183 ; perimeter
G1 X75.514 Y36.853 E16.04605 ; perimeter
G1 X118.287 Y36.844 E17.58341 F1200.000 ; perimeter
G1 X130.352 Y36.866 E18.01706 ; perimeter
G1 X136.345 Y37.622 E18.23416 ; perimeter
G1 X141.873 Y39.853 E18.44841 ; perimeter
G1 X144.907 Y41.852 E18.57901 ; perimeter
G1 X146.210 Y42.917 E18.63951 ; perimeter
G1 X150.308 Y47.563 E18.86218 ; perimeter
G1 X152.833 Y52.567 E19.06363 ; perimeter
G1 X153.483 Y54.631 E19.14138 ; perimeter
G1 X154.170 Y58.167 E19.27088 ; perimeter
G1 X154.084 Y64.341 E19.49281 ; perimeter
G1 X152.493 Y70.045 E19.70563 ; perimeter
G1 X149.682 Y75.104 E19.91366 ; perimeter
G1 X145.657 Y79.317 E20.12309 ; perimeter
G1 X142.332 Y81.559 E20.26722 ; perimeter
G1 X140.839 Y82.344 E20.32785 ; perimeter
G1 X135.385 Y84.358 E20.53682 ; perimeter
G1 X129.391 Y85.198 E20.75434 ; perimeter
G1 X127.214 Y85.182 E20.83260 ; perimeter
G1 X123.469 Y85.036 E20.96731 ; perimeter
G1 X117.382 Y84.891 E21.18615 ; perimeter
G1 X110.743 Y84.864 E21.42478 ; perimeter
G1 X105.382 Y84.888 E21.61748 ; perimeter
G1 X94.416 Y84.874 E22.01159 ; perimeter
G1 X87.102 Y84.822 E22.27449 ; perimeter
G1 X74.579 Y84.672 E22.72464 ; perimeter
G1 X68.450 Y84.650 E22.94492 ; perimeter
G1 X64.760 Y84.676 E23.07757 ; perimeter
M204 S3000 ; adjust acceleration
G1 E21.97757 F1800.00000 ; retract
G92 E0 ; reset extrusion distance
G1 Z0.830 F7800.000 ; lift Z
G1 X54.398 Y65.966 F7800.000 ; move to first perimeter point
G1 Z0.630 F7800.000 ; restore layer Z
G1 E1.10000 F1800.00000 ; unretract
M204 S2000 ; adjust acceleration
G1 X53.300 Y66.570 E1.14503 F1200.000 ; perimeter
G1 X51.834 Y67.307 E1.20398 ; perimeter
G1 X50.908 Y67.742 E1.24078 ; perimeter
G1 X49.819 Y68.220 E1.28351 ; perimeter
G1 X48.841 Y68.602 E1.32127 ; perimeter
G1 X48.436 Y68.712 E1.33636 ; perimeter
G1 X48.029 Y68.776 E1.35115 ; perimeter
G1 X47.752 Y68.792 E1.36113 ; perimeter
G1 X47.351 Y68.767 E1.37555 ; perimeter
G1 X46.958 Y68.680 E1.39004 ; perimeter
G1 X46.592 Y68.533 E1.40421 ; perimeter
G1 X46.260 Y68.331 E1.41818 ; perimeter
G1 X45.970 Y68.125 E1.43096 ; perimeter
G1 X45.561 Y67.774 E1.45035 ; perimeter
G1 X45.103 Y67.273 E1.47474 ; perimeter
G1 X44.683 Y66.698 E1.50032 ; perimeter
G1 X44.307 Y66.074 E1.52652 ; perimeter
G1 X43.969 Y65.410 E1.55331 ; perimeter
G1 X43.546 Y64.444 E1.59120 ; perimeter
G1 X43.137 Y63.360 E1.63283 ; perimeter
G1 X42.481 Y61.333 E1.70941 ; perimeter
G1 X41.862 Y59.208 E1.78897 ; perimeter
G1 X41.591 Y58.141 E1.82855 ; perimeter
G1 X41.411 Y57.309 E1.85914 ; perimeter
G1 X41.294 Y56.564 E1.88624 ; perimeter
G1 X41.234 Y55.786 E1.91427 ; perimeter
G1 X41.248 Y54.912 E1.94569 ; perimeter
G1 X41.328 Y54.214 E1.97095 ; perimeter
G1 X41.494 Y53.403 E2.00072 ; perimeter
G1 X41.788 Y52.465 E2.03604 ; perimeter
G1 X42.218 Y51.477 E2.07476 ; perimeter
G1 X42.711 Y50.598 E2.11099 ; perimeter
G1 X43.296 Y49.754 E2.14791 ; perimeter
G1 X43.681 Y49.284 E2.16974 ; perimeter
G1 X44.110 Y48.823 E2.19236 ; perimeter
G1 X44.495 Y48.461 E2.21138 ; perimeter
G1 X44.970 Y48.067 E2.23354 ; perimeter
G1 X45.732 Y47.547 E2.26672 ; perimeter
G1 X46.443 Y47.161 E2.29578 ; perimeter
G1 X47.370 Y46.771 E2.33195 ; perimeter
G1 X48.299 Y46.488 E2.36682 ; perimeter
G1 X49.251 Y46.301 E2.40170 ; perimeter
G1 X50.393 Y46.209 E2.44288 ; perimeter
G1 X51.018 Y46.203 E2.46536 F1200.000 ; perimeter
G1 X51.734 Y46.237 E2.49111 ; perimeter
G1 X52.398 Y46.304 E2.51512 ; perimeter
G1 X53.059 Y46.403 E2.53912 ; perimeter
G1 X53.713 Y46.533 E2.56309 ; perimeter
G1 X54.333 Y46.686 E2.58604 ; perimeter
G1 X54.997 Y46.885 E2.61098 ; perimeter
G1 X55.627 Y47.109 E2.63499 ; perimeter
G1 X56.240 Y47.364 E2.65885 ; perimeter
G1 X56.843 Y47.652 E2.68287 ; perimeter
G1 X57.334 Y47.921 E2.70301 ; perimeter
G1 X57.992 Y48.329 E2.73082 ; perimeter
G1 X58.532 Y48.716 E2.75471 ; perimeter
G1 X59.055 Y49.143 E2.77896 ; perimeter
G1 X59.542 Y49.593 E2.80281 ; perimeter
G1 X60.003 Y50.070 E2.82663 ; perimeter
G1 X60.459 Y50.591 E2.85152 ; perimeter
G1 X61.252 Y51.612 E2.89799 ; perimeter
G1 X62.001 Y52.685 E2.94504 ; perimeter
G1 X63.373 Y54.802 E3.03571 ; perimeter
G1 X63.689 Y55.392 E3.05977 ; perimeter
G1 X63.958 Y56.019 E3.08429 ; perimeter
G1 X64.152 Y56.685 E3.10921 ; perimeter
G1 X64.203 Y56.988 E3.12025 ; perimeter
G1 X64.234 Y57.403 E3.13522 ; perimeter
G1 X64.206 Y58.091 E3.15995 ; perimeter
G1 X64.099 Y58.778 E3.18497 ; perimeter
G1 X64.010 Y59.110 E3.19731 ; perimeter
G1 X63.877 Y59.464 E3.21090 ; perimeter
G1 X63.711 Y59.789 E3.22401 ; perimeter
G1 X63.491 Y60.105 E3.23784 ; perimeter
G1 X63.159 Y60.435 E3.25468 ; perimeter
G1 X62.966 Y60.593 E3.26363 ; perimeter
G1 X62.483 Y60.924 E3.28468 ; perimeter
G1 X59.203 Y63.038 E3.42495 ; perimeter
G1 X56.532 Y64.710 E3.53820 ; perimeter
