; generated by Slic3r 1.2.9 on 2015-09-09 at 12:50:54

; external perimeters extrusion width = 0.55mm
; perimeters extrusion width = 0.61mm
; infill extrusion width = 0.60mm
; solid infill extrusion width = 0.60mm
; top infill extrusion width = 0.60mm
; support material extrusion width = 0.70mm

M107 ; disable fan
;start gcode
M80 ;ATX on
M190 S52 ; wait for start bed temperature to be reached
M140 S65 ; set  bed temp to be
M104 S215 ; set temperature
G28 ; home all axes
M190 S65 ; set and wait for bed temp to be reached
M109 S215; wait for extruder temp to be reached
G21 ; set units to millimeters
G90 ; use absolute coordinates
M82 ; use absolute distances for extrusion
G92 E0 ; reset extrusion distance
G1 E-1.10000 F1800.00000 ; retract
G92 E0 ; reset extrusion distance
G1 Z0.510 F7800.000 ; lift Z
G1 Z0.710 F7800.000 ; move to next layer (0)
G1 Z0.910 F7800.000 ; lift Z
G1 X61.461 Y31.572 F7800.000 ; move to first skirt point
G1 Z0.710 F7800.000 ; restore layer Z
G1 E1.10000 F1800.00000 ; unretract
M204 S2000 ; adjust acceleration
G1 X63.269 Y29.683 E1.24377 F1200.000 ; skirt
G1 X65.561 Y28.426 E1.38755 ; skirt
G1 X68.500 Y27.908 E1.55167 ; skirt
G1 X116.500 Y27.908 E4.19154 ; skirt
G1 X119.084 Y28.305 E4.33531 ; skirt
G1 X121.428 Y29.461 E4.47908 F1200.000 ; skirt
G1 X123.317 Y31.269 E4.62286 ; skirt
G1 X124.574 Y33.561 E4.76663 ; skirt
G1 X125.092 Y36.500 E4.93076 ; skirt
G1 X125.092 Y85.500 E7.62562 ; skirt
G1 X124.695 Y88.084 E7.76939 ; skirt
G1 X123.539 Y90.428 E7.91317 ; skirt
G1 X121.731 Y92.317 E8.05694 ; skirt
G1 X119.439 Y93.574 E8.20071 ; skirt
G1 X116.500 Y94.092 E8.36484 ; skirt
G1 X68.500 Y94.092 E11.00470 ; skirt
G1 X65.916 Y93.695 E11.14848 ; skirt
G1 X63.572 Y92.539 E11.29225 ; skirt
G1 X61.683 Y90.731 E11.43602 ; skirt
G1 X60.426 Y88.439 E11.57980 ; skirt
G1 X59.908 Y85.500 E11.74392 ; skirt
G1 X59.908 Y36.500 E14.43878 ; skirt
G1 X60.305 Y33.916 E14.58256 ; skirt
G1 X61.428 Y31.639 E14.72221 ; skirt
M204 S3000 ; adjust acceleration
G1 X62.253 Y31.987 F7800.000 ; move to first skirt point
M204 S2000 ; adjust acceleration
G1 X62.320 Y31.859 E14.73016 F1200.000 ; skirt
G1 X64.107 Y30.141 E14.86647 ; skirt
G1 X66.346 Y29.078 E15.00278 ; skirt
G1 X68.500 Y28.772 E15.12243 ; skirt
G1 X116.500 Y28.772 E17.76230 ; skirt
G1 X118.946 Y29.169 E17.89860 ; skirt
G1 X121.141 Y30.320 E18.03491 F1200.000 ; skirt
G1 X122.859 Y32.107 E18.17122 ; skirt
G1 X123.922 Y34.346 E18.30752 ; skirt
G1 X124.228 Y36.500 E18.42718 ; skirt
G1 X124.228 Y85.500 E21.12204 ; skirt
G1 X123.831 Y87.946 E21.25835 ; skirt
G1 X122.680 Y90.141 E21.39465 ; skirt
G1 X120.893 Y91.859 E21.53096 ; skirt
G1 X118.654 Y92.922 E21.66727 ; skirt
G1 X116.500 Y93.228 E21.78692 ; skirt
G1 X68.500 Y93.228 E24.42678 ; skirt
G1 X66.054 Y92.831 E24.56309 ; skirt
G1 X63.859 Y91.680 E24.69940 ; skirt
G1 X62.141 Y89.893 E24.83570 ; skirt
G1 X61.078 Y87.654 E24.97201 ; skirt
G1 X60.772 Y85.500 E25.09166 ; skirt
G1 X60.772 Y36.500 E27.78653 ; skirt
G1 X61.169 Y34.054 E27.92283 ; skirt
G1 X62.218 Y32.053 E28.04706 ; skirt
M204 S3000 ; adjust acceleration
G1 X63.032 Y32.425 F7800.000 ; move to first skirt point
M204 S2000 ; adjust acceleration
G1 X63.178 Y32.165 E28.06350 F1200.000 ; skirt
G1 X64.939 Y30.632 E28.19191 ; skirt
G1 X67.112 Y29.778 E28.32031 ; skirt
G1 X68.500 Y29.636 E28.39703 ; skirt
G1 X116.500 Y29.636 E31.03690 ; skirt
G1 X118.801 Y30.033 E31.16530 ; skirt
G1 X120.835 Y31.178 E31.29371 F1200.000 ; skirt
G1 X122.368 Y32.939 E31.42212 ; skirt
G1 X123.222 Y35.112 E31.55053 ; skirt
G1 X123.364 Y36.500 E31.62724 ; skirt
G1 X123.364 Y85.500 E34.32210 ; skirt
G1 X122.967 Y87.801 E34.45051 ; skirt
G1 X121.822 Y89.835 E34.57892 ; skirt
G1 X120.061 Y91.368 E34.70733 ; skirt
G1 X117.888 Y92.222 E34.83574 ; skirt
G1 X116.500 Y92.364 E34.91245 ; skirt
G1 X68.500 Y92.364 E37.55232 ; skirt
G1 X66.199 Y91.967 E37.68072 ; skirt
G1 X64.165 Y90.822 E37.80913 ; skirt
G1 X62.632 Y89.061 E37.93754 ; skirt
G1 X61.778 Y86.888 E38.06595 ; skirt
G1 X61.636 Y85.500 E38.14267 ; skirt
G1 X61.636 Y36.500 E40.83753 ; skirt
G1 X62.033 Y34.199 E40.96593 ; skirt
G1 X62.995 Y32.491 E41.07377 ; skirt
M204 S3000 ; adjust acceleration
G1 E39.97377 F1800.00000 ; retract
G92 E0 ; reset extrusion distance
G1 Z0.910 F7800.000 ; lift Z
G1 X67.204 Y35.963 F7800.000 ; move to first brim point
G1 Z0.710 F7800.000 ; restore layer Z
G1 E1.10000 F1800.00000 ; unretract
M204 S2000 ; adjust acceleration
G1 X67.963 Y35.204 E1.15906 F1200.000 ; brim
G1 X117.037 Y35.204 E3.85798 ; brim
G1 X117.796 Y35.963 E3.91704 ; brim
G1 X117.796 Y86.037 E6.67096 F1200.000 ; brim
G1 X117.037 Y86.796 E6.73001 ; brim
G1 X67.963 Y86.796 E9.42894 ; brim
G1 X67.204 Y86.037 E9.48799 ; brim
G1 X67.204 Y36.038 E12.23779 ; brim
M204 S3000 ; adjust acceleration
G1 X68.068 Y36.321 F7800.000 ; move to first brim point
M204 S2000 ; adjust acceleration
G1 X68.321 Y36.068 E12.25747 F1200.000 ; brim
G1 X116.679 Y36.068 E14.91702 ; brim
G1 X116.932 Y36.321 E14.93671 F1200.000 ; brim
G1 X116.932 Y85.679 E17.65126 ; brim
G1 X116.679 Y85.932 E17.67094 ; brim
G1 X68.321 Y85.932 E20.33049 ; brim
G1 X68.068 Y85.679 E20.35018 ; brim
G1 X68.068 Y36.396 E23.06060 ; brim
M204 S3000 ; adjust acceleration
G1 E21.96060 F1800.00000 ; retract
G92 E0 ; reset extrusion distance
G1 Z0.910 F7800.000 ; lift Z
G1 X82.777 Y49.260 F7800.000 ; move to first brim point
G1 Z0.710 F7800.000 ; restore layer Z
G1 E1.10000 F1800.00000 ; unretract
M204 S2000 ; adjust acceleration
G1 X83.205 Y48.776 E1.13553 F1200.000 ; brim
G1 X83.612 Y48.366 E1.16730 ; brim
G1 X84.090 Y47.937 E1.20260 ; brim
G1 X84.556 Y47.561 E1.23555 ; brim
G1 X85.050 Y47.205 E1.26901 ; brim
G1 X85.629 Y46.832 E1.30691 ; brim
G1 X86.123 Y46.548 E1.33825 ; brim
G1 X86.664 Y46.269 E1.37172 ; brim
G1 X87.290 Y45.985 E1.40952 ; brim
G1 X87.825 Y45.773 E1.44116 ; brim
G1 X88.374 Y45.583 E1.47315 ; brim
G1 X89.003 Y45.398 E1.50921 ; brim
G1 X90.221 Y45.119 E1.57791 ; brim
G1 X90.843 Y45.010 E1.61262 ; brim
G1 X92.136 Y44.835 E1.68438 ; brim
G1 X96.566 Y44.419 E1.92910 ; brim
G1 X97.834 Y44.259 E1.99940 ; brim
G1 X99.807 Y43.969 E2.10908 ; brim
G1 X101.018 Y43.824 E2.17616 ; brim
G1 X101.640 Y43.780 E2.21042 ; brim
G1 X102.237 Y43.772 E2.24327 ; brim
G1 X102.841 Y43.817 E2.27660 F1200.000 ; brim
G1 X103.180 Y43.876 E2.29553 ; brim
G1 X103.438 Y43.944 E2.31021 ; brim
G1 X103.701 Y44.044 E2.32570 ; brim
G1 X103.917 Y44.156 E2.33907 ; brim
G1 X104.121 Y44.303 E2.35287 ; brim
G1 X104.279 Y44.457 E2.36503 ; brim
G1 X104.431 Y44.658 E2.37888 ; brim
G1 X104.559 Y44.893 E2.39360 ; brim
G1 X104.659 Y45.147 E2.40858 ; brim
G1 X104.744 Y45.437 E2.42522 ; brim
G1 X104.850 Y46.008 E2.45713 ; brim
G1 X104.904 Y46.653 E2.49278 ; brim
G1 X104.913 Y47.257 E2.52599 ; brim
G1 X104.893 Y47.883 E2.56045 ; brim
G1 X104.793 Y49.118 E2.62855 ; brim
G1 X104.636 Y50.396 E2.69939 ; brim
G1 X104.072 Y54.188 E2.91025 ; brim
G1 X103.861 Y55.915 E3.00592 ; brim
G1 X103.785 Y57.008 E3.06615 ; brim
G1 X103.733 Y58.428 E3.14434 ; brim
G1 X103.753 Y59.823 E3.22105 ; brim
G1 X103.784 Y60.463 E3.25626 ; brim
G1 X103.893 Y61.809 E3.33056 ; brim
G1 X104.044 Y63.126 E3.40348 ; brim
G1 X104.389 Y65.754 E3.54922 ; brim
G1 X104.527 Y67.052 E3.62100 ; brim
G1 X104.601 Y68.359 E3.69303 ; brim
G1 X104.584 Y69.302 E3.74487 ; brim
G1 X104.555 Y69.643 E3.76371 ; brim
G1 X104.470 Y70.172 E3.79316 ; brim
G1 X104.344 Y70.613 E3.81840 ; brim
G1 X104.270 Y70.809 E3.82991 ; brim
G1 X104.152 Y71.041 E3.84424 ; brim
G1 X103.987 Y71.268 E3.85968 ; brim
G1 X103.796 Y71.442 E3.87386 ; brim
G1 X103.623 Y71.550 E3.88511 ; brim
G1 X103.337 Y71.663 E3.90201 ; brim
G1 X103.080 Y71.725 E3.91657 ; brim
G1 X102.805 Y71.759 E3.93180 ; brim
G1 X102.499 Y71.771 E3.94861 ; brim
G1 X101.873 Y71.730 E3.98315 ; brim
G1 X101.297 Y71.638 E4.01523 ; brim
G1 X100.640 Y71.490 E4.05223 ; brim
G1 X99.388 Y71.116 E4.12412 ; brim
G1 X98.164 Y70.671 E4.19572 ; brim
G1 X96.325 Y69.922 E4.30496 ; brim
G1 X93.241 Y68.589 E4.48970 ; brim
G1 X91.537 Y67.808 E4.59285 ; brim
G1 X89.798 Y66.937 E4.69979 ; brim
G1 X88.620 Y66.285 E4.77385 ; brim
G1 X87.507 Y65.613 E4.84533 ; brim
G1 X86.460 Y64.923 E4.91429 ; brim
G1 X85.384 Y64.139 E4.98752 ; brim
G1 X84.403 Y63.334 E5.05730 ; brim
G1 X83.881 Y62.855 E5.09626 ; brim
G1 X83.430 Y62.407 E5.13121 ; brim
G1 X83.026 Y61.970 E5.16393 ; brim
G1 X82.636 Y61.506 E5.19732 ; brim
G1 X82.211 Y60.937 E5.23633 ; brim
G1 X81.853 Y60.395 E5.27207 ; brim
G1 X81.538 Y59.845 E5.30695 ; brim
G1 X81.267 Y59.277 E5.34157 ; brim
G1 X81.002 Y58.581 E5.38249 ; brim
G1 X80.816 Y57.940 E5.41921 ; brim
G1 X80.729 Y57.558 E5.44075 ; brim
G1 X80.597 Y56.718 E5.48753 ; brim
G1 X80.516 Y55.921 E5.53159 ; brim
G1 X80.547 Y55.118 E5.57578 ; brim
G1 X80.622 Y54.243 E5.62405 ; brim
G1 X80.715 Y53.666 E5.65622 ; brim
G1 X80.839 Y53.100 E5.68806 ; brim
G1 X81.024 Y52.452 E5.72515 ; brim
G1 X81.219 Y51.903 E5.75718 ; brim
G1 X81.449 Y51.360 E5.78962 ; brim
G1 X81.726 Y50.807 E5.82362 ; brim
G1 X82.058 Y50.244 E5.85957 ; brim
G1 X82.384 Y49.766 E5.89141 ; brim
G1 X82.730 Y49.318 E5.92253 ; brim
M204 S3000 ; adjust acceleration
G1 E4.82253 F1800.00000 ; retract
G92 E0 ; reset extrusion distance
G1 Z0.910 F7800.000 ; lift Z
G1 X103.523 Y44.923 F7800.000 ; move to first brim point
G1 Z0.710 F7800.000 ; restore layer Z
G1 E1.10000 F1800.00000 ; unretract
M204 S2000 ; adjust acceleration
G1 X103.737 Y45.159 E1.11752 F1200.000 ; brim
G1 X103.852 Y45.461 E1.13529 ; brim
G1 X103.964 Y45.929 E1.16176 ; brim
G1 X104.041 Y46.706 E1.20473 ; brim
G1 X104.049 Y47.250 E1.23464 ; brim
G1 X104.030 Y47.840 E1.26713 ; brim
G1 X103.990 Y48.436 E1.29997 ; brim
G1 X103.863 Y49.643 E1.36669 ; brim
G1 X103.216 Y54.071 E1.61284 ; brim
G1 X102.970 Y56.082 E1.72426 ; brim
G1 X102.981 Y56.115 E1.72614 ; brim
G1 X102.884 Y57.756 E1.81658 ; brim
G1 X102.870 Y59.117 E1.89144 ; brim
G1 X102.921 Y60.509 E1.96801 ; brim
G1 X103.032 Y61.891 E2.04428 ; brim
G1 X103.186 Y63.233 E2.11859 ; brim
G1 X103.529 Y65.840 E2.26315 ; brim
G1 X103.664 Y67.110 E2.33341 ; brim
G1 X103.736 Y68.376 E2.40315 ; brim
G1 X103.722 Y69.244 E2.45090 ; brim
G1 X103.658 Y69.820 E2.48277 ; brim
G1 X103.479 Y70.509 E2.52192 ; brim
G1 X103.086 Y70.852 E2.55059 ; brim
G1 X102.730 Y70.898 E2.57036 ; brim
G1 X102.275 Y70.899 E2.59537 ; brim
G1 X101.487 Y70.794 E2.63910 ; brim
G1 X100.828 Y70.646 E2.67624 ; brim
G1 X100.289 Y70.496 E2.70701 ; brim
G1 X99.070 Y70.089 E2.77768 ; brim
G1 X97.799 Y69.598 E2.85260 ; brim
G1 X96.614 Y69.106 E2.92318 ; brim
G1 X92.946 Y67.510 E3.14315 ; brim
G1 X91.905 Y67.026 E3.20632 ; brim
G1 X90.716 Y66.441 E3.27921 ; brim
G1 X89.052 Y65.537 E3.38333 ; brim
G1 X87.433 Y64.537 E3.48801 ; brim
G1 X86.400 Y63.821 E3.55714 ; brim
G1 X85.912 Y63.456 E3.59063 ; brim
G1 X84.975 Y62.685 E3.65736 ; brim
G1 X84.490 Y62.242 E3.69346 ; brim
G1 X83.675 Y61.399 E3.75796 ; brim
G1 X83.330 Y60.988 E3.78749 ; brim
G1 X82.903 Y60.418 E3.82664 ; brim
G1 X82.589 Y59.943 E3.85799 ; brim
G1 X82.311 Y59.456 E3.88882 ; brim
G1 X82.060 Y58.933 E3.92070 ; brim
G1 X81.827 Y58.324 E3.95658 ; brim
G1 X81.655 Y57.733 E3.99046 ; brim
G1 X81.576 Y57.384 E4.01013 ; brim
G1 X81.454 Y56.610 E4.05320 ; brim
G1 X81.384 Y55.954 E4.08950 ; brim
G1 X81.410 Y55.177 E4.13225 ; brim
G1 X81.477 Y54.380 E4.17625 ; brim
G1 X81.560 Y53.851 E4.20565 ; brim
G1 X81.684 Y53.286 E4.23749 ; brim
G1 X81.845 Y52.722 E4.26977 ; brim
G1 X82.024 Y52.217 E4.29925 ; brim
G1 X82.233 Y51.723 E4.32870 ; brim
G1 X82.485 Y51.221 E4.35960 ; brim
G1 X82.772 Y50.731 E4.39085 ; brim
G1 X83.082 Y50.275 E4.42118 ; brim
G1 X83.443 Y49.811 E4.45347 ; brim
G1 X83.836 Y49.366 E4.48615 ; brim
G1 X84.208 Y48.992 E4.51516 ; brim
G1 X84.668 Y48.580 E4.54911 ; brim
G1 X85.080 Y48.249 E4.57821 ; brim
G1 X85.556 Y47.907 E4.61043 ; brim
G1 X86.097 Y47.559 E4.64580 ; brim
G1 X86.536 Y47.307 E4.67364 ; brim
G1 X87.059 Y47.038 E4.70599 ; brim
G1 X87.609 Y46.789 E4.73918 ; brim
G1 X88.125 Y46.584 E4.76973 ; brim
G1 X88.656 Y46.401 E4.80063 ; brim
G1 X89.229 Y46.232 E4.83349 ; brim
G1 X90.371 Y45.971 E4.89788 ; brim
G1 X91.566 Y45.777 E4.96448 ; brim
G1 X92.804 Y45.633 E5.03303 ; brim
G1 X96.660 Y45.278 E5.24598 ; brim
G1 X97.952 Y45.116 E5.31758 ; brim
G1 X99.926 Y44.825 E5.42733 ; brim
G1 X101.111 Y44.683 E5.49298 ; brim
G1 X101.950 Y44.635 E5.53921 ; brim
G1 X102.508 Y44.650 E5.56989 ; brim
G1 X103.000 Y44.722 E5.59722 ; brim
G1 X103.181 Y44.771 E5.60756 ; brim
G1 X103.456 Y44.889 E5.62400 ; brim
M204 S3000 ; adjust acceleration
G1 E4.52400 F1800.00000 ; retract
G92 E0 ; reset extrusion distance
G1 Z0.910 F7800.000 ; lift Z
G1 X116.025 Y85.025 F7800.000 ; move to first perimeter point
G1 Z0.710 F7800.000 ; restore layer Z
G1 E1.10000 F1800.00000 ; unretract
M204 S2000 ; adjust acceleration
G1 X68.975 Y85.025 E3.68762 F1200.000 ; perimeter
G1 X68.975 Y56.975 E5.23029 ; perimeter
G1 X79.716 Y56.975 E5.82102 ; perimeter
G1 X79.767 Y57.346 E5.84163 ; perimeter
G1 X79.928 Y58.132 E5.88576 ; perimeter
G1 X80.144 Y58.877 E5.92841 ; perimeter
G1 X80.291 Y59.287 E5.95233 ; perimeter
G1 X80.442 Y59.655 E5.97423 ; perimeter
G1 X80.741 Y60.280 E6.01233 ; perimeter
G1 X81.072 Y60.858 E6.04897 ; perimeter
G1 X81.452 Y61.436 E6.08702 ; perimeter
G1 X81.886 Y62.024 E6.12720 ; perimeter
G1 X82.331 Y62.554 E6.16526 ; perimeter
G1 X82.761 Y63.021 E6.20015 ; perimeter
G1 X83.251 Y63.509 E6.23822 ; perimeter
G1 X83.788 Y64.001 E6.27825 ; perimeter
G1 X84.299 Y64.435 E6.31514 ; perimeter
G1 X85.334 Y65.237 E6.38717 ; perimeter
G1 X85.928 Y65.659 E6.42720 ; perimeter
G1 X86.466 Y66.021 E6.46289 ; perimeter
G1 X87.609 Y66.742 E6.53721 ; perimeter
G1 X88.733 Y67.392 E6.60861 ; perimeter
G1 X89.961 Y68.045 E6.68510 ; perimeter
G1 X91.143 Y68.625 E6.75752 ; perimeter
G1 X92.336 Y69.179 E6.82985 ; perimeter
G1 X96.026 Y70.781 E7.05107 ; perimeter
G1 X97.893 Y71.540 E7.16196 ; perimeter
G1 X99.154 Y71.995 E7.23567 ; perimeter
G1 X99.791 Y72.196 E7.27243 ; perimeter
G1 X100.468 Y72.384 E7.31106 ; perimeter
G1 X101.141 Y72.532 E7.34892 ; perimeter
G1 X101.787 Y72.635 E7.38494 ; perimeter
G1 X102.517 Y72.679 E7.42516 ; perimeter
G1 X102.907 Y72.663 E7.44659 ; perimeter
G1 X103.276 Y72.613 E7.46708 ; perimeter
G1 X103.646 Y72.521 E7.48808 ; perimeter
G1 X103.988 Y72.384 E7.50835 ; perimeter
G1 X104.196 Y72.269 E7.52140 ; perimeter
G1 X104.533 Y72.012 E7.54467 ; perimeter
G1 X104.812 Y71.694 E7.56799 ; perimeter
G1 X105.092 Y71.204 E7.59899 ; perimeter
G1 X105.339 Y70.460 E7.64214 ; perimeter
G1 X105.458 Y69.735 E7.68253 ; perimeter
G1 X105.507 Y69.013 E7.72231 ; perimeter
G1 X105.508 Y68.348 E7.75890 ; perimeter
G1 X105.435 Y67.016 E7.83225 ; perimeter
G1 X105.292 Y65.665 E7.90698 ; perimeter
G1 X104.867 Y62.388 E8.08870 ; perimeter
G1 X104.740 Y61.105 E8.15960 ; perimeter
G1 X104.689 Y60.402 E8.19839 ; perimeter
G1 X104.641 Y59.103 E8.26986 ; perimeter
G1 X104.640 Y58.443 E8.30616 ; perimeter
G1 X104.702 Y56.975 E8.38698 ; perimeter
G1 X116.025 Y56.975 E9.00970 ; perimeter
G1 X116.025 Y84.950 E10.54825 ; perimeter
M204 S3000 ; adjust acceleration
G1 X115.592 Y84.775 F7800.000 ; move inwards before travel
G1 X115.161 Y84.161 F7800.000 ; move to first perimeter point
M204 S2000 ; adjust acceleration
G1 X69.839 Y84.161 E13.04081 F1200.000 ; perimeter
G1 X69.839 Y57.839 E14.48843 ; perimeter
G1 X78.986 Y57.839 E14.99146 ; perimeter
G1 X79.088 Y58.340 E15.01957 ; perimeter
G1 X79.321 Y59.144 E15.06561 ; perimeter
G1 X79.652 Y60.006 E15.11637 ; perimeter
G1 X79.976 Y60.681 E15.15756 ; perimeter
G1 X80.335 Y61.311 E15.19742 ; perimeter
G1 X80.743 Y61.931 E15.23828 ; perimeter
G1 X81.207 Y62.559 E15.28120 ; perimeter
G1 X81.681 Y63.125 E15.32182 ; perimeter
G1 X82.138 Y63.620 E15.35884 ; perimeter
G1 X82.654 Y64.134 E15.39892 ; perimeter
G1 X83.216 Y64.649 E15.44083 ; perimeter
G1 X83.754 Y65.106 E15.47969 ; perimeter
G1 X84.819 Y65.931 E15.55378 ; perimeter
G1 X85.994 Y66.745 E15.63238 ; perimeter
G1 X87.162 Y67.482 E15.70834 ; perimeter
G1 X88.314 Y68.147 E15.78148 ; perimeter
G1 X89.568 Y68.814 E15.85958 ; perimeter
G1 X90.771 Y69.405 E15.93329 ; perimeter
G1 X91.982 Y69.967 E16.00673 ; perimeter
