; generated by Slic3r 1.2.9 on 2015-09-09 at 14:31:18

; external perimeters extrusion width = 0.55mm
; perimeters extrusion width = 0.61mm
; infill extrusion width = 0.60mm
; solid infill extrusion width = 0.60mm
; top infill extrusion width = 0.60mm
; support material extrusion width = 0.70mm

M107 ; disable fan
;start gcode
M80 ;ATX on
M190 S52 ; wait for start bed temperature to be reached
M140 S65 ; set  bed temp to be
M104 S215 ; set temperature
G28 ; home all axes
M190 S65 ; set and wait for bed temp to be reached
M109 S215; wait for extruder temp to be reached
G21 ; set units to millimeters
G90 ; use absolute coordinates
M82 ; use absolute distances for extrusion
G92 E0 ; reset extrusion distance
G1 E-1.10000 F1800.00000 ; retract
G92 E0 ; reset extrusion distance
G1 Z0.510 F7800.000 ; lift Z
G1 Z0.710 F7800.000 ; move to next layer (0)
G1 Z0.910 F7800.000 ; lift Z
G1 X72.321 Y47.555 F7800.000 ; move to first skirt point
G1 Z0.710 F7800.000 ; restore layer Z
G1 E1.10000 F1800.00000 ; unretract
M204 S2000 ; adjust acceleration
G1 X72.798 Y46.868 E1.14599 F1200.000 ; skirt
G1 X73.307 Y46.190 E1.19261 ; skirt
G1 X73.819 Y45.561 E1.23722 ; skirt
G1 X74.353 Y44.953 E1.28176 ; skirt
G1 X74.914 Y44.360 E1.32660 ; skirt
G1 X75.504 Y43.780 E1.37214 ; skirt
G1 X76.125 Y43.214 E1.41831 ; skirt
G1 X76.719 Y42.711 E1.46116 ; skirt
G1 X77.354 Y42.212 E1.50557 ; skirt
G1 X78.030 Y41.721 E1.55151 ; skirt
G1 X78.751 Y41.240 E1.59921 ; skirt
G1 X79.481 Y40.795 E1.64622 ; skirt
G1 X80.697 Y40.142 E1.72212 ; skirt
G1 X81.522 Y39.759 E1.77214 ; skirt
G1 X82.299 Y39.438 E1.81837 ; skirt
G1 X83.116 Y39.141 E1.86616 ; skirt
G1 X83.902 Y38.891 E1.91153 ; skirt
G1 X84.694 Y38.671 E1.95676 ; skirt
G1 X85.709 Y38.431 E2.01410 ; skirt
G1 X99.971 Y35.711 E2.81260 ; skirt
G1 X100.968 Y35.544 E2.86823 ; skirt
G1 X102.172 Y35.400 E2.93492 ; skirt
G1 X103.065 Y35.338 E2.98414 ; skirt
G1 X104.040 Y35.323 E3.03774 ; skirt
G1 X104.626 Y35.344 E3.06998 F1200.000 ; skirt
G1 X105.272 Y35.396 E3.10565 ; skirt
G1 X106.254 Y35.535 E3.16023 ; skirt
G1 X107.033 Y35.703 E3.20405 ; skirt
G1 X107.676 Y35.882 E3.24074 ; skirt
G1 X108.675 Y36.243 E3.29916 ; skirt
G1 X109.697 Y36.729 E3.36138 ; skirt
G1 X110.079 Y36.943 E3.38544 ; skirt
G1 X110.704 Y37.345 E3.42637 ; skirt
G1 X110.996 Y37.552 E3.44601 ; skirt
G1 X111.627 Y38.057 E3.49047 ; skirt
G1 X112.442 Y38.835 E3.55243 ; skirt
G1 X113.140 Y39.649 E3.61140 ; skirt
G1 X113.623 Y40.318 E3.65679 ; skirt
G1 X113.835 Y40.650 E3.67844 ; skirt
G1 X114.091 Y41.080 E3.70600 ; skirt
G1 X114.472 Y41.818 E3.75164 ; skirt
G1 X114.868 Y42.753 E3.80753 ; skirt
G1 X115.100 Y43.420 E3.84631 ; skirt
G1 X115.281 Y44.040 E3.88184 ; skirt
G1 X115.430 Y44.649 E3.91632 ; skirt
G1 X115.566 Y45.347 E3.95546 ; skirt
G1 X115.695 Y46.235 E4.00481 ; skirt
G1 X115.749 Y46.745 E4.03301 ; skirt
G1 X115.821 Y47.998 E4.10205 ; skirt
G1 X115.812 Y49.530 E4.18631 ; skirt
G1 X114.747 Y72.816 E5.46827 ; skirt
G1 X114.649 Y73.871 E5.52656 ; skirt
G1 X114.560 Y74.489 E5.56090 ; skirt
G1 X114.413 Y75.270 E5.60462 ; skirt
G1 X114.194 Y76.157 E5.65485 ; skirt
G1 X113.931 Y76.997 E5.70327 ; skirt
G1 X113.697 Y77.617 E5.73973 ; skirt
G1 X113.210 Y78.682 E5.80409 ; skirt
G1 X112.859 Y79.323 E5.84430 ; skirt
G1 X112.475 Y79.938 E5.88416 ; skirt
G1 X112.061 Y80.528 E5.92383 ; skirt
G1 X111.644 Y81.060 E5.96099 ; skirt
G1 X111.048 Y81.736 E6.01058 ; skirt
G1 X110.562 Y82.224 E6.04847 ; skirt
G1 X109.790 Y82.911 E6.10530 ; skirt
G1 X109.130 Y83.425 E6.15128 ; skirt
G1 X108.392 Y83.933 E6.20054 ; skirt
G1 X107.708 Y84.348 E6.24454 ; skirt
G1 X106.968 Y84.746 E6.29079 ; skirt
G1 X106.257 Y85.083 E6.33403 ; skirt
G1 X105.425 Y85.425 E6.38353 ; skirt
G1 X104.530 Y85.741 E6.43572 ; skirt
G1 X103.618 Y86.008 E6.48800 ; skirt
G1 X102.713 Y86.224 E6.53917 ; skirt
G1 X101.823 Y86.391 E6.58894 ; skirt
G1 X100.989 Y86.510 E6.63528 ; skirt
G1 X100.123 Y86.597 E6.68316 ; skirt
G1 X99.239 Y86.646 E6.73186 ; skirt
G1 X98.086 Y86.655 E6.79525 ; skirt
G1 X97.230 Y86.620 E6.84235 ; skirt
G1 X96.376 Y86.550 E6.88952 ; skirt
G1 X95.534 Y86.446 E6.93614 ; skirt
G1 X94.230 Y86.215 E7.00900 ; skirt
G1 X93.418 Y86.028 E7.05481 ; skirt
G1 X92.643 Y85.818 E7.09897 ; skirt
G1 X91.870 Y85.578 E7.14347 ; skirt
G1 X90.879 Y85.227 E7.20132 ; skirt
G1 X90.123 Y84.925 E7.24609 ; skirt
G1 X89.032 Y84.437 E7.31180 ; skirt
G1 X88.203 Y84.026 E7.36271 ; skirt
G1 X87.117 Y83.436 E7.43065 ; skirt
G1 X86.386 Y83.007 E7.47729 ; skirt
G1 X85.334 Y82.342 E7.54574 ; skirt
G1 X84.366 Y81.689 E7.60995 ; skirt
G1 X83.322 Y80.940 E7.68063 ; skirt
G1 X82.024 Y79.956 E7.77018 ; skirt
G1 X81.082 Y79.207 E7.83639 ; skirt
G1 X80.126 Y78.414 E7.90470 ; skirt
G1 X79.229 Y77.634 E7.97008 ; skirt
G1 X78.324 Y76.804 E8.03760 ; skirt
G1 X77.422 Y75.925 E8.10689 ; skirt
G1 X76.506 Y74.971 E8.17962 ; skirt
G1 X75.719 Y74.091 E8.24454 ; skirt
G1 X75.211 Y73.489 E8.28785 ; skirt
G1 X74.454 Y72.533 E8.35492 ; skirt
G1 X73.929 Y71.820 E8.40363 ; skirt
G1 X73.279 Y70.873 E8.46680 ; skirt
G1 X72.787 Y70.101 E8.51715 ; skirt
G1 X72.290 Y69.258 E8.57099 ; skirt
G1 X71.723 Y68.203 E8.63682 ; skirt
G1 X71.365 Y67.473 E8.68154 ; skirt
G1 X70.950 Y66.551 E8.73714 ; skirt
G1 X70.623 Y65.743 E8.78512 ; skirt
G1 X70.280 Y64.795 E8.84052 ; skirt
G1 X70.013 Y63.958 E8.88885 ; skirt
G1 X69.734 Y62.935 E8.94718 ; skirt
G1 X69.525 Y62.003 E8.99971 ; skirt
G1 X69.376 Y61.163 E9.04665 ; skirt
G1 X69.239 Y60.163 E9.10216 ; skirt
G1 X69.150 Y59.182 E9.15628 ; skirt
G1 X69.115 Y58.309 E9.20438 ; skirt
G1 X69.142 Y56.904 E9.28163 ; skirt
G1 X69.212 Y56.035 E9.32962 ; skirt
G1 X69.334 Y55.096 E9.38166 ; skirt
G1 X69.418 Y54.602 E9.40921 ; skirt
G1 X69.618 Y53.668 E9.46175 ; skirt
G1 X69.734 Y53.213 E9.48760 ; skirt
G1 X70.007 Y52.299 E9.54006 ; skirt
G1 X70.322 Y51.410 E9.59193 ; skirt
G1 X70.668 Y50.571 E9.64181 ; skirt
G1 X71.033 Y49.790 E9.68925 ; skirt
G1 X71.438 Y49.013 E9.73744 ; skirt
G1 X71.862 Y48.280 E9.78401 ; skirt
G1 X72.280 Y47.618 E9.82707 ; skirt
M204 S3000 ; adjust acceleration
G1 X73.036 Y48.042 F7800.000 ; move to first skirt point
M204 S2000 ; adjust acceleration
G1 X73.492 Y47.382 E9.87118 F1200.000 ; skirt
G1 X73.982 Y46.731 E9.91601 ; skirt
G1 X74.472 Y46.127 E9.95879 ; skirt
G1 X74.986 Y45.542 E10.00160 ; skirt
G1 X75.524 Y44.972 E10.04469 ; skirt
G1 X76.091 Y44.415 E10.08843 ; skirt
G1 X76.688 Y43.870 E10.13286 ; skirt
G1 X77.259 Y43.387 E10.17401 ; skirt
G1 X77.868 Y42.907 E10.21664 ; skirt
G1 X78.516 Y42.436 E10.26071 ; skirt
G1 X79.208 Y41.974 E10.30647 ; skirt
G1 X79.907 Y41.546 E10.35155 ; skirt
G1 X81.088 Y40.912 E10.42530 ; skirt
G1 X81.878 Y40.546 E10.47319 ; skirt
G1 X82.621 Y40.240 E10.51736 ; skirt
G1 X83.403 Y39.956 E10.56313 ; skirt
G1 X84.157 Y39.717 E10.60659 ; skirt
G1 X84.920 Y39.506 E10.65015 ; skirt
G1 X85.883 Y39.278 E10.70459 ; skirt
G1 X100.132 Y36.560 E11.50237 ; skirt
G1 X101.083 Y36.401 E11.55539 ; skirt
G1 X102.263 Y36.259 E11.62078 ; skirt
G1 X103.116 Y36.200 E11.66777 ; skirt
G1 X104.018 Y36.187 E11.71738 ; skirt
G1 X105.175 Y36.255 E11.78114 F1200.000 ; skirt
G1 X106.109 Y36.387 E11.83301 ; skirt
G1 X106.833 Y36.543 E11.87375 ; skirt
G1 X107.411 Y36.705 E11.90676 ; skirt
G1 X108.335 Y37.037 E11.96077 ; skirt
G1 X109.278 Y37.484 E12.01815 ; skirt
G1 X109.643 Y37.689 E12.04117 ; skirt
G1 X110.206 Y38.051 E12.07798 ; skirt
G1 X110.488 Y38.251 E12.09699 ; skirt
G1 X111.055 Y38.706 E12.13698 ; skirt
G1 X111.807 Y39.422 E12.19407 ; skirt
G1 X112.452 Y40.173 E12.24852 ; skirt
G1 X112.901 Y40.793 E12.29063 ; skirt
G1 X113.105 Y41.112 E12.31146 ; skirt
G1 X113.336 Y41.500 E12.33630 ; skirt
G1 X113.690 Y42.185 E12.37871 ; skirt
G1 X113.977 Y42.844 E12.41821 ; skirt
G1 X114.139 Y43.274 E12.44349 ; skirt
G1 X114.445 Y44.255 E12.50002 ; skirt
G1 X114.585 Y44.828 E12.53245 ; skirt
G1 X114.713 Y45.482 E12.56912 ; skirt
G1 X114.836 Y46.325 E12.61597 ; skirt
G1 X114.889 Y46.835 E12.64418 ; skirt
G1 X114.957 Y48.012 E12.70898 ; skirt
G1 X114.948 Y49.491 E12.79033 ; skirt
G1 X113.884 Y72.765 E14.07170 ; skirt
G1 X113.791 Y73.763 E14.12679 ; skirt
G1 X113.708 Y74.344 E14.15908 ; skirt
G1 X113.567 Y75.096 E14.20115 ; skirt
G1 X113.364 Y75.917 E14.24765 ; skirt
G1 X113.112 Y76.719 E14.29393 ; skirt
G1 X112.893 Y77.301 E14.32809 ; skirt
G1 X112.445 Y78.280 E14.38734 ; skirt
G1 X112.117 Y78.879 E14.42488 ; skirt
G1 X111.759 Y79.454 E14.46211 ; skirt
G1 X111.372 Y80.006 E14.49918 ; skirt
G1 X110.982 Y80.504 E14.53400 ; skirt
G1 X110.414 Y81.148 E14.58122 ; skirt
G1 X109.959 Y81.606 E14.61672 ; skirt
G1 X109.245 Y82.240 E14.66926 ; skirt
G1 X108.613 Y82.732 E14.71328 ; skirt
G1 X107.930 Y83.203 E14.75891 ; skirt
G1 X107.273 Y83.602 E14.80118 ; skirt
G1 X106.585 Y83.972 E14.84415 ; skirt
G1 X105.900 Y84.296 E14.88584 ; skirt
G1 X105.105 Y84.622 E14.93311 ; skirt
G1 X104.253 Y84.922 E14.98276 ; skirt
G1 X103.385 Y85.176 E15.03249 ; skirt
G1 X102.522 Y85.381 E15.08131 ; skirt
G1 X101.673 Y85.540 E15.12880 ; skirt
G1 X100.874 Y85.654 E15.17318 ; skirt
G1 X100.045 Y85.736 E15.21898 ; skirt
G1 X99.198 Y85.783 E15.26566 ; skirt
G1 X98.114 Y85.791 E15.32527 ; skirt
G1 X97.294 Y85.758 E15.37042 ; skirt
G1 X96.474 Y85.691 E15.41563 ; skirt
G1 X95.668 Y85.592 E15.46033 ; skirt
G1 X94.397 Y85.367 E15.53128 ; skirt
G1 X93.619 Y85.187 E15.57522 ; skirt
G1 X92.875 Y84.985 E15.61762 ; skirt
G1 X92.132 Y84.755 E15.66041 ; skirt
G1 X91.193 Y84.422 E15.71518 ; skirt
G1 X90.466 Y84.132 E15.75822 ; skirt
G1 X89.396 Y83.653 E15.82270 ; skirt
G1 X87.953 Y82.915 E15.91184 ; skirt
G1 X87.007 Y82.372 E15.97181 ; skirt
G1 X86.306 Y81.940 E16.01711 ; skirt
G1 X85.254 Y81.251 E16.08626 ; skirt
G1 X84.294 Y80.578 E16.15078 ; skirt
G1 X83.369 Y79.898 E16.21391 ; skirt
G1 X82.027 Y78.858 E16.30730 ; skirt
G1 X80.757 Y77.816 E16.39762 ; skirt
G1 X79.885 Y77.062 E16.46102 ; skirt
G1 X78.995 Y76.249 E16.52733 ; skirt
G1 X78.128 Y75.409 E16.59371 ; skirt
G1 X77.242 Y74.495 E16.66372 ; skirt
G1 X76.719 Y73.920 E16.70648 ; skirt
G1 X75.983 Y73.067 E16.76843 ; skirt
G1 X75.459 Y72.420 E16.81419 ; skirt
G1 X74.749 Y71.481 E16.87898 ; skirt
G1 X74.342 Y70.904 E16.91779 ; skirt
G1 X73.893 Y70.233 E16.96219 ; skirt
G1 X73.326 Y69.321 E17.02128 ; skirt
G1 X72.950 Y68.667 E17.06275 ; skirt
G1 X72.403 Y67.633 E17.12707 ; skirt
G1 X71.983 Y66.752 E17.18075 ; skirt
G1 X71.669 Y66.030 E17.22405 ; skirt
G1 X71.286 Y65.050 E17.28193 ; skirt
G1 X71.036 Y64.329 E17.32388 ; skirt
G1 X70.844 Y63.719 E17.35908 ; skirt
G1 X70.571 Y62.720 E17.41605 ; skirt
G1 X70.373 Y61.838 E17.46575 ; skirt
G1 X70.232 Y61.046 E17.51000 ; skirt
G1 X70.046 Y59.573 E17.59163 ; skirt
G1 X69.994 Y58.782 E17.63521 ; skirt
G1 X69.977 Y57.892 E17.68416 ; skirt
G1 X70.004 Y56.963 E17.73530 ; skirt
G1 X70.070 Y56.135 E17.78096 ; skirt
G1 X70.186 Y55.242 E17.83051 ; skirt
G1 X70.351 Y54.344 E17.88074 ; skirt
G1 X70.520 Y53.613 E17.92199 ; skirt
G1 X70.725 Y52.888 E17.96341 ; skirt
G1 X70.989 Y52.096 E18.00936 ; skirt
G1 X71.320 Y51.244 E18.05962 ; skirt
G1 X71.654 Y50.492 E18.10486 ; skirt
G1 X72.029 Y49.738 E18.15120 ; skirt
G1 X72.435 Y49.007 E18.19715 ; skirt
G1 X72.995 Y48.105 E18.25557 ; skirt
M204 S3000 ; adjust acceleration
G1 X73.750 Y48.528 F7800.000 ; move to first skirt point
M204 S2000 ; adjust acceleration
G1 X74.187 Y47.897 E18.29780 F1200.000 ; skirt
G1 X74.656 Y47.271 E18.34083 ; skirt
G1 X75.126 Y46.693 E18.38178 ; skirt
G1 X75.618 Y46.131 E18.42287 ; skirt
G1 X76.134 Y45.584 E18.46420 ; skirt
G1 X76.677 Y45.049 E18.50615 ; skirt
G1 X77.250 Y44.526 E18.54883 ; skirt
G1 X77.798 Y44.062 E18.58828 ; skirt
G1 X78.381 Y43.602 E18.62914 ; skirt
G1 X79.002 Y43.151 E18.67134 ; skirt
G1 X79.664 Y42.708 E18.71515 ; skirt
G1 X80.333 Y42.298 E18.75832 ; skirt
G1 X81.480 Y41.682 E18.82990 ; skirt
G1 X82.235 Y41.333 E18.87566 ; skirt
G1 X82.943 Y41.041 E18.91779 ; skirt
G1 X83.691 Y40.771 E18.96152 ; skirt
G1 X84.411 Y40.543 E19.00307 ; skirt
G1 X85.146 Y40.340 E19.04498 ; skirt
G1 X86.058 Y40.124 E19.09652 ; skirt
G1 X100.294 Y37.409 E19.89357 ; skirt
G1 X101.198 Y37.257 E19.94397 ; skirt
G1 X102.355 Y37.118 E20.00807 ; skirt
G1 X103.167 Y37.063 E20.05283 ; skirt
G1 X103.996 Y37.051 E20.09846 ; skirt
G1 X105.078 Y37.113 E20.15808 F1200.000 ; skirt
G1 X105.963 Y37.239 E20.20723 ; skirt
G1 X106.633 Y37.384 E20.24491 ; skirt
G1 X107.146 Y37.527 E20.27422 ; skirt
G1 X107.995 Y37.832 E20.32383 ; skirt
G1 X108.859 Y38.240 E20.37637 ; skirt
G1 X109.207 Y38.436 E20.39834 ; skirt
G1 X109.707 Y38.757 E20.43103 ; skirt
G1 X109.980 Y38.951 E20.44943 ; skirt
G1 X110.484 Y39.354 E20.48495 ; skirt
G1 X110.689 Y39.535 E20.49995 ; skirt
G1 X111.339 Y40.189 E20.55071 ; skirt
G1 X111.905 Y40.881 E20.59984 ; skirt
G1 X112.185 Y41.276 E20.62645 ; skirt
G1 X112.576 Y41.912 E20.66752 ; skirt
G1 X112.983 Y42.718 E20.71718 ; skirt
G1 X113.178 Y43.173 E20.74442 ; skirt
G1 X113.384 Y43.729 E20.77703 ; skirt
G1 X113.672 Y44.720 E20.83377 ; skirt
G1 X113.859 Y45.618 E20.88421 ; skirt
G1 X113.976 Y46.416 E20.92857 ; skirt
G1 X114.030 Y46.926 E20.95678 ; skirt
G1 X114.093 Y48.025 E21.01735 ; skirt
G1 X114.085 Y49.452 E21.09579 ; skirt
G1 X113.021 Y72.715 E22.37656 ; skirt
G1 X112.934 Y73.654 E22.42844 ; skirt
G1 X112.856 Y74.199 E22.45870 ; skirt
G1 X112.721 Y74.921 E22.49910 ; skirt
G1 X112.607 Y75.404 E22.52638 ; skirt
G1 X112.373 Y76.210 E22.57253 ; skirt
G1 X112.179 Y76.754 E22.60431 ; skirt
G1 X111.844 Y77.543 E22.65147 ; skirt
G1 X111.564 Y78.100 E22.68575 ; skirt
G1 X111.248 Y78.649 E22.72057 ; skirt
G1 X110.684 Y79.483 E22.77597 ; skirt
G1 X110.320 Y79.949 E22.80844 ; skirt
G1 X109.781 Y80.560 E22.85330 ; skirt
G1 X109.356 Y80.987 E22.88641 ; skirt
G1 X108.700 Y81.570 E22.93465 ; skirt
G1 X108.097 Y82.039 E22.97671 ; skirt
G1 X107.468 Y82.472 E23.01870 ; skirt
G1 X106.838 Y82.855 E23.05925 ; skirt
G1 X106.202 Y83.197 E23.09894 ; skirt
G1 X105.543 Y83.509 E23.13908 ; skirt
G1 X104.785 Y83.820 E23.18411 ; skirt
G1 X103.976 Y84.103 E23.23124 ; skirt
G1 X103.153 Y84.343 E23.27840 ; skirt
G1 X102.331 Y84.538 E23.32488 ; skirt
G1 X101.523 Y84.689 E23.37008 ; skirt
G1 X100.759 Y84.798 E23.41251 ; skirt
G1 X99.968 Y84.875 E23.45623 ; skirt
G1 X99.157 Y84.920 E23.50090 ; skirt
G1 X98.142 Y84.927 E23.55672 ; skirt
G1 X97.357 Y84.896 E23.59992 ; skirt
G1 X96.573 Y84.833 E23.64318 ; skirt
G1 X95.801 Y84.738 E23.68594 ; skirt
G1 X95.059 Y84.617 E23.72728 ; skirt
G1 X94.301 Y84.462 E23.76988 ; skirt
G1 X93.107 Y84.153 E23.83769 ; skirt
G1 X92.393 Y83.931 E23.87878 ; skirt
G1 X91.508 Y83.617 E23.93048 ; skirt
G1 X90.810 Y83.339 E23.97178 ; skirt
G1 X89.760 Y82.869 E24.03503 ; skirt
G1 X88.377 Y82.162 E24.12047 ; skirt
G1 X87.443 Y81.626 E24.17967 ; skirt
G1 X86.772 Y81.213 E24.22301 ; skirt
G1 X85.745 Y80.540 E24.29053 ; skirt
G1 X84.802 Y79.879 E24.35388 ; skirt
G1 X83.893 Y79.210 E24.41595 ; skirt
G1 X82.568 Y78.184 E24.50810 ; skirt
G1 X81.311 Y77.154 E24.59749 ; skirt
G1 X80.456 Y76.412 E24.65976 ; skirt
G1 X79.584 Y75.616 E24.72470 ; skirt
G1 X78.734 Y74.794 E24.78971 ; skirt
G1 X77.870 Y73.900 E24.85809 ; skirt
G1 X77.368 Y73.350 E24.89905 ; skirt
G1 X76.643 Y72.509 E24.96010 ; skirt
G1 X76.143 Y71.891 E25.00383 ; skirt
G1 X75.445 Y70.968 E25.06750 ; skirt
G1 X75.051 Y70.408 E25.10513 ; skirt
G1 X74.622 Y69.769 E25.14746 ; skirt
G1 X74.065 Y68.874 E25.20546 ; skirt
G1 X73.708 Y68.253 E25.24482 ; skirt
G1 X73.256 Y67.405 E25.29768 ; skirt
G1 X72.932 Y66.746 E25.33808 ; skirt
G1 X72.535 Y65.862 E25.39138 ; skirt
G1 X72.241 Y65.136 E25.43445 ; skirt
G1 X71.913 Y64.228 E25.48756 ; skirt
G1 X71.674 Y63.480 E25.53074 ; skirt
G1 X71.408 Y62.504 E25.58636 ; skirt
G1 X71.222 Y61.672 E25.63323 ; skirt
G1 X71.088 Y60.929 E25.67478 ; skirt
G1 X70.907 Y59.509 E25.75349 ; skirt
G1 X70.858 Y58.756 E25.79501 ; skirt
G1 X70.841 Y57.910 E25.84156 ; skirt
G1 X70.866 Y57.022 E25.89040 ; skirt
G1 X70.928 Y56.236 E25.93374 ; skirt
G1 X71.037 Y55.388 E25.98079 ; skirt
G1 X71.193 Y54.535 E26.02848 ; skirt
G1 X71.356 Y53.832 E26.06818 ; skirt
G1 X71.554 Y53.134 E26.10805 ; skirt
G1 X71.807 Y52.376 E26.15202 ; skirt
G1 X72.121 Y51.567 E26.19976 ; skirt
G1 X72.440 Y50.850 E26.24290 ; skirt
