; generated by Slic3r 1.2.9 on 2015-09-11 at 12:29:06

; external perimeters extrusion width = 0.55mm
; perimeters extrusion width = 0.61mm
; infill extrusion width = 0.60mm
; solid infill extrusion width = 0.60mm
; top infill extrusion width = 0.60mm
; support material extrusion width = 0.70mm

M107 ; disable fan
;start gcode
M80 ;ATX on
M190 S52 ; wait for start bed temperature to be reached
M140 S65 ; set  bed temp to be
M104 S215 ; set temperature
G28 ; home all axes
M190 S65 ; set and wait for bed temp to be reached
M109 S215; wait for extruder temp to be reached
G21 ; set units to millimeters
G90 ; use absolute coordinates
M82 ; use absolute distances for extrusion
G92 E0 ; reset extrusion distance
G1 E-1.10000 F1800.00000 ; retract
G92 E0 ; reset extrusion distance
G1 Z0.510 F7800.000 ; lift Z
G1 Z0.710 F7800.000 ; move to next layer (0)
G1 Z0.910 F7800.000 ; lift Z
G1 X71.306 Y46.904 F7800.000 ; move to first skirt point
G1 Z0.710 F7800.000 ; restore layer Z
G1 E1.10000 F1800.00000 ; unretract
M204 S2000 ; adjust acceleration
G1 X72.152 Y45.708 E1.18058 F1200.000 ; skirt
G1 X73.145 Y44.469 E1.26787 ; skirt
G1 X73.894 Y43.630 E1.32976 ; skirt
G1 X74.381 Y43.123 E1.36838 ; skirt
G1 X75.393 Y42.153 E1.44550 ; skirt
G1 X76.451 Y41.244 E1.52220 ; skirt
G1 X77.000 Y40.810 E1.56071 ; skirt
G1 X77.743 Y40.261 E1.61149 ; skirt
G1 X78.758 Y39.575 E1.67892 ; skirt
G1 X79.359 Y39.201 E1.71785 ; skirt
G1 X80.650 Y38.473 E1.79935 ; skirt
G1 X81.956 Y37.833 E1.87931 ; skirt
G1 X83.377 Y37.238 E1.96404 ; skirt
G1 X84.829 Y36.730 E2.04864 ; skirt
G1 X86.343 Y36.303 E2.13518 ; skirt
G1 X87.879 Y35.970 E2.22159 ; skirt
G1 X89.361 Y35.741 E2.30408 ; skirt
G1 X90.834 Y35.601 E2.38546 ; skirt
G1 X91.612 Y35.562 E2.42827 ; skirt
G1 X92.586 Y35.547 E2.48186 ; skirt
G1 X93.770 Y35.578 E2.54703 F1200.000 ; skirt
G1 X94.730 Y35.644 E2.59992 ; skirt
G1 X95.905 Y35.775 E2.66498 ; skirt
G1 X96.835 Y35.918 E2.71672 ; skirt
G1 X97.977 Y36.143 E2.78072 ; skirt
G1 X98.862 Y36.354 E2.83074 ; skirt
G1 X99.974 Y36.669 E2.89431 ; skirt
G1 X100.844 Y36.953 E2.94463 ; skirt
G1 X101.888 Y37.341 E3.00587 ; skirt
G1 X102.744 Y37.699 E3.05695 ; skirt
G1 X103.941 Y38.263 E3.12972 ; skirt
G1 X104.919 Y38.782 E3.19061 ; skirt
G1 X105.741 Y39.261 E3.24292 ; skirt
G1 X106.666 Y39.853 E3.30334 ; skirt
G1 X107.426 Y40.382 E3.35425 ; skirt
G1 X108.323 Y41.062 E3.41615 ; skirt
G1 X109.031 Y41.645 E3.46656 ; skirt
G1 X109.870 Y42.395 E3.52846 ; skirt
G1 X110.541 Y43.045 E3.57985 ; skirt
G1 X111.347 Y43.893 E3.64420 ; skirt
G1 X111.965 Y44.599 E3.69579 ; skirt
G1 X112.690 Y45.500 E3.75940 ; skirt
G1 X113.239 Y46.242 E3.81018 ; skirt
G1 X113.925 Y47.258 E3.87762 ; skirt
G1 X114.423 Y48.067 E3.92984 ; skirt
G1 X115.027 Y49.150 E3.99805 ; skirt
G1 X115.364 Y49.815 E4.03902 ; skirt
G1 X115.770 Y50.687 E4.09194 ; skirt
G1 X116.262 Y51.877 E4.16276 ; skirt
G1 X116.606 Y52.827 E4.21834 ; skirt
G1 X116.849 Y53.583 E4.26201 ; skirt
G1 X117.197 Y54.843 E4.33390 ; skirt
G1 X117.378 Y55.617 E4.37759 ; skirt
G1 X117.577 Y56.636 E4.43471 ; skirt
G1 X117.759 Y57.861 E4.50282 ; skirt
G1 X117.864 Y58.866 E4.55840 ; skirt
G1 X117.938 Y60.111 E4.62701 ; skirt
G1 X117.953 Y61.068 E4.67960 ; skirt
G1 X117.922 Y62.270 E4.74578 ; skirt
G1 X117.856 Y63.230 E4.79866 ; skirt
G1 X117.725 Y64.405 E4.86371 ; skirt
G1 X117.582 Y65.336 E4.91549 ; skirt
G1 X117.357 Y66.477 E4.97947 ; skirt
G1 X117.146 Y67.362 E5.02947 ; skirt
G1 X116.831 Y68.474 E5.09306 ; skirt
G1 X116.547 Y69.344 E5.14337 ; skirt
G1 X116.159 Y70.388 E5.20462 ; skirt
G1 X115.801 Y71.245 E5.25571 ; skirt
G1 X115.237 Y72.441 E5.32845 ; skirt
G1 X114.718 Y73.419 E5.38936 ; skirt
G1 X114.239 Y74.241 E5.44166 ; skirt
G1 X113.647 Y75.166 E5.50208 ; skirt
G1 X113.118 Y75.926 E5.55300 ; skirt
G1 X112.438 Y76.823 E5.61491 ; skirt
G1 X111.855 Y77.531 E5.66531 ; skirt
G1 X111.106 Y78.370 E5.72720 ; skirt
G1 X110.455 Y79.041 E5.77859 ; skirt
G1 X109.607 Y79.847 E5.84294 ; skirt
G1 X108.901 Y80.465 E5.89453 ; skirt
G1 X108.000 Y81.190 E5.95814 ; skirt
G1 X107.257 Y81.739 E6.00894 ; skirt
G1 X106.242 Y82.425 E6.07637 ; skirt
G1 X105.433 Y82.923 E6.12859 ; skirt
G1 X104.350 Y83.527 E6.19680 ; skirt
G1 X103.466 Y83.970 E6.25118 ; skirt
G1 X102.326 Y84.480 E6.31983 ; skirt
G1 X101.623 Y84.762 E6.36150 ; skirt
G1 X100.673 Y85.106 E6.41709 ; skirt
G1 X99.917 Y85.349 E6.46075 ; skirt
G1 X98.657 Y85.697 E6.53264 ; skirt
G1 X97.624 Y85.932 E6.59089 ; skirt
G1 X96.357 Y86.160 E6.66172 ; skirt
G1 X95.390 Y86.289 E6.71533 ; skirt
G1 X94.634 Y86.364 E6.75714 ; skirt
G1 X93.389 Y86.438 E6.82575 ; skirt
G1 X92.432 Y86.453 E6.87834 ; skirt
G1 X91.230 Y86.422 E6.94451 ; skirt
G1 X90.270 Y86.356 E6.99741 ; skirt
G1 X89.095 Y86.225 E7.06246 ; skirt
G1 X88.164 Y86.082 E7.11423 ; skirt
G1 X87.023 Y85.857 E7.17820 ; skirt
G1 X86.139 Y85.646 E7.22820 ; skirt
G1 X85.026 Y85.331 E7.29180 ; skirt
G1 X84.156 Y85.047 E7.34211 ; skirt
G1 X83.112 Y84.659 E7.40336 ; skirt
G1 X82.256 Y84.301 E7.45444 ; skirt
G1 X81.059 Y83.737 E7.52721 ; skirt
G1 X80.081 Y83.218 E7.58810 ; skirt
G1 X79.259 Y82.739 E7.64039 ; skirt
G1 X78.334 Y82.147 E7.70082 ; skirt
G1 X77.574 Y81.618 E7.75174 ; skirt
G1 X76.677 Y80.938 E7.81366 ; skirt
G1 X75.969 Y80.355 E7.86405 ; skirt
G1 X75.130 Y79.606 E7.92594 ; skirt
G1 X74.459 Y78.955 E7.97734 ; skirt
G1 X73.653 Y78.107 E8.04168 ; skirt
G1 X73.035 Y77.401 E8.09328 ; skirt
G1 X72.310 Y76.500 E8.15689 ; skirt
G1 X71.761 Y75.758 E8.20767 ; skirt
G1 X71.075 Y74.742 E8.27511 ; skirt
G1 X70.577 Y73.933 E8.32733 ; skirt
G1 X69.973 Y72.850 E8.39554 ; skirt
G1 X69.636 Y72.185 E8.43651 ; skirt
G1 X69.229 Y71.313 E8.48945 ; skirt
G1 X68.738 Y70.123 E8.56024 ; skirt
G1 X68.394 Y69.173 E8.61583 ; skirt
G1 X68.151 Y68.417 E8.65948 ; skirt
G1 X67.803 Y67.157 E8.73138 ; skirt
G1 X67.622 Y66.383 E8.77507 ; skirt
G1 X67.424 Y65.364 E8.83218 ; skirt
G1 X67.241 Y64.139 E8.90031 ; skirt
G1 X67.136 Y63.134 E8.95586 ; skirt
G1 X67.062 Y61.888 E9.02450 ; skirt
G1 X67.047 Y60.932 E9.07711 ; skirt
G1 X67.078 Y59.729 E9.14329 ; skirt
G1 X67.144 Y58.770 E9.19615 ; skirt
G1 X67.275 Y57.595 E9.26120 ; skirt
G1 X67.418 Y56.664 E9.31296 ; skirt
G1 X67.643 Y55.523 E9.37694 ; skirt
G1 X67.854 Y54.638 E9.42696 ; skirt
G1 X68.169 Y53.526 E9.49054 ; skirt
G1 X68.453 Y52.657 E9.54081 ; skirt
G1 X68.841 Y51.612 E9.60211 ; skirt
G1 X69.199 Y50.755 E9.65319 ; skirt
G1 X69.665 Y49.755 E9.71388 ; skirt
G1 X70.064 Y48.979 E9.76186 ; skirt
G1 X70.640 Y47.961 E9.82619 ; skirt
G1 X71.265 Y46.967 E9.89078 ; skirt
M204 S3000 ; adjust acceleration
G1 X72.028 Y47.379 F7800.000 ; move to first skirt point
M204 S2000 ; adjust acceleration
G1 X72.848 Y46.221 E9.96881 F1200.000 ; skirt
G1 X73.797 Y45.036 E10.05231 ; skirt
G1 X74.531 Y44.214 E10.11293 ; skirt
G1 X75.001 Y43.725 E10.15024 ; skirt
G1 X75.980 Y42.787 E10.22476 ; skirt
G1 X77.001 Y41.910 E10.29883 ; skirt
G1 X78.237 Y40.970 E10.38423 ; skirt
G1 X79.232 Y40.297 E10.45029 ; skirt
G1 X79.812 Y39.937 E10.48784 ; skirt
G1 X81.060 Y39.234 E10.56661 ; skirt
G1 X82.321 Y38.616 E10.64382 ; skirt
G1 X83.694 Y38.041 E10.72570 ; skirt
G1 X85.098 Y37.551 E10.80746 ; skirt
G1 X86.561 Y37.139 E10.89105 ; skirt
G1 X88.044 Y36.818 E10.97453 ; skirt
G1 X89.476 Y36.597 E11.05418 ; skirt
G1 X90.899 Y36.463 E11.13279 ; skirt
G1 X91.651 Y36.425 E11.17420 ; skirt
G1 X92.576 Y36.411 E11.22509 ; skirt
G1 X93.736 Y36.442 E11.28890 F1200.000 ; skirt
G1 X94.646 Y36.504 E11.33909 ; skirt
G1 X95.798 Y36.633 E11.40281 ; skirt
G1 X96.680 Y36.769 E11.45194 ; skirt
G1 X97.799 Y36.988 E11.51463 ; skirt
G1 X98.638 Y37.189 E11.56209 ; skirt
G1 X99.728 Y37.497 E11.62436 ; skirt
G1 X100.553 Y37.767 E11.67212 ; skirt
G1 X101.576 Y38.147 E11.73211 ; skirt
G1 X102.390 Y38.487 E11.78063 ; skirt
G1 X103.547 Y39.032 E11.85095 ; skirt
G1 X104.504 Y39.540 E11.91059 ; skirt
G1 X105.285 Y39.996 E11.96028 ; skirt
G1 X106.192 Y40.575 E12.01947 ; skirt
G1 X106.913 Y41.078 E12.06783 ; skirt
G1 X107.792 Y41.744 E12.12847 ; skirt
G1 X108.464 Y42.297 E12.17634 ; skirt
G1 X109.286 Y43.031 E12.23698 ; skirt
G1 X109.923 Y43.649 E12.28578 ; skirt
G1 X110.713 Y44.480 E12.34881 ; skirt
G1 X111.299 Y45.150 E12.39777 ; skirt
G1 X112.009 Y46.032 E12.46008 ; skirt
G1 X112.530 Y46.737 E12.50828 ; skirt
G1 X113.203 Y47.732 E12.57434 ; skirt
G1 X113.675 Y48.499 E12.62385 ; skirt
G1 X114.266 Y49.560 E12.69066 ; skirt
G1 X114.592 Y50.202 E12.73024 ; skirt
G1 X114.977 Y51.029 E12.78041 ; skirt
G1 X115.459 Y52.194 E12.84977 ; skirt
G1 X115.784 Y53.096 E12.90252 ; skirt
G1 X116.020 Y53.827 E12.94471 ; skirt
G1 X116.361 Y55.061 E13.01513 ; skirt
G1 X116.535 Y55.808 E13.05734 ; skirt
G1 X116.724 Y56.776 E13.11155 ; skirt
G1 X116.903 Y57.976 E13.17827 ; skirt
G1 X117.002 Y58.931 E13.23108 ; skirt
G1 X117.075 Y60.151 E13.29829 ; skirt
G1 X117.089 Y61.058 E13.34818 ; skirt
G1 X117.058 Y62.236 E13.41301 ; skirt
G1 X116.996 Y63.146 E13.46318 ; skirt
G1 X116.867 Y64.298 E13.52691 ; skirt
G1 X116.731 Y65.181 E13.57605 ; skirt
G1 X116.512 Y66.299 E13.63872 ; skirt
G1 X116.311 Y67.138 E13.68618 ; skirt
G1 X116.003 Y68.228 E13.74846 ; skirt
G1 X115.733 Y69.053 E13.79621 ; skirt
G1 X115.353 Y70.076 E13.85622 ; skirt
G1 X115.013 Y70.890 E13.90474 ; skirt
G1 X114.469 Y72.046 E13.97503 ; skirt
G1 X113.960 Y73.004 E14.03469 ; skirt
G1 X113.505 Y73.785 E14.08438 ; skirt
G1 X112.925 Y74.692 E14.14356 ; skirt
G1 X112.422 Y75.413 E14.19193 ; skirt
G1 X111.756 Y76.292 E14.25257 ; skirt
G1 X111.203 Y76.964 E14.30045 ; skirt
G1 X110.469 Y77.786 E14.36107 ; skirt
G1 X109.851 Y78.423 E14.40987 ; skirt
G1 X109.020 Y79.213 E14.47291 ; skirt
G1 X108.350 Y79.799 E14.52187 ; skirt
G1 X107.468 Y80.509 E14.58418 ; skirt
G1 X106.763 Y81.030 E14.63238 ; skirt
G1 X105.768 Y81.703 E14.69844 ; skirt
G1 X105.001 Y82.175 E14.74795 ; skirt
G1 X103.940 Y82.766 E14.81476 ; skirt
G1 X103.101 Y83.187 E14.86640 ; skirt
G1 X101.984 Y83.686 E14.93365 ; skirt
G1 X101.306 Y83.959 E14.97387 ; skirt
G1 X100.404 Y84.284 E15.02661 ; skirt
G1 X99.673 Y84.520 E15.06881 ; skirt
G1 X98.439 Y84.861 E15.13923 ; skirt
G1 X97.459 Y85.084 E15.19453 ; skirt
G1 X96.217 Y85.307 E15.26391 ; skirt
G1 X95.301 Y85.429 E15.31475 ; skirt
G1 X94.569 Y85.502 E15.35518 ; skirt
G1 X93.349 Y85.575 E15.42239 ; skirt
G1 X92.442 Y85.589 E15.47228 ; skirt
G1 X91.264 Y85.558 E15.53709 ; skirt
G1 X90.354 Y85.496 E15.58728 ; skirt
G1 X89.202 Y85.367 E15.65100 ; skirt
G1 X88.319 Y85.231 E15.70015 ; skirt
G1 X87.201 Y85.012 E15.76281 ; skirt
G1 X86.362 Y84.811 E15.81026 ; skirt
G1 X85.272 Y84.503 E15.87255 ; skirt
G1 X84.447 Y84.233 E15.92031 ; skirt
G1 X83.424 Y83.853 E15.98031 ; skirt
G1 X82.610 Y83.513 E16.02882 ; skirt
G1 X81.453 Y82.968 E16.09914 ; skirt
G1 X80.495 Y82.460 E16.15879 ; skirt
G1 X79.715 Y82.005 E16.20846 ; skirt
G1 X78.808 Y81.425 E16.26766 ; skirt
G1 X78.087 Y80.922 E16.31603 ; skirt
G1 X77.208 Y80.256 E16.37668 ; skirt
G1 X76.536 Y79.703 E16.42454 ; skirt
G1 X75.714 Y78.969 E16.48517 ; skirt
G1 X75.077 Y78.351 E16.53397 ; skirt
G1 X74.287 Y77.520 E16.59700 ; skirt
G1 X73.701 Y76.850 E16.64596 ; skirt
G1 X72.991 Y75.968 E16.70827 ; skirt
G1 X72.470 Y75.263 E16.75647 ; skirt
G1 X71.797 Y74.268 E16.82253 ; skirt
G1 X71.325 Y73.501 E16.87204 ; skirt
G1 X70.734 Y72.440 E16.93886 ; skirt
G1 X70.408 Y71.798 E16.97843 ; skirt
G1 X70.023 Y70.971 E17.02862 ; skirt
G1 X69.541 Y69.806 E17.09796 ; skirt
G1 X69.216 Y68.904 E17.15071 ; skirt
G1 X68.980 Y68.174 E17.19288 ; skirt
G1 X68.639 Y66.939 E17.26332 ; skirt
G1 X68.465 Y66.192 E17.30553 ; skirt
G1 X68.276 Y65.225 E17.35973 ; skirt
G1 X68.097 Y64.024 E17.42646 ; skirt
G1 X67.998 Y63.070 E17.47925 ; skirt
G1 X67.925 Y61.849 E17.54649 ; skirt
G1 X67.911 Y60.942 E17.59640 ; skirt
G1 X67.942 Y59.764 E17.66122 ; skirt
G1 X68.004 Y58.854 E17.71138 ; skirt
G1 X68.133 Y57.702 E17.77510 ; skirt
G1 X68.269 Y56.819 E17.82423 ; skirt
G1 X68.488 Y55.701 E17.88690 ; skirt
G1 X68.689 Y54.862 E17.93437 ; skirt
G1 X68.997 Y53.772 E17.99665 ; skirt
G1 X69.267 Y52.947 E18.04437 ; skirt
G1 X69.647 Y51.924 E18.10441 ; skirt
G1 X69.987 Y51.110 E18.15293 ; skirt
G1 X70.444 Y50.130 E18.21238 ; skirt
G1 X70.822 Y49.394 E18.25790 ; skirt
G1 X71.386 Y48.397 E18.32092 ; skirt
G1 X71.987 Y47.442 E18.38297 ; skirt
M204 S3000 ; adjust acceleration
G1 X72.750 Y47.854 F7800.000 ; move to first skirt point
M204 S2000 ; adjust acceleration
G1 X73.543 Y46.734 E18.45845 F1200.000 ; skirt
G1 X74.449 Y45.603 E18.53815 ; skirt
G1 X75.168 Y44.798 E18.59751 ; skirt
G1 X75.622 Y44.326 E18.63351 ; skirt
G1 X76.566 Y43.421 E18.70544 ; skirt
G1 X77.552 Y42.576 E18.77688 ; skirt
G1 X78.732 Y41.678 E18.85839 ; skirt
G1 X79.706 Y41.020 E18.92306 ; skirt
G1 X80.265 Y40.673 E18.95924 ; skirt
G1 X81.470 Y39.995 E19.03528 ; skirt
G1 X82.686 Y39.400 E19.10975 ; skirt
G1 X84.012 Y38.845 E19.18878 ; skirt
G1 X85.367 Y38.373 E19.26769 ; skirt
G1 X86.778 Y37.975 E19.34835 ; skirt
G1 X88.210 Y37.666 E19.42888 ; skirt
G1 X89.590 Y37.454 E19.50569 ; skirt
G1 X90.963 Y37.325 E19.58153 ; skirt
G1 X91.690 Y37.289 E19.62154 ; skirt
G1 X92.566 Y37.275 E19.66974 ; skirt
G1 X93.701 Y37.305 E19.73219 F1200.000 ; skirt
G1 X94.562 Y37.365 E19.77967 ; skirt
G1 X95.690 Y37.490 E19.84207 ; skirt
G1 X96.526 Y37.619 E19.88857 ; skirt
G1 X97.621 Y37.834 E19.94995 ; skirt
G1 X98.415 Y38.024 E19.99485 ; skirt
G1 X99.482 Y38.325 E20.05582 ; skirt
G1 X100.263 Y38.581 E20.10103 ; skirt
G1 X101.264 Y38.953 E20.15978 ; skirt
G1 X102.035 Y39.275 E20.20573 ; skirt
G1 X103.152 Y39.800 E20.27359 ; skirt
G1 X104.090 Y40.298 E20.33199 ; skirt
G1 X104.829 Y40.730 E20.37907 ; skirt
G1 X105.717 Y41.297 E20.43701 ; skirt
G1 X106.400 Y41.773 E20.48282 ; skirt
G1 X107.260 Y42.425 E20.54220 ; skirt
G1 X107.897 Y42.949 E20.58754 ; skirt
G1 X108.702 Y43.668 E20.64691 ; skirt
G1 X109.306 Y44.253 E20.69312 ; skirt
G1 X110.079 Y45.066 E20.75484 ; skirt
G1 X110.633 Y45.700 E20.80117 ; skirt
G1 X111.329 Y46.565 E20.86218 ; skirt
G1 X111.822 Y47.232 E20.90779 ; skirt
G1 X112.480 Y48.206 E20.97248 ; skirt
G1 X112.926 Y48.931 E21.01927 ; skirt
G1 X113.505 Y49.970 E21.08469 ; skirt
G1 X113.904 Y50.765 E21.13358 ; skirt
G1 X114.393 Y51.857 E21.19943 ; skirt
G1 X114.655 Y52.512 E21.23820 ; skirt
G1 X114.963 Y53.365 E21.28811 ; skirt
G1 X115.190 Y54.070 E21.32883 ; skirt
G1 X115.525 Y55.278 E21.39778 ; skirt
G1 X115.692 Y56.000 E21.43850 ; skirt
G1 X115.871 Y56.915 E21.48981 ; skirt
G1 X116.046 Y58.090 E21.55514 ; skirt
G1 X116.140 Y58.995 E21.60518 ; skirt
G1 X116.211 Y60.190 E21.67099 ; skirt
G1 X116.225 Y61.048 E21.71818 ; skirt
G1 X116.195 Y62.201 E21.78165 ; skirt
G1 X116.135 Y63.062 E21.82912 ; skirt
G1 X116.010 Y64.190 E21.89152 ; skirt
G1 X115.881 Y65.026 E21.93803 ; skirt
G1 X115.666 Y66.121 E21.99940 ; skirt
G1 X115.476 Y66.915 E22.04430 ; skirt
G1 X115.175 Y67.982 E22.10528 ; skirt
G1 X114.919 Y68.763 E22.15048 ; skirt
G1 X114.547 Y69.764 E22.20923 ; skirt
G1 X114.225 Y70.535 E22.25519 ; skirt
G1 X113.700 Y71.652 E22.32303 ; skirt
G1 X113.202 Y72.590 E22.38144 ; skirt
G1 X112.770 Y73.329 E22.42851 ; skirt
G1 X112.203 Y74.217 E22.48646 ; skirt
G1 X111.727 Y74.900 E22.53228 ; skirt
G1 X111.075 Y75.760 E22.59165 ; skirt
G1 X110.551 Y76.397 E22.63700 ; skirt
G1 X109.832 Y77.202 E22.69636 ; skirt
G1 X109.247 Y77.806 E22.74257 ; skirt
G1 X108.434 Y78.579 E22.80429 ; skirt
G1 X107.800 Y79.133 E22.85062 ; skirt
G1 X106.935 Y79.829 E22.91163 ; skirt
G1 X106.268 Y80.322 E22.95725 ; skirt
G1 X105.294 Y80.980 E23.02192 ; skirt
G1 X104.569 Y81.426 E23.06872 ; skirt
G1 X103.530 Y82.005 E23.13414 ; skirt
G1 X102.735 Y82.404 E23.18303 ; skirt
G1 X101.643 Y82.893 E23.24888 ; skirt
G1 X100.988 Y83.155 E23.28765 ; skirt
G1 X100.135 Y83.463 E23.33756 ; skirt
G1 X99.430 Y83.690 E23.37828 ; skirt
G1 X98.222 Y84.025 E23.44723 ; skirt
G1 X97.293 Y84.236 E23.49959 ; skirt
G1 X96.077 Y84.454 E23.56752 ; skirt
G1 X95.211 Y84.570 E23.61559 ; skirt
G1 X94.037 Y84.675 E23.68043 ; skirt
G1 X93.310 Y84.711 E23.72044 ; skirt
G1 X92.452 Y84.725 E23.76763 ; skirt
G1 X91.299 Y84.695 E23.83109 ; skirt
G1 X90.438 Y84.635 E23.87857 ; skirt
G1 X89.310 Y84.510 E23.94097 ; skirt
G1 X88.474 Y84.381 E23.98748 ; skirt
