; generated by Slic3r 1.2.9 on 2015-09-11 at 13:39:03

; external perimeters extrusion width = 0.55mm
; perimeters extrusion width = 0.61mm
; infill extrusion width = 0.60mm
; solid infill extrusion width = 0.60mm
; top infill extrusion width = 0.60mm
; support material extrusion width = 0.70mm

M107 ; disable fan
;start gcode
M80 ;ATX on
M190 S52 ; wait for start bed temperature to be reached
M140 S65 ; set  bed temp to be
M104 S215 ; set temperature
G28 ; home all axes
M190 S65 ; set and wait for bed temp to be reached
M109 S215; wait for extruder temp to be reached
G21 ; set units to millimeters
G90 ; use absolute coordinates
M82 ; use absolute distances for extrusion
G92 E0 ; reset extrusion distance
G1 E-1.10000 F1800.00000 ; retract
G92 E0 ; reset extrusion distance
G1 Z0.510 F7800.000 ; lift Z
G1 Z0.710 F7800.000 ; move to next layer (0)
G1 Z0.910 F7800.000 ; lift Z
G1 X33.524 Y34.855 F7800.000 ; move to first skirt point
G1 Z0.710 F7800.000 ; restore layer Z
G1 E1.10000 F1800.00000 ; unretract
M204 S2000 ; adjust acceleration
G1 X34.407 Y34.086 E1.16436 F1200.000 ; skirt
G1 X35.147 Y33.525 E1.21543 ; skirt
G1 X35.901 Y33.024 E1.26523 ; skirt
G1 X36.666 Y32.580 E1.31388 ; skirt
G1 X37.451 Y32.184 E1.36223 ; skirt
G1 X38.493 Y31.739 E1.42454 ; skirt
G1 X39.501 Y31.383 E1.48332 ; skirt
G1 X40.808 Y31.012 E1.55809 ; skirt
G1 X41.728 Y30.803 E1.60994 ; skirt
G1 X43.411 Y30.505 E1.70397 ; skirt
G1 X44.680 Y30.337 E1.77436 ; skirt
G1 X46.345 Y30.175 E1.86635 ; skirt
G1 X48.021 Y30.061 E1.95875 ; skirt
G1 X49.767 Y29.982 E2.05489 ; skirt
G1 X51.469 Y29.936 E2.14849 ; skirt
G1 X53.710 Y29.910 E2.27177 ; skirt
G1 X55.867 Y29.938 E2.39038 F1200.000 ; skirt
G1 X60.332 Y30.074 E2.63607 ; skirt
G1 X66.113 Y30.286 E2.95424 ; skirt
G1 X74.197 Y30.660 E3.39932 ; skirt
G1 X80.083 Y31.000 E3.72354 ; skirt
G1 X85.583 Y31.381 E4.02674 ; skirt
G1 X91.287 Y31.853 E4.34154 ; skirt
G1 X94.232 Y32.132 E4.50423 ; skirt
G1 X97.071 Y32.427 E4.66123 ; skirt
G1 X99.856 Y32.742 E4.81537 ; skirt
G1 X102.625 Y33.083 E4.96877 ; skirt
G1 X105.450 Y33.461 E5.12554 ; skirt
G1 X108.358 Y33.883 E5.28714 ; skirt
G1 X111.273 Y34.335 E5.44941 ; skirt
G1 X135.564 Y38.313 E6.80314 ; skirt
G1 X138.307 Y38.781 E6.95613 ; skirt
G1 X141.146 Y39.297 E7.11485 ; skirt
G1 X143.851 Y39.845 E7.26665 ; skirt
G1 X146.005 Y40.363 E7.38846 ; skirt
G1 X147.526 Y40.814 E7.47574 ; skirt
G1 X148.496 Y41.130 E7.53185 ; skirt
G1 X149.545 Y41.526 E7.59349 ; skirt
G1 X150.610 Y42.006 E7.65772 ; skirt
G1 X151.239 Y42.334 E7.69673 ; skirt
G1 X151.699 Y42.599 E7.72596 ; skirt
G1 X152.303 Y42.980 E7.76525 ; skirt
G1 X153.140 Y43.590 E7.82219 ; skirt
G1 X153.941 Y44.276 E7.88019 ; skirt
G1 X154.189 Y44.512 E7.89902 ; skirt
G1 X154.903 Y45.274 E7.95644 ; skirt
G1 X155.540 Y46.076 E8.01280 ; skirt
G1 X156.089 Y46.889 E8.06675 ; skirt
G1 X156.503 Y47.613 E8.11258 ; skirt
G1 X156.763 Y48.123 E8.14409 ; skirt
G1 X157.074 Y48.805 E8.18531 ; skirt
G1 X157.338 Y49.466 E8.22443 ; skirt
G1 X157.763 Y50.630 E8.29259 ; skirt
G1 X158.054 Y51.584 E8.34749 ; skirt
G1 X158.364 Y52.766 E8.41468 ; skirt
G1 X158.716 Y54.353 E8.50407 ; skirt
G1 X158.986 Y55.890 E8.58992 ; skirt
G1 X159.266 Y58.020 E8.70803 ; skirt
G1 X159.405 Y59.557 E8.79294 ; skirt
G1 X159.504 Y61.469 E8.89819 ; skirt
G1 X159.530 Y62.964 E8.98043 ; skirt
G1 X159.500 Y64.713 E9.07666 ; skirt
G1 X159.420 Y66.297 E9.16386 ; skirt
G1 X159.274 Y68.066 E9.26149 ; skirt
G1 X159.094 Y69.632 E9.34817 ; skirt
G1 X158.859 Y71.210 E9.43593 ; skirt
G1 X158.563 Y72.805 E9.52513 ; skirt
G1 X158.183 Y74.448 E9.61788 ; skirt
G1 X157.817 Y75.767 E9.69319 ; skirt
G1 X157.484 Y76.785 E9.75208 ; skirt
G1 X157.168 Y77.640 E9.80221 ; skirt
G1 X156.683 Y78.770 E9.86985 ; skirt
G1 X156.165 Y79.785 E9.93253 ; skirt
G1 X155.923 Y80.216 E9.95969 ; skirt
G1 X155.249 Y81.262 E10.02812 ; skirt
G1 X154.402 Y82.347 E10.10385 ; skirt
G1 X153.886 Y82.917 E10.14612 ; skirt
G1 X153.315 Y83.479 E10.19017 ; skirt
G1 X152.840 Y83.910 E10.22548 ; skirt
G1 X151.980 Y84.581 E10.28545 ; skirt
G1 X151.694 Y84.790 E10.30497 ; skirt
G1 X151.149 Y85.144 E10.34067 ; skirt
G1 X150.512 Y85.523 E10.38144 ; skirt
G1 X149.968 Y85.819 E10.41553 ; skirt
G1 X148.960 Y86.294 E10.47678 ; skirt
G1 X147.694 Y86.785 E10.55144 ; skirt
G1 X146.842 Y87.066 E10.60081 ; skirt
G1 X145.953 Y87.320 E10.65163 ; skirt
G1 X144.324 Y87.713 E10.74381 ; skirt
G1 X142.511 Y88.073 E10.84548 ; skirt
G1 X140.741 Y88.359 E10.94411 ; skirt
G1 X139.155 Y88.572 E11.03211 ; skirt
G1 X136.361 Y88.877 E11.18665 ; skirt
G1 X133.511 Y89.128 E11.34401 ; skirt
G1 X130.677 Y89.337 E11.50028 ; skirt
G1 X125.267 Y89.671 E11.79840 ; skirt
G1 X117.002 Y90.083 E12.25354 ; skirt
G1 X108.409 Y90.446 E12.72655 ; skirt
G1 X94.495 Y90.957 E13.49228 ; skirt
G1 X80.548 Y91.415 E14.25975 ; skirt
G1 X66.774 Y91.817 E15.01756 ; skirt
G1 X61.186 Y91.959 E15.32500 ; skirt
G1 X55.764 Y92.070 E15.62328 ; skirt
G1 X53.572 Y92.091 E15.74382 ; skirt
G1 X51.099 Y92.061 E15.87987 ; skirt
G1 X48.629 Y91.956 E16.01578 ; skirt
G1 X46.608 Y91.793 E16.12733 ; skirt
G1 X45.661 Y91.684 E16.17977 ; skirt
G1 X44.622 Y91.536 E16.23748 ; skirt
G1 X43.885 Y91.411 E16.27855 ; skirt
G1 X42.894 Y91.213 E16.33414 ; skirt
G1 X41.435 Y90.852 E16.41679 ; skirt
G1 X40.385 Y90.540 E16.47703 ; skirt
G1 X39.670 Y90.301 E16.51854 ; skirt
G1 X38.913 Y90.017 E16.56299 ; skirt
G1 X38.208 Y89.714 E16.60520 ; skirt
G1 X37.485 Y89.358 E16.64951 ; skirt
G1 X37.030 Y89.107 E16.67807 ; skirt
G1 X36.669 Y88.894 E16.70116 ; skirt
G1 X35.820 Y88.328 E16.75726 ; skirt
G1 X35.042 Y87.728 E16.81129 ; skirt
G1 X34.535 Y87.285 E16.84829 ; skirt
G1 X33.654 Y86.404 E16.91685 ; skirt
G1 X33.033 Y85.681 E16.96926 ; skirt
G1 X32.546 Y85.046 E17.01326 ; skirt
G1 X32.082 Y84.374 E17.05818 ; skirt
G1 X31.723 Y83.804 E17.09522 ; skirt
G1 X31.070 Y82.636 E17.16881 ; skirt
G1 X30.602 Y81.680 E17.22737 ; skirt
G1 X30.168 Y80.700 E17.28633 ; skirt
G1 X29.468 Y78.916 E17.39170 ; skirt
G1 X29.108 Y77.902 E17.45088 ; skirt
G1 X28.613 Y76.392 E17.53828 ; skirt
G1 X27.881 Y73.908 E17.68067 ; skirt
G1 X27.216 Y71.356 E17.82571 ; skirt
G1 X26.831 Y69.716 E17.91840 ; skirt
G1 X26.495 Y68.145 E18.00674 ; skirt
G1 X26.029 Y65.593 E18.14939 ; skirt
G1 X25.752 Y63.597 E18.26025 ; skirt
G1 X25.572 Y61.706 E18.36469 ; skirt
G1 X25.482 Y59.847 E18.46706 ; skirt
G1 X25.471 Y58.839 E18.52251 ; skirt
G1 X25.486 Y57.832 E18.57791 ; skirt
G1 X25.585 Y55.938 E18.68219 ; skirt
G1 X25.767 Y54.076 E18.78511 ; skirt
G1 X25.884 Y53.170 E18.83536 ; skirt
G1 X26.144 Y51.504 E18.92805 ; skirt
G1 X26.511 Y49.604 E19.03449 ; skirt
G1 X26.877 Y47.998 E19.12508 ; skirt
G1 X27.148 Y46.933 E19.18552 ; skirt
G1 X27.592 Y45.359 E19.27547 ; skirt
G1 X27.853 Y44.514 E19.32412 ; skirt
G1 X28.170 Y43.567 E19.37902 ; skirt
G1 X28.501 Y42.662 E19.43205 ; skirt
G1 X29.027 Y41.385 E19.50800 ; skirt
G1 X29.345 Y40.692 E19.54994 ; skirt
G1 X29.856 Y39.687 E19.61193 ; skirt
G1 X30.210 Y39.055 E19.65176 ; skirt
G1 X30.703 Y38.251 E19.70364 ; skirt
G1 X31.072 Y37.702 E19.74001 ; skirt
G1 X31.545 Y37.052 E19.78420 ; skirt
G1 X31.968 Y36.518 E19.82170 ; skirt
G1 X32.476 Y35.927 E19.86457 ; skirt
G1 X32.938 Y35.432 E19.90177 ; skirt
G1 X33.470 Y34.907 E19.94292 ; skirt
M204 S3000 ; adjust acceleration
G1 X34.108 Y35.492 F7800.000 ; move to first skirt point
M204 S2000 ; adjust acceleration
G1 X34.959 Y34.751 E20.00501 F1200.000 ; skirt
G1 X35.655 Y34.223 E20.05303 ; skirt
G1 X36.366 Y33.752 E20.09994 ; skirt
G1 X36.765 Y33.515 E20.12546 ; skirt
G1 X37.475 Y33.133 E20.16983 ; skirt
G1 X38.177 Y32.803 E20.21248 ; skirt
G1 X39.137 Y32.420 E20.26928 ; skirt
G1 X40.034 Y32.122 E20.32129 ; skirt
G1 X41.234 Y31.797 E20.38968 ; skirt
G1 X42.600 Y31.513 E20.46642 ; skirt
G1 X43.548 Y31.358 E20.51921 ; skirt
G1 X44.772 Y31.196 E20.58712 ; skirt
G1 X46.421 Y31.035 E20.67825 ; skirt
G1 X48.073 Y30.924 E20.76934 ; skirt
G1 X49.801 Y30.846 E20.86447 ; skirt
G1 X51.484 Y30.800 E20.95704 ; skirt
G1 X53.699 Y30.774 E21.07890 ; skirt
G1 X55.840 Y30.801 E21.19665 F1200.000 ; skirt
G1 X60.302 Y30.938 E21.44214 ; skirt
G1 X66.077 Y31.149 E21.75995 ; skirt
G1 X74.154 Y31.523 E22.20464 ; skirt
G1 X79.963 Y31.858 E22.52466 ; skirt
G1 X85.515 Y32.243 E22.83072 ; skirt
G1 X91.142 Y32.708 E23.14128 ; skirt
G1 X94.074 Y32.985 E23.30325 ; skirt
G1 X96.902 Y33.278 E23.45957 ; skirt
G1 X99.751 Y33.600 E23.61727 ; skirt
G1 X102.519 Y33.941 E23.77066 ; skirt
G1 X105.242 Y34.305 E23.92175 ; skirt
G1 X108.234 Y34.738 E24.08801 ; skirt
G1 X111.079 Y35.179 E24.24635 ; skirt
G1 X135.424 Y39.166 E25.60312 ; skirt
G1 X138.152 Y39.631 E25.75531 ; skirt
G1 X141.152 Y40.178 E25.92298 ; skirt
G1 X143.679 Y40.692 E26.06483 ; skirt
G1 X145.341 Y41.081 E26.15870 ; skirt
G1 X147.281 Y41.642 E26.26978 ; skirt
G1 X148.225 Y41.950 E26.32440 ; skirt
G1 X149.230 Y42.331 E26.38352 ; skirt
G1 X149.706 Y42.536 E26.41201 ; skirt
G1 X150.242 Y42.788 E26.44457 ; skirt
G1 X151.269 Y43.348 E26.50887 ; skirt
G1 X152.123 Y43.906 E26.56500 ; skirt
G1 X152.873 Y44.486 E26.61717 ; skirt
G1 X153.591 Y45.137 E26.67048 ; skirt
G1 X154.256 Y45.847 E26.72397 ; skirt
G1 X154.849 Y46.595 E26.77648 ; skirt
G1 X155.361 Y47.355 E26.82683 ; skirt
G1 X155.733 Y48.005 E26.86805 ; skirt
G1 X155.993 Y48.516 E26.89956 ; skirt
G1 X156.273 Y49.129 E26.93663 ; skirt
G1 X156.529 Y49.769 E26.97454 ; skirt
G1 X156.941 Y50.896 E27.04057 ; skirt
G1 X157.223 Y51.820 E27.09367 ; skirt
G1 X157.521 Y52.956 E27.15828 ; skirt
G1 X157.866 Y54.511 E27.24588 ; skirt
G1 X158.135 Y56.040 E27.33122 ; skirt
G1 X158.405 Y58.098 E27.44541 ; skirt
G1 X158.544 Y59.626 E27.52981 ; skirt
G1 X158.638 Y61.390 E27.62693 ; skirt
G1 X158.666 Y62.968 E27.71376 ; skirt
G1 X158.636 Y64.676 E27.80768 ; skirt
G1 X158.561 Y66.200 E27.89162 ; skirt
G1 X158.433 Y67.792 E27.97943 ; skirt
G1 X158.238 Y69.515 E28.07479 ; skirt
G1 X158.007 Y71.071 E28.16134 ; skirt
G1 X157.716 Y72.635 E28.24883 ; skirt
G1 X157.341 Y74.250 E28.34001 ; skirt
G1 X156.993 Y75.507 E28.41173 ; skirt
G1 X156.673 Y76.487 E28.46841 ; skirt
G1 X156.362 Y77.330 E28.51783 ; skirt
G1 X155.897 Y78.412 E28.58260 ; skirt
G1 X155.400 Y79.384 E28.64264 ; skirt
G1 X155.182 Y79.771 E28.66707 ; skirt
G1 X154.542 Y80.765 E28.73207 ; skirt
G1 X153.738 Y81.795 E28.80397 ; skirt
G1 X153.272 Y82.309 E28.84210 ; skirt
G1 X152.710 Y82.861 E28.88543 ; skirt
G1 X152.283 Y83.249 E28.91718 ; skirt
G1 X151.455 Y83.894 E28.97488 ; skirt
G1 X150.706 Y84.402 E29.02464 ; skirt
G1 X150.073 Y84.779 E29.06521 ; skirt
G1 X149.464 Y85.104 E29.10314 ; skirt
G1 X148.432 Y85.577 E29.16561 ; skirt
G1 X147.669 Y85.878 E29.21070 ; skirt
G1 X146.787 Y86.176 E29.26189 ; skirt
G1 X145.503 Y86.546 E29.33539 ; skirt
G1 X143.933 Y86.915 E29.42408 ; skirt
G1 X142.346 Y87.224 E29.51299 ; skirt
G1 X140.625 Y87.502 E29.60890 ; skirt
G1 X139.047 Y87.714 E29.69644 ; skirt
G1 X136.107 Y88.033 E29.85912 ; skirt
G1 X133.328 Y88.276 E30.01249 ; skirt
G1 X130.614 Y88.475 E30.16217 ; skirt
G1 X125.217 Y88.809 E30.45956 ; skirt
G1 X116.962 Y89.220 E30.91413 ; skirt
G1 X108.363 Y89.583 E31.38749 ; skirt
G1 X94.465 Y90.093 E32.15235 ; skirt
G1 X80.523 Y90.551 E32.91951 ; skirt
G1 X66.752 Y90.953 E33.67721 ; skirt
G1 X61.167 Y91.095 E33.98445 ; skirt
G1 X55.748 Y91.206 E34.28257 ; skirt
G1 X53.575 Y91.227 E34.40205 ; skirt
G1 X51.125 Y91.197 E34.53683 ; skirt
G1 X48.677 Y91.093 E34.67158 ; skirt
G1 X46.704 Y90.934 E34.78045 ; skirt
G1 X45.779 Y90.828 E34.83166 ; skirt
G1 X44.766 Y90.684 E34.88791 ; skirt
G1 X44.030 Y90.559 E34.92896 ; skirt
G1 X43.068 Y90.366 E34.98292 ; skirt
G1 X41.676 Y90.022 E35.06177 ; skirt
G1 X40.659 Y89.721 E35.12013 ; skirt
G1 X39.943 Y89.482 E35.16163 ; skirt
G1 X39.227 Y89.212 E35.20369 ; skirt
G1 X38.559 Y88.924 E35.24371 ; skirt
G1 X37.879 Y88.589 E35.28544 ; skirt
G1 X37.470 Y88.363 E35.31113 ; skirt
G1 X37.111 Y88.152 E35.33402 ; skirt
G1 X36.315 Y87.620 E35.38671 ; skirt
G1 X35.585 Y87.055 E35.43747 ; skirt
G1 X35.129 Y86.657 E35.47075 ; skirt
G1 X34.283 Y85.811 E35.53654 ; skirt
G1 X33.699 Y85.131 E35.58583 ; skirt
G1 X33.239 Y84.529 E35.62751 ; skirt
G1 X32.800 Y83.893 E35.66999 ; skirt
G1 X32.458 Y83.349 E35.70533 ; skirt
G1 X31.834 Y82.231 E35.77578 ; skirt
G1 X31.380 Y81.304 E35.83250 ; skirt
G1 X30.960 Y80.354 E35.88962 ; skirt
G1 X30.225 Y78.470 E36.00084 ; skirt
G1 X29.928 Y77.627 E36.05005 ; skirt
G1 X29.436 Y76.128 E36.13678 ; skirt
G1 X28.713 Y73.674 E36.27749 ; skirt
G1 X28.057 Y71.155 E36.42067 ; skirt
G1 X27.675 Y69.530 E36.51245 ; skirt
G1 X27.341 Y67.968 E36.60028 ; skirt
G1 X26.882 Y65.451 E36.74099 ; skirt
G1 X26.611 Y63.503 E36.84916 ; skirt
G1 X26.435 Y61.652 E36.95146 ; skirt
G1 X26.346 Y59.834 E37.05152 ; skirt
G1 X26.335 Y58.849 E37.10571 ; skirt
G1 X26.349 Y57.864 E37.15989 ; skirt
G1 X26.446 Y56.011 E37.26193 ; skirt
G1 X26.624 Y54.185 E37.36286 ; skirt
G1 X26.739 Y53.295 E37.41220 ; skirt
G1 X26.997 Y51.646 E37.50400 ; skirt
G1 X27.355 Y49.790 E37.60797 ; skirt
G1 X27.718 Y48.197 E37.69778 ; skirt
G1 X27.982 Y47.161 E37.75662 ; skirt
G1 X28.422 Y45.600 E37.84578 ; skirt
G1 X28.679 Y44.771 E37.89354 ; skirt
G1 X28.989 Y43.844 E37.94731 ; skirt
G1 X29.312 Y42.961 E37.99898 ; skirt
G1 X29.812 Y41.745 E38.07130 ; skirt
G1 X30.131 Y41.052 E38.11324 ; skirt
G1 X30.623 Y40.085 E38.17295 ; skirt
G1 X30.959 Y39.486 E38.21073 ; skirt
G1 X31.423 Y38.729 E38.25956 ; skirt
G1 X32.226 Y37.584 E38.33648 ; skirt
G1 X32.630 Y37.074 E38.37226 ; skirt
G1 X33.112 Y36.511 E38.41299 ; skirt
G1 X33.552 Y36.040 E38.44847 ; skirt
G1 X34.054 Y35.544 E38.48724 ; skirt
M204 S3000 ; adjust acceleration
G1 X34.691 Y36.130 F7800.000 ; move to first skirt point
M204 S2000 ; adjust acceleration
G1 X35.511 Y35.416 E38.54705 F1200.000 ; skirt
G1 X36.164 Y34.922 E38.59204 ; skirt
G1 X36.831 Y34.481 E38.63604 ; skirt
G1 X37.852 Y33.911 E38.70038 ; skirt
G1 X38.515 Y33.599 E38.74066 ; skirt
G1 X39.440 Y33.229 E38.79545 ; skirt
G1 X40.277 Y32.951 E38.84392 ; skirt
G1 X41.427 Y32.640 E38.90949 ; skirt
G1 X42.765 Y32.362 E38.98463 ; skirt
G1 X43.684 Y32.211 E39.03583 ; skirt
G1 X44.863 Y32.055 E39.10127 ; skirt
G1 X46.497 Y31.896 E39.19151 ; skirt
G1 X48.125 Y31.786 E39.28130 ; skirt
G1 X49.835 Y31.709 E39.37543 ; skirt
G1 X51.499 Y31.664 E39.46697 ; skirt
G1 X53.689 Y31.638 E39.58741 ; skirt
G1 X55.814 Y31.665 E39.70429 F1200.000 ; skirt
G1 X60.272 Y31.802 E39.94958 ; skirt
G1 X66.040 Y32.013 E40.26705 ; skirt
G1 X74.110 Y32.386 E40.71134 ; skirt
G1 X79.911 Y32.721 E41.03087 ; skirt
G1 X85.447 Y33.104 E41.33607 ; skirt
G1 X91.068 Y33.569 E41.64629 ; skirt
G1 X93.993 Y33.845 E41.80786 ; skirt
G1 X96.812 Y34.137 E41.96376 ; skirt
G1 X99.645 Y34.458 E42.12054 ; skirt
G1 X102.485 Y34.808 E42.27792 ; skirt
G1 X105.202 Y35.172 E42.42866 ; skirt
G1 X108.110 Y35.593 E42.59026 ; skirt
G1 X110.946 Y36.033 E42.74812 ; skirt
G1 X135.284 Y40.019 E44.10447 ; skirt
G1 X137.998 Y40.481 E44.25586 ; skirt
G1 X140.979 Y41.024 E44.42253 ; skirt
G1 X143.507 Y41.539 E44.56438 ; skirt
G1 X145.142 Y41.922 E44.65677 ; skirt
G1 X147.036 Y42.471 E44.76519 ; skirt
G1 X147.954 Y42.771 E44.81832 ; skirt
G1 X148.916 Y43.136 E44.87493 ; skirt
G1 X149.339 Y43.318 E44.90023 ; skirt
G1 X149.875 Y43.570 E44.93279 ; skirt
G1 X150.838 Y44.097 E44.99317 ; skirt
G1 X151.631 Y44.617 E45.04534 ; skirt
G1 X152.329 Y45.157 E45.09387 ; skirt
G1 X152.994 Y45.762 E45.14332 ; skirt
G1 X153.609 Y46.420 E45.19288 ; skirt
G1 X154.158 Y47.114 E45.24154 ; skirt
G1 X154.633 Y47.820 E45.28830 ; skirt
G1 X154.963 Y48.398 E45.32491 ; skirt
G1 X155.223 Y48.908 E45.35642 ; skirt
G1 X155.472 Y49.453 E45.38935 ; skirt
G1 X155.720 Y50.072 E45.42604 ; skirt
G1 X156.119 Y51.163 E45.48994 ; skirt
G1 X156.391 Y52.055 E45.54124 ; skirt
G1 X156.678 Y53.146 E45.60327 ; skirt
G1 X157.016 Y54.669 E45.68907 ; skirt
G1 X157.284 Y56.189 E45.77392 ; skirt
G1 X157.545 Y58.177 E45.88419 ; skirt
G1 X157.682 Y59.695 E45.96807 ; skirt
G1 X157.774 Y61.416 E46.06282 ; skirt
G1 X157.802 Y62.973 E46.14848 ; skirt
G1 X157.773 Y64.639 E46.24009 ; skirt
G1 X157.699 Y66.143 E46.32294 ; skirt
G1 X157.572 Y67.715 E46.40968 ; skirt
G1 X157.381 Y69.398 E46.50281 ; skirt
