; generated by Slic3r 1.2.9 on 2015-12-05 at 20:07:51

; external perimeters extrusion width = 0.55mm
; perimeters extrusion width = 0.61mm
; infill extrusion width = 0.60mm
; solid infill extrusion width = 0.60mm
; top infill extrusion width = 0.60mm
; support material extrusion width = 0.70mm

M107 ; disable fan
;start gcode
M80 ;ATX on
M190 S52 ; wait for start bed temperature to be reached PLA
;M190 S82 ; wait for start bed temperature to be reached
M140 S65 ; set  bed temp to be
M104 S205 ; set temperature
G28 ; home all axes
M190 S65 ; set and wait for bed temp to be reached
M109 S205; wait for extruder temp to be reached
G21 ; set units to millimeters
G90 ; use absolute coordinates
M82 ; use absolute distances for extrusion
G92 E0 ; reset extrusion distance
G1 E-1.10000 F1800.00000 ; retract
G92 E0 ; reset extrusion distance
G1 Z0.430 F7800.000 ; lift Z
G1 Z0.630 F7800.000 ; move to next layer (0)
G1 Z0.830 F7800.000 ; lift Z
G1 X34.197 Y40.993 F7800.000 ; move to first brim point
G1 Z0.630 F7800.000 ; restore layer Z
G1 E1.10000 F1800.00000 ; unretract
M204 S2000 ; adjust acceleration
G1 X38.301 Y37.624 E1.29085 F1200.000 ; brim
G1 X38.738 Y37.326 E1.30985 ; brim
G1 X39.219 Y37.100 E1.32893 ; brim
G1 X44.245 Y35.143 E1.52279 ; brim
G1 X44.624 Y35.028 E1.53705 ; brim
G1 X44.968 Y34.964 E1.54963 ; brim
G1 X48.336 Y34.568 E1.67149 ; brim
G1 X51.124 Y34.473 E1.77178 ; brim
G1 X57.466 Y34.331 E1.99976 ; brim
G1 X63.287 Y34.297 E2.20899 ; brim
G1 X75.643 Y34.348 E2.65311 F1200.000 ; brim
G1 X118.223 Y34.339 E4.18354 ; brim
G1 X130.425 Y34.361 E4.62211 ; brim
G1 X135.605 Y35.009 E4.80975 ; brim
G1 X135.797 Y35.059 E4.81688 ; brim
G1 X140.547 Y36.975 E5.00096 ; brim
G1 X140.682 Y37.046 E5.00646 ; brim
G1 X143.132 Y38.646 E5.11160 ; brim
G1 X145.731 Y39.457 E5.20947 ; brim
G1 X145.908 Y39.538 E5.21648 ; brim
G1 X146.227 Y39.743 E5.23009 ; brim
G1 X147.763 Y40.983 E5.30103 ; brim
G1 X148.134 Y41.330 E5.31933 ; brim
G1 X152.058 Y45.776 E5.53245 ; brim
G1 X152.337 Y46.139 E5.54890 ; brim
G1 X152.526 Y46.449 E5.56197 ; brim
G1 X154.952 Y51.252 E5.75534 ; brim
G1 X155.138 Y51.689 E5.77242 ; brim
G1 X155.898 Y54.134 E5.86445 ; brim
G1 X156.580 Y57.628 E5.99240 ; brim
G1 X156.629 Y57.971 E6.00484 ; brim
G1 X156.648 Y58.432 E6.02144 ; brim
G1 X156.567 Y64.207 E6.22903 ; brim
G1 X156.528 Y64.686 E6.24629 ; brim
G1 X156.424 Y65.177 E6.26435 ; brim
G1 X154.930 Y70.532 E6.46418 ; brim
G1 X154.777 Y70.978 E6.48110 ; brim
G1 X154.561 Y71.429 E6.49906 ; brim
G1 X151.920 Y76.183 E6.69454 ; brim
G1 X151.739 Y76.475 E6.70687 ; brim
G1 X151.455 Y76.843 E6.72361 ; brim
G1 X147.564 Y80.921 E6.92620 ; brim
G1 X147.338 Y81.137 E6.93742 ; brim
G1 X146.938 Y81.446 E6.95557 ; brim
G1 X143.816 Y83.551 E7.09093 ; brim
G1 X143.422 Y83.785 E7.10741 ; brim
G1 X141.966 Y84.550 E7.16650 ; brim
G1 X141.556 Y84.738 E7.18271 ; brim
G1 X136.356 Y86.660 E7.38200 ; brim
G1 X136.067 Y86.752 E7.39291 ; brim
G1 X135.469 Y86.876 E7.41483 ; brim
G1 X129.900 Y87.656 E7.61695 ; brim
G1 X129.418 Y87.692 E7.63434 ; brim
G1 X127.233 Y87.678 E7.71287 ; brim
G1 X123.310 Y87.527 E7.85396 ; brim
G1 X117.065 Y87.382 E8.07848 ; brim
G1 X110.908 Y87.357 E8.29979 ; brim
G1 X105.065 Y87.382 E8.50980 ; brim
G1 X94.365 Y87.368 E8.89437 ; brim
G1 X86.953 Y87.315 E9.16081 ; brim
G1 X74.260 Y87.165 E9.61705 ; brim
G1 X68.356 Y87.144 E9.82925 ; brim
G1 X61.490 Y87.191 E10.07604 ; brim
G1 X56.624 Y87.086 E10.25097 ; brim
G1 X55.910 Y87.048 E10.27666 ; brim
G1 X50.269 Y86.523 E10.48029 ; brim
G1 X45.121 Y85.708 E10.66766 ; brim
G1 X43.941 Y85.463 E10.71094 ; brim
G1 X43.709 Y85.398 E10.71961 ; brim
G1 X43.375 Y85.267 E10.73251 ; brim
G1 X38.370 Y82.939 E10.93091 ; brim
G1 X38.178 Y82.839 E10.93870 ; brim
G1 X37.882 Y82.647 E10.95139 ; brim
G1 X37.679 Y82.481 E10.96079 ; brim
G1 X37.408 Y82.199 E10.97484 ; brim
G1 X33.944 Y77.922 E11.17266 ; brim
G1 X33.758 Y77.628 E11.18518 ; brim
G1 X33.649 Y77.409 E11.19398 ; brim
G1 X32.592 Y74.829 E11.29419 ; brim
G1 X31.542 Y71.469 E11.42069 ; brim
G1 X29.931 Y65.408 E11.64612 ; brim
G1 X28.812 Y60.059 E11.84252 ; brim
G1 X28.458 Y58.017 E11.91704 ; brim
G1 X28.281 Y53.288 E12.08713 ; brim
G1 X28.298 Y52.919 E12.10040 ; brim
G1 X28.330 Y52.690 E12.10869 ; brim
G1 X28.405 Y52.363 E12.12075 ; brim
G1 X29.908 Y47.173 E12.31495 ; brim
G1 X30.116 Y46.644 E12.33538 ; brim
G1 X30.296 Y46.327 E12.34850 ; brim
G1 X32.969 Y42.333 E12.52123 ; brim
G1 X33.187 Y42.055 E12.53393 ; brim
G1 X33.819 Y41.346 E12.56808 ; brim
G1 X34.140 Y41.041 E12.58398 ; brim
M204 S3000 ; adjust acceleration
G1 X34.590 Y41.465 F7800.000 ; move to first brim point
M204 S2000 ; adjust acceleration
G1 X38.686 Y38.103 E12.77444 F1200.000 ; brim
G1 X39.047 Y37.857 E12.79014 ; brim
G1 X39.442 Y37.672 E12.80581 ; brim
G1 X44.461 Y35.718 E12.99936 ; brim
G1 X44.764 Y35.626 E13.01075 ; brim
G1 X45.049 Y35.572 E13.02118 ; brim
G1 X48.362 Y35.182 E13.14107 ; brim
G1 X51.140 Y35.087 E13.24100 ; brim
G1 X57.476 Y34.945 E13.46879 ; brim
G1 X63.283 Y34.911 E13.67750 ; brim
G1 X75.643 Y34.962 E14.12175 F1200.000 ; brim
G1 X118.223 Y34.953 E15.65218 ; brim
G1 X130.405 Y34.975 E16.09003 ; brim
G1 X135.489 Y35.613 E16.27421 ; brim
G1 X135.604 Y35.643 E16.27848 ; brim
G1 X140.289 Y37.533 E16.46004 ; brim
G1 X142.866 Y39.206 E16.57048 ; brim
G1 X145.511 Y40.032 E16.67006 ; brim
G1 X145.878 Y40.248 E16.68538 ; brim
G1 X147.371 Y41.456 E16.75441 ; brim
G1 X147.685 Y41.749 E16.76983 ; brim
G1 X151.582 Y46.164 E16.98152 ; brim
G1 X151.830 Y46.487 E16.99614 ; brim
G1 X151.986 Y46.741 E17.00687 ; brim
G1 X154.402 Y51.525 E17.19948 ; brim
G1 X154.561 Y51.900 E17.21413 ; brim
G1 X155.301 Y54.276 E17.30357 ; brim
G1 X155.976 Y57.741 E17.43045 ; brim
G1 X156.017 Y58.028 E17.44086 ; brim
G1 X156.034 Y58.425 E17.45517 ; brim
G1 X155.953 Y64.194 E17.66253 ; brim
G1 X155.919 Y64.601 E17.67721 ; brim
G1 X155.832 Y65.015 E17.69243 ; brim
G1 X154.339 Y70.364 E17.89203 ; brim
G1 X154.206 Y70.750 E17.90668 ; brim
G1 X154.023 Y71.133 E17.92194 ; brim
G1 X151.385 Y75.881 E18.11719 ; brim
G1 X151.234 Y76.126 E18.12751 ; brim
G1 X150.990 Y76.442 E18.14187 ; brim
G1 X146.929 Y80.679 E18.35280 ; brim
G1 X146.593 Y80.938 E18.36807 ; brim
G1 X143.475 Y83.040 E18.50320 ; brim
G1 X143.131 Y83.244 E18.51758 ; brim
G1 X141.684 Y84.005 E18.57635 ; brim
G1 X141.325 Y84.169 E18.59052 ; brim
G1 X135.897 Y86.162 E18.79838 ; brim
G1 X135.381 Y86.268 E18.81731 ; brim
G1 X129.819 Y87.047 E19.01915 ; brim
G1 X129.409 Y87.078 E19.03396 ; brim
G1 X127.242 Y87.064 E19.11183 ; brim
G1 X123.330 Y86.914 E19.25254 ; brim
G1 X117.069 Y86.768 E19.47762 ; brim
G1 X110.908 Y86.743 E19.69907 ; brim
G1 X105.064 Y86.768 E19.90913 ; brim
G1 X94.368 Y86.754 E20.29356 ; brim
G1 X86.959 Y86.700 E20.55989 ; brim
G1 X74.263 Y86.550 E21.01623 ; brim
G1 X68.355 Y86.530 E21.22859 ; brim
G1 X61.493 Y86.577 E21.47520 ; brim
G1 X56.640 Y86.472 E21.64970 ; brim
G1 X55.965 Y86.436 E21.67399 ; brim
G1 X50.344 Y85.913 E21.87690 ; brim
G1 X45.220 Y85.102 E22.06334 ; brim
G1 X44.082 Y84.865 E22.10513 ; brim
G1 X43.629 Y84.708 E22.12235 ; brim
G1 X38.634 Y82.384 E22.32037 ; brim
G1 X38.244 Y82.151 E22.33670 ; brim
G1 X38.094 Y82.028 E22.34368 ; brim
G1 X37.879 Y81.806 E22.35478 ; brim
G1 X34.446 Y77.569 E22.55078 ; brim
G1 X34.294 Y77.326 E22.56108 ; brim
G1 X34.163 Y77.049 E22.57211 ; brim
G1 X33.231 Y74.790 E22.65993 ; brim
G1 X33.107 Y74.422 E22.67388 ; brim
G1 X32.133 Y71.302 E22.79136 ; brim
G1 X30.530 Y65.275 E23.01551 ; brim
G1 X29.414 Y59.940 E23.21144 ; brim
G1 X29.068 Y57.940 E23.28437 ; brim
G1 X28.895 Y53.277 E23.45211 ; brim
G1 X28.929 Y52.828 E23.46827 ; brim
G1 X28.996 Y52.530 E23.47925 ; brim
G1 X30.496 Y47.349 E23.67313 ; brim
G1 X30.664 Y46.922 E23.68960 ; brim
G1 X30.811 Y46.661 E23.70037 ; brim
G1 X33.467 Y42.693 E23.87199 ; brim
G1 X33.650 Y42.459 E23.88268 ; brim
G1 X34.272 Y41.761 E23.91627 ; brim
G1 X34.533 Y41.513 E23.92922 ; brim
M204 S3000 ; adjust acceleration
G1 X34.983 Y41.936 F7800.000 ; move to first brim point
M204 S2000 ; adjust acceleration
G1 X39.071 Y38.581 E24.11929 F1200.000 ; brim
G1 X39.357 Y38.388 E24.13170 ; brim
G1 X39.666 Y38.244 E24.14396 ; brim
G1 X44.676 Y36.293 E24.33721 ; brim
G1 X44.903 Y36.224 E24.34572 ; brim
G1 X45.129 Y36.181 E24.35398 ; brim
G1 X48.387 Y35.796 E24.47192 ; brim
G1 X51.156 Y35.701 E24.57149 ; brim
G1 X57.487 Y35.559 E24.79909 ; brim
G1 X63.284 Y35.525 E25.00746 ; brim
G1 X75.642 Y35.576 E25.45165 F1200.000 ; brim
G1 X118.223 Y35.567 E26.98209 ; brim
G1 X130.384 Y35.589 E27.41921 ; brim
G1 X135.411 Y36.228 E27.60134 ; brim
G1 X140.031 Y38.091 E27.78038 ; brim
G1 X142.600 Y39.767 E27.89064 ; brim
G1 X145.291 Y40.606 E27.99193 ; brim
G1 X145.438 Y40.692 E27.99804 ; brim
G1 X145.713 Y40.894 E28.01033 ; brim
G1 X146.980 Y41.929 E28.06911 ; brim
G1 X147.235 Y42.167 E28.08166 ; brim
G1 X151.119 Y46.568 E28.29262 ; brim
G1 X151.324 Y46.835 E28.30472 ; brim
G1 X151.446 Y47.034 E28.31311 ; brim
G1 X153.852 Y51.798 E28.50496 ; brim
G1 X153.985 Y52.111 E28.51717 ; brim
G1 X154.703 Y54.418 E28.60403 ; brim
G1 X155.406 Y58.085 E28.73821 ; brim
G1 X155.420 Y58.419 E28.75023 ; brim
G1 X155.339 Y64.181 E28.95735 ; brim
G1 X155.311 Y64.517 E28.96946 ; brim
G1 X155.239 Y64.853 E28.98183 ; brim
G1 X153.676 Y70.418 E29.18958 ; brim
G1 X153.485 Y70.837 E29.20613 ; brim
G1 X150.850 Y75.580 E29.40116 ; brim
G1 X150.728 Y75.777 E29.40946 ; brim
G1 X150.525 Y76.041 E29.42144 ; brim
G1 X146.520 Y80.221 E29.62951 ; brim
G1 X146.247 Y80.431 E29.64189 ; brim
G1 X143.135 Y82.529 E29.77679 ; brim
G1 X142.841 Y82.703 E29.78908 ; brim
G1 X141.401 Y83.459 E29.84754 ; brim
G1 X141.094 Y83.600 E29.85966 ; brim
G1 X135.727 Y85.572 E30.06519 ; brim
G1 X135.292 Y85.661 E30.08113 ; brim
G1 X129.738 Y86.438 E30.28269 ; brim
G1 X129.293 Y86.465 E30.29872 ; brim
G1 X127.246 Y86.450 E30.37229 ; brim
G1 X123.350 Y86.300 E30.51246 ; brim
G1 X117.074 Y86.154 E30.73809 ; brim
G1 X110.908 Y86.129 E30.95969 ; brim
G1 X105.064 Y86.154 E31.16975 ; brim
G1 X94.371 Y86.140 E31.55407 ; brim
G1 X86.964 Y86.086 E31.82030 ; brim
G1 X74.266 Y85.936 E32.27674 ; brim
G1 X68.353 Y85.915 E32.48927 ; brim
G1 X61.497 Y85.963 E32.73570 ; brim
G1 X56.655 Y85.858 E32.90976 ; brim
G1 X56.019 Y85.824 E32.93265 ; brim
G1 X50.418 Y85.303 E33.13483 ; brim
G1 X45.320 Y84.496 E33.32036 ; brim
G1 X44.223 Y84.267 E33.36065 ; brim
G1 X43.884 Y84.149 E33.37354 ; brim
G1 X38.898 Y81.830 E33.57119 ; brim
G1 X38.598 Y81.648 E33.58380 ; brim
G1 X38.351 Y81.412 E33.59608 ; brim
G1 X34.949 Y77.215 E33.79027 ; brim
G1 X34.829 Y77.025 E33.79834 ; brim
G1 X34.728 Y76.810 E33.80689 ; brim
G1 X33.801 Y74.563 E33.89426 ; brim
G1 X33.692 Y74.237 E33.90661 ; brim
G1 X32.724 Y71.135 E34.02339 ; brim
G1 X31.130 Y65.143 E34.24626 ; brim
G1 X30.017 Y59.820 E34.44172 ; brim
G1 X29.677 Y57.864 E34.51307 ; brim
G1 X29.509 Y53.266 E34.67844 ; brim
G1 X29.536 Y52.922 E34.69084 ; brim
G1 X29.588 Y52.697 E34.69913 ; brim
G1 X31.085 Y47.524 E34.89269 ; brim
G1 X31.212 Y47.200 E34.90520 ; brim
G1 X31.326 Y46.996 E34.91362 ; brim
G1 X33.964 Y43.053 E35.08412 ; brim
G1 X34.724 Y42.177 E35.12582 ; brim
G1 X34.926 Y41.985 E35.13583 ; brim
M204 S3000 ; adjust acceleration
G1 E34.03583 F1800.00000 ; retract
G92 E0 ; reset extrusion distance
G1 Z0.830 F7800.000 ; lift Z
G1 X64.772 Y85.283 F7800.000 ; move to first perimeter point
G1 Z0.630 F7800.000 ; restore layer Z
G1 E1.10000 F1800.00000 ; unretract
M204 S2000 ; adjust acceleration
G1 X61.501 Y85.305 E1.21754 F1200.000 ; perimeter
G1 X56.478 Y85.196 E1.39813 ; perimeter
G1 X50.291 Y84.624 E1.62145 ; perimeter
G1 X45.433 Y83.848 E1.79827 ; perimeter
G1 X44.387 Y83.631 E1.83668 ; perimeter
G1 X44.143 Y83.545 E1.84597 ; perimeter
G1 X39.121 Y81.205 E2.04512 ; perimeter
G1 X38.944 Y81.081 E2.05288 ; perimeter
G1 X38.848 Y80.982 E2.05782 ; perimeter
G1 X35.442 Y76.772 E2.25247 ; perimeter
G1 X35.368 Y76.634 E2.25807 ; perimeter
G1 X34.380 Y74.230 E2.35153 ; perimeter
G1 X33.417 Y71.159 E2.46719 ; perimeter
G1 X31.770 Y64.995 E2.69650 ; perimeter
G1 X30.662 Y59.694 E2.89115 ; perimeter
G1 X30.331 Y57.789 E2.96065 ; perimeter
G1 X30.166 Y53.263 E3.12343 ; perimeter
G1 X30.175 Y53.108 E3.12900 ; perimeter
G1 X30.223 Y52.864 E3.13797 ; perimeter
G1 X31.710 Y47.729 E3.33009 ; perimeter
G1 X31.841 Y47.417 E3.34227 ; perimeter
G1 X34.492 Y43.446 E3.51388 ; perimeter
G1 X35.202 Y42.628 E3.55280 ; perimeter
G1 X35.410 Y42.436 E3.56297 ; perimeter
G1 X39.611 Y39.002 E3.75800 ; perimeter
G1 X39.833 Y38.885 E3.76702 ; perimeter
G1 X44.890 Y36.915 E3.96209 ; perimeter
G1 X45.232 Y36.831 E3.97473 ; perimeter
G1 X48.427 Y36.452 E4.09038 ; perimeter
G1 X51.174 Y36.357 E4.18916 ; perimeter
G1 X57.497 Y36.216 E4.41650 ; perimeter
G1 X63.487 Y36.183 E4.63181 ; perimeter
G1 X75.641 Y36.233 E5.06866 ; perimeter
G1 X118.222 Y36.224 E6.59911 F1200.000 ; perimeter
G1 X130.352 Y36.246 E7.03508 ; perimeter
G1 X135.226 Y36.861 E7.21166 ; perimeter
G1 X139.738 Y38.682 E7.38654 ; perimeter
G1 X142.275 Y40.353 E7.49572 ; perimeter
G1 X145.072 Y41.238 E7.60116 ; perimeter
G1 X145.307 Y41.411 E7.61166 ; perimeter
G1 X146.554 Y42.429 E7.66952 ; perimeter
G1 X146.759 Y42.621 E7.67961 ; perimeter
G1 X150.617 Y46.992 E7.88916 ; perimeter
G1 X150.782 Y47.207 E7.89890 ; perimeter
G1 X150.870 Y47.350 E7.90493 ; perimeter
G1 X153.259 Y52.082 E8.09548 ; perimeter
G1 X153.367 Y52.337 E8.10543 ; perimeter
G1 X154.064 Y54.575 E8.18966 ; perimeter
G1 X154.751 Y58.154 E8.32065 ; perimeter
G1 X154.762 Y58.420 E8.33024 ; perimeter
G1 X154.683 Y64.157 E8.53645 ; perimeter
G1 X154.660 Y64.423 E8.54603 ; perimeter
G1 X154.603 Y64.688 E8.55579 ; perimeter
G1 X153.059 Y70.189 E8.76113 ; perimeter
G1 X152.903 Y70.531 E8.77465 ; perimeter
G1 X150.280 Y75.253 E8.96879 ; perimeter
G1 X150.027 Y75.611 E8.98457 ; perimeter
G1 X146.081 Y79.730 E9.18958 ; perimeter
G1 X145.869 Y79.893 E9.19917 ; perimeter
G1 X142.778 Y81.977 E9.33320 ; perimeter
G1 X141.105 Y82.873 E9.40138 ; perimeter
G1 X140.845 Y82.991 E9.41165 ; perimeter
G1 X135.546 Y84.939 E9.61458 ; perimeter
G1 X135.189 Y85.012 E9.62768 ; perimeter
G1 X129.566 Y85.796 E9.83172 ; perimeter
G1 X129.286 Y85.808 E9.84179 ; perimeter
G1 X127.263 Y85.793 E9.91450 ; perimeter
G1 X123.371 Y85.643 E10.05450 ; perimeter
G1 X117.080 Y85.497 E10.28069 ; perimeter
G1 X110.907 Y85.472 E10.50255 ; perimeter
G1 X105.063 Y85.497 E10.71261 ; perimeter
G1 X94.374 Y85.483 E11.09679 ; perimeter
G1 X86.971 Y85.429 E11.36290 ; perimeter
G1 X74.270 Y85.279 E11.81943 ; perimeter
G1 X68.351 Y85.258 E12.03216 ; perimeter
G1 X64.847 Y85.282 E12.15813 ; perimeter
M204 S3000 ; adjust acceleration
G1 X64.519 Y84.852 F7800.000 ; move inwards before travel
G1 X64.767 Y84.669 F7800.000 ; move to first perimeter point
M204 S2000 ; adjust acceleration
G1 X61.506 Y84.691 E12.27535 F1200.000 ; perimeter
G1 X56.513 Y84.582 E12.45485 ; perimeter
G1 X50.368 Y84.015 E12.67665 ; perimeter
G1 X45.544 Y83.244 E12.85223 ; perimeter
G1 X44.552 Y83.037 E12.88867 ; perimeter
G1 X44.375 Y82.976 E12.89540 ; perimeter
G1 X39.430 Y80.671 E13.09150 ; perimeter
G1 X39.344 Y80.611 E13.09527 ; perimeter
G1 X35.963 Y76.443 E13.28817 ; perimeter
G1 X34.958 Y74.021 E13.38242 ; perimeter
G1 X34.007 Y70.988 E13.49666 ; perimeter
G1 X32.368 Y64.853 E13.72489 ; perimeter
G1 X31.265 Y59.579 E13.91857 ; perimeter
G1 X30.943 Y57.725 E13.98619 ; perimeter
G1 X30.781 Y53.268 E14.14649 ; perimeter
G1 X30.821 Y53.009 E14.15589 ; perimeter
G1 X32.289 Y47.935 E14.34577 ; perimeter
G1 X32.385 Y47.710 E14.35456 ; perimeter
G1 X34.981 Y43.819 E14.52267 ; perimeter
G1 X35.644 Y43.057 E14.55899 ; perimeter
G1 X35.814 Y42.900 E14.56730 ; perimeter
G1 X39.935 Y39.526 E14.75873 ; perimeter
G1 X40.089 Y39.444 E14.76500 ; perimeter
G1 X45.076 Y37.502 E14.95737 ; perimeter
G1 X45.342 Y37.436 E14.96721 ; perimeter
G1 X48.474 Y37.065 E15.08056 ; perimeter
G1 X51.191 Y36.971 E15.17828 ; perimeter
G1 X57.506 Y36.830 E15.40530 ; perimeter
G1 X63.488 Y36.797 E15.62032 ; perimeter
G1 X75.640 Y36.847 E16.05711 ; perimeter
G1 X118.222 Y36.839 E17.58759 F1200.000 ; perimeter
G1 X130.313 Y36.860 E18.02217 ; perimeter
