; generated by Slic3r 1.2.9 on 2015-12-06 at 21:19:19

; external perimeters extrusion width = 0.55mm
; perimeters extrusion width = 0.61mm
; infill extrusion width = 0.60mm
; solid infill extrusion width = 0.60mm
; top infill extrusion width = 0.60mm
; support material extrusion width = 0.70mm

M107 ; disable fan
;start gcode
M80 ;ATX on
M190 S52 ; wait for start bed temperature to be reached PLA
;M190 S82 ; wait for start bed temperature to be reached
M140 S65 ; set  bed temp to be
M104 S205 ; set temperature
G28 ; home all axes
M190 S65 ; set and wait for bed temp to be reached
M109 S205; wait for extruder temp to be reached
G21 ; set units to millimeters
G90 ; use absolute coordinates
M82 ; use absolute distances for extrusion
G92 E0 ; reset extrusion distance
G1 E-1.10000 F1800.00000 ; retract
G92 E0 ; reset extrusion distance
G1 Z0.430 F7800.000 ; lift Z
G1 Z0.630 F7800.000 ; move to next layer (0)
G1 Z0.830 F7800.000 ; lift Z
G1 X36.050 Y39.224 F7800.000 ; move to first brim point
G1 Z0.630 F7800.000 ; restore layer Z
G1 E1.10000 F1800.00000 ; unretract
M204 S2000 ; adjust acceleration
G1 X38.268 Y37.613 E1.19853 F1200.000 ; brim
G1 X40.577 Y36.365 E1.29288 ; brim
G1 X43.079 Y35.425 E1.38896 ; brim
G1 X45.691 Y34.829 E1.48524 ; brim
G1 X48.273 Y34.574 E1.57849 ; brim
G1 X50.959 Y34.480 E1.67510 ; brim
G1 X55.801 Y34.360 E1.84918 ; brim
G1 X58.245 Y34.323 E1.93702 ; brim
G1 X63.360 Y34.299 E2.12087 ; brim
G1 X75.797 Y34.351 E2.56789 F1200.000 ; brim
G1 X118.046 Y34.341 E4.08644 ; brim
G1 X130.432 Y34.364 E4.53159 ; brim
G1 X133.129 Y34.509 E4.62869 ; brim
G1 X135.708 Y34.907 E4.72249 ; brim
G1 X138.229 Y35.566 E4.81613 ; brim
G1 X140.706 Y36.496 E4.91125 ; brim
G1 X143.063 Y37.670 E5.00588 ; brim
G1 X145.297 Y39.071 E5.10065 ; brim
G1 X146.353 Y39.840 E5.14762 ; brim
G1 X147.394 Y40.671 E5.19548 ; brim
G1 X149.220 Y42.347 E5.28455 ; brim
G1 X151.000 Y44.332 E5.38039 ; brim
G1 X152.600 Y46.549 E5.47868 ; brim
G1 X153.914 Y48.854 E5.57404 ; brim
G1 X154.971 Y51.252 E5.66821 ; brim
G1 X155.847 Y53.951 E5.77022 ; brim
G1 X156.375 Y56.287 E5.85627 ; brim
G1 X156.712 Y58.834 E5.94863 ; brim
G1 X156.794 Y61.521 E6.04525 ; brim
G1 X156.597 Y64.158 E6.14031 ; brim
G1 X156.137 Y66.725 E6.23403 ; brim
G1 X155.389 Y69.339 E6.33177 ; brim
G1 X154.778 Y70.967 E6.39426 ; brim
G1 X154.408 Y71.829 E6.42797 ; brim
G1 X153.284 Y74.061 E6.51781 ; brim
G1 X151.841 Y76.333 E6.61453 ; brim
G1 X150.183 Y78.415 E6.71020 ; brim
G1 X148.336 Y80.281 E6.80457 ; brim
G1 X146.316 Y81.933 E6.89835 ; brim
G1 X144.093 Y83.401 E6.99413 ; brim
G1 X143.511 Y83.737 E7.01826 ; brim
G1 X141.829 Y84.619 E7.08654 ; brim
G1 X139.340 Y85.704 E7.18413 ; brim
G1 X136.993 Y86.499 E7.27318 ; brim
G1 X134.400 Y87.136 E7.36914 ; brim
G1 X131.769 Y87.536 E7.46480 ; brim
G1 X129.192 Y87.701 E7.55762 ; brim
G1 X127.094 Y87.677 E7.63303 ; brim
G1 X124.082 Y87.557 E7.74137 ; brim
G1 X119.252 Y87.421 E7.91505 ; brim
G1 X114.416 Y87.359 E8.08887 ; brim
G1 X102.006 Y87.389 E8.53492 ; brim
G1 X94.362 Y87.371 E8.80966 ; brim
G1 X87.036 Y87.318 E9.07299 ; brim
G1 X71.996 Y87.152 E9.61358 ; brim
G1 X67.105 Y87.149 E9.78937 ; brim
G1 X61.703 Y87.193 E9.98355 ; brim
G1 X59.602 Y87.192 E10.05907 ; brim
G1 X57.042 Y87.115 E10.15111 ; brim
G1 X54.529 Y86.962 E10.24161 ; brim
G1 X52.041 Y86.734 E10.33142 ; brim
G1 X49.496 Y86.424 E10.42355 ; brim
G1 X47.226 Y86.083 E10.50607 ; brim
G1 X44.487 Y85.588 E10.60610 ; brim
G1 X41.883 Y84.844 E10.70346 ; brim
G1 X39.536 Y83.754 E10.79644 ; brim
G1 X37.280 Y82.162 E10.89573 ; brim
G1 X37.164 Y82.061 E10.90124 ; brim
G1 X35.296 Y80.064 E10.99952 ; brim
G1 X33.852 Y77.818 E11.09547 ; brim
G1 X32.719 Y75.217 E11.19745 ; brim
G1 X31.949 Y72.830 E11.28761 ; brim
G1 X31.233 Y70.420 E11.37798 ; brim
G1 X30.569 Y67.992 E11.46844 ; brim
G1 X29.956 Y65.534 E11.55949 ; brim
G1 X29.396 Y63.047 E11.65113 ; brim
G1 X28.912 Y60.636 E11.73949 ; brim
G1 X28.468 Y58.111 E11.83166 ; brim
G1 X28.206 Y55.394 E11.92977 ; brim
G1 X28.310 Y52.779 E12.02382 ; brim
G1 X28.834 Y50.010 E12.12514 ; brim
G1 X29.734 Y47.461 E12.22226 ; brim
G1 X30.935 Y45.147 E12.31598 ; brim
G1 X32.437 Y42.971 E12.41100 ; brim
G1 X33.166 Y42.079 E12.45243 ; brim
G1 X34.134 Y41.012 E12.50420 ; brim
G1 X35.995 Y39.276 E12.59569 ; brim
M204 S3000 ; adjust acceleration
G1 X36.455 Y39.687 F7800.000 ; move to first brim point
M204 S2000 ; adjust acceleration
G1 X38.612 Y38.123 E12.69144 F1200.000 ; brim
G1 X40.814 Y36.932 E12.78143 ; brim
G1 X43.237 Y36.019 E12.87448 ; brim
G1 X45.809 Y35.432 E12.96930 ; brim
G1 X48.323 Y35.187 E13.06009 ; brim
G1 X50.977 Y35.094 E13.15557 ; brim
G1 X55.813 Y34.974 E13.32944 ; brim
G1 X58.253 Y34.937 E13.41714 ; brim
G1 X63.355 Y34.914 E13.60052 ; brim
G1 X75.796 Y34.965 E14.04769 F1200.000 ; brim
G1 X118.046 Y34.956 E15.56626 ; brim
G1 X130.407 Y34.978 E16.01054 ; brim
G1 X133.006 Y35.113 E16.10405 ; brim
G1 X135.569 Y35.506 E16.19725 ; brim
G1 X138.058 Y36.156 E16.28973 ; brim
G1 X140.475 Y37.066 E16.38254 ; brim
G1 X142.750 Y38.199 E16.47389 ; brim
G1 X144.944 Y39.574 E16.56697 ; brim
G1 X145.986 Y40.333 E16.61330 ; brim
G1 X147.002 Y41.145 E16.66005 ; brim
G1 X148.773 Y42.769 E16.74641 ; brim
G1 X150.512 Y44.705 E16.83994 ; brim
G1 X152.093 Y46.895 E16.93703 ; brim
G1 X153.372 Y49.144 E17.03002 ; brim
G1 X154.402 Y51.484 E17.12194 ; brim
G1 X155.259 Y54.127 E17.22177 ; brim
G1 X155.780 Y56.449 E17.30730 ; brim
G1 X156.105 Y58.945 E17.39778 ; brim
G1 X156.180 Y61.523 E17.49047 ; brim
G1 X155.986 Y64.096 E17.58322 ; brim
G1 X155.535 Y66.600 E17.67468 ; brim
G1 X154.802 Y69.158 E17.77031 ; brim
G1 X154.206 Y70.745 E17.83123 ; brim
G1 X153.856 Y71.561 E17.86318 ; brim
G1 X152.742 Y73.771 E17.95212 ; brim
G1 X151.350 Y75.964 E18.04547 ; brim
G1 X149.735 Y77.995 E18.13874 ; brim
G1 X147.911 Y79.838 E18.23193 ; brim
G1 X145.965 Y81.429 E18.32229 ; brim
G1 X143.762 Y82.884 E18.41717 ; brim
G1 X143.220 Y83.196 E18.43964 ; brim
G1 X141.573 Y84.061 E18.50652 ; brim
G1 X139.130 Y85.127 E18.60232 ; brim
G1 X136.834 Y85.906 E18.68947 ; brim
G1 X134.267 Y86.536 E18.78445 ; brim
G1 X131.691 Y86.927 E18.87812 ; brim
G1 X129.187 Y87.087 E18.96829 ; brim
G1 X127.116 Y87.063 E19.04274 ; brim
G1 X124.104 Y86.943 E19.15108 ; brim
G1 X119.264 Y86.807 E19.32509 ; brim
G1 X114.419 Y86.745 E19.49925 ; brim
G1 X102.006 Y86.775 E19.94543 ; brim
G1 X94.365 Y86.757 E20.22006 ; brim
G1 X87.041 Y86.704 E20.48329 ; brim
G1 X71.999 Y86.538 E21.02398 ; brim
G1 X67.103 Y86.535 E21.19995 ; brim
G1 X61.701 Y86.579 E21.39411 ; brim
G1 X59.616 Y86.578 E21.46907 ; brim
G1 X57.075 Y86.502 E21.56043 ; brim
G1 X54.571 Y86.349 E21.65059 ; brim
G1 X52.102 Y86.123 E21.73973 ; brim
G1 X49.575 Y85.815 E21.83121 ; brim
G1 X47.321 Y85.477 E21.91313 ; brim
G1 X44.642 Y84.993 E22.01097 ; brim
G1 X42.188 Y84.302 E22.10260 ; brim
G1 X39.821 Y83.209 E22.19632 ; brim
G1 X37.661 Y81.679 E22.29146 ; brim
G1 X35.764 Y79.665 E22.39091 ; brim
G1 X34.383 Y77.509 E22.48292 ; brim
G1 X33.297 Y75.008 E22.58094 ; brim
G1 X32.535 Y72.646 E22.67014 ; brim
G1 X31.822 Y70.248 E22.76006 ; brim
G1 X31.166 Y67.850 E22.84941 ; brim
G1 X30.557 Y65.406 E22.93993 ; brim
G1 X29.996 Y62.915 E23.03171 ; brim
G1 X29.516 Y60.526 E23.11931 ; brim
G1 X29.078 Y58.038 E23.21008 ; brim
G1 X28.820 Y55.395 E23.30554 ; brim
G1 X28.918 Y52.869 E23.39640 ; brim
G1 X29.422 Y50.190 E23.49438 ; brim
G1 X30.289 Y47.724 E23.58835 ; brim
G1 X31.451 Y45.480 E23.67918 ; brim
G1 X32.935 Y43.331 E23.77304 ; brim
G1 X33.636 Y42.474 E23.81283 ; brim
G1 X34.562 Y41.452 E23.86240 ; brim
G1 X36.400 Y39.738 E23.95273 ; brim
M204 S3000 ; adjust acceleration
G1 X36.860 Y40.149 F7800.000 ; move to first brim point
M204 S2000 ; adjust acceleration
G1 X38.955 Y38.632 E24.04570 F1200.000 ; brim
G1 X41.051 Y37.499 E24.13133 ; brim
G1 X43.394 Y36.613 E24.22136 ; brim
G1 X45.926 Y36.035 E24.31471 ; brim
G1 X48.381 Y35.798 E24.40338 ; brim
G1 X50.996 Y35.708 E24.49739 ; brim
G1 X55.826 Y35.588 E24.67105 ; brim
G1 X58.261 Y35.552 E24.75860 ; brim
G1 X63.356 Y35.528 E24.94172 ; brim
G1 X75.795 Y35.579 E25.38882 F1200.000 ; brim
G1 X118.046 Y35.570 E26.90742 ; brim
G1 X130.375 Y35.592 E27.35056 ; brim
G1 X132.958 Y35.726 E27.44353 ; brim
G1 X135.429 Y36.104 E27.53335 ; brim
G1 X137.887 Y36.746 E27.62468 ; brim
G1 X140.243 Y37.635 E27.71518 ; brim
G1 X142.436 Y38.727 E27.80326 ; brim
G1 X144.591 Y40.077 E27.89464 ; brim
G1 X145.619 Y40.825 E27.94033 ; brim
G1 X146.611 Y41.618 E27.98596 ; brim
G1 X148.326 Y43.191 E28.06962 ; brim
G1 X150.024 Y45.077 E28.16084 ; brim
G1 X151.585 Y47.241 E28.25673 ; brim
G1 X152.830 Y49.433 E28.34735 ; brim
G1 X153.834 Y51.717 E28.43702 ; brim
G1 X154.670 Y54.302 E28.53467 ; brim
G1 X155.173 Y56.542 E28.61718 ; brim
G1 X155.491 Y58.978 E28.70549 ; brim
G1 X155.565 Y61.524 E28.79704 ; brim
G1 X155.375 Y64.033 E28.88748 ; brim
G1 X154.934 Y66.476 E28.97668 ; brim
G1 X154.215 Y68.976 E29.07019 ; brim
G1 X153.634 Y70.522 E29.12955 ; brim
G1 X153.303 Y71.294 E29.15973 ; brim
G1 X152.201 Y73.482 E29.24779 ; brim
G1 X150.859 Y75.595 E29.33775 ; brim
G1 X149.287 Y77.575 E29.42863 ; brim
G1 X147.486 Y79.394 E29.52064 ; brim
G1 X145.613 Y80.925 E29.60758 ; brim
G1 X143.431 Y82.366 E29.70156 ; brim
G1 X142.929 Y82.656 E29.72238 ; brim
G1 X141.317 Y83.503 E29.78786 ; brim
G1 X138.920 Y84.550 E29.88187 ; brim
G1 X136.674 Y85.313 E29.96711 ; brim
G1 X134.135 Y85.936 E30.06111 ; brim
G1 X131.612 Y86.317 E30.15280 ; brim
G1 X129.183 Y86.472 E30.24030 ; brim
G1 X127.138 Y86.449 E30.31380 ; brim
G1 X124.126 Y86.329 E30.42214 ; brim
G1 X119.277 Y86.193 E30.59649 ; brim
G1 X114.423 Y86.130 E30.77098 ; brim
G1 X102.005 Y86.161 E31.21729 ; brim
G1 X94.368 Y86.143 E31.49180 ; brim
G1 X87.047 Y86.090 E31.75494 ; brim
G1 X72.002 Y85.924 E32.29572 ; brim
G1 X67.100 Y85.921 E32.47192 ; brim
G1 X61.702 Y85.965 E32.66594 ; brim
G1 X59.630 Y85.964 E32.74042 ; brim
G1 X57.108 Y85.889 E32.83110 ; brim
G1 X54.613 Y85.736 E32.92092 ; brim
G1 X52.162 Y85.511 E33.00939 ; brim
G1 X49.653 Y85.206 E33.10023 ; brim
G1 X47.416 Y84.870 E33.18153 ; brim
G1 X44.797 Y84.399 E33.27720 ; brim
G1 X42.378 Y83.718 E33.36750 ; brim
G1 X40.105 Y82.664 E33.45756 ; brim
G1 X38.042 Y81.197 E33.54854 ; brim
G1 X36.232 Y79.266 E33.64368 ; brim
G1 X34.914 Y77.200 E33.73175 ; brim
G1 X33.874 Y74.799 E33.82580 ; brim
G1 X33.121 Y72.462 E33.91405 ; brim
G1 X32.412 Y70.076 E34.00352 ; brim
G1 X31.760 Y67.691 E34.09237 ; brim
G1 X31.153 Y65.261 E34.18240 ; brim
G1 X30.596 Y62.784 E34.27366 ; brim
G1 X30.120 Y60.415 E34.36050 ; brim
G1 X29.688 Y57.966 E34.44988 ; brim
G1 X29.435 Y55.397 E34.54268 ; brim
G1 X29.525 Y52.959 E34.63035 ; brim
G1 X30.009 Y50.371 E34.72500 ; brim
G1 X30.836 Y48.006 E34.81504 ; brim
G1 X31.968 Y45.812 E34.90376 ; brim
G1 X33.433 Y43.690 E34.99645 ; brim
G1 X34.106 Y42.869 E35.03460 ; brim
G1 X34.991 Y41.892 E35.08198 ; brim
G1 X36.805 Y40.200 E35.17116 ; brim
M204 S3000 ; adjust acceleration
G1 E34.07116 F1800.00000 ; retract
G92 E0 ; reset extrusion distance
G1 Z0.830 F7800.000 ; lift Z
G1 X66.677 Y85.267 F7800.000 ; move to first perimeter point
G1 Z0.630 F7800.000 ; restore layer Z
G1 E1.10000 F1800.00000 ; unretract
M204 S2000 ; adjust acceleration
G1 X61.698 Y85.308 E1.27899 F1200.000 ; perimeter
G1 X59.642 Y85.307 E1.35288 ; perimeter
G1 X57.140 Y85.232 E1.44285 ; perimeter
G1 X54.661 Y85.081 E1.53211 ; perimeter
G1 X52.230 Y84.858 E1.61986 ; perimeter
G1 X49.740 Y84.554 E1.71002 ; perimeter
G1 X47.521 Y84.221 E1.79068 ; perimeter
G1 X44.956 Y83.761 E1.88433 ; perimeter
G1 X42.595 Y83.096 E1.97247 ; perimeter
G1 X40.424 Y82.088 E2.05851 ; perimeter
G1 X38.465 Y80.691 E2.14500 ; perimeter
G1 X36.744 Y78.851 E2.23555 ; perimeter
G1 X35.490 Y76.881 E2.31949 ; perimeter
G1 X34.490 Y74.568 E2.41005 ; perimeter
G1 X33.749 Y72.267 E2.49696 ; perimeter
G1 X33.043 Y69.894 E2.58593 ; perimeter
G1 X32.395 Y67.524 E2.67426 ; perimeter
G1 X31.792 Y65.108 E2.76375 ; perimeter
G1 X31.238 Y62.645 E2.85446 ; perimeter
G1 X30.766 Y60.295 E2.94063 ; perimeter
G1 X30.340 Y57.882 E3.02870 ; perimeter
G1 X30.092 Y55.387 E3.11883 ; perimeter
G1 X30.178 Y53.043 E3.20312 ; perimeter
G1 X30.642 Y50.552 E3.29422 ; perimeter
G1 X31.445 Y48.256 E3.38161 ; perimeter
G1 X32.527 Y46.159 E3.46643 ; perimeter
G1 X33.962 Y44.081 E3.55721 ; perimeter
G1 X34.606 Y43.296 E3.59372 ; perimeter
G1 X35.455 Y42.358 E3.63915 ; perimeter
G1 X37.285 Y40.651 E3.72913 ; perimeter
G1 X39.314 Y39.184 E3.81910 ; perimeter
G1 X41.315 Y38.102 E3.90089 ; perimeter
G1 X43.574 Y37.246 E3.98770 ; perimeter
G1 X46.041 Y36.683 E4.07863 ; perimeter
G1 X48.420 Y36.454 E4.16454 ; perimeter
G1 X51.015 Y36.364 E4.25788 ; perimeter
G1 X55.838 Y36.245 E4.43129 ; perimeter
G1 X60.757 Y36.188 E4.60808 ; perimeter
G1 X75.794 Y36.236 E5.14858 ; perimeter
G1 X118.046 Y36.227 E6.66720 F1200.000 ; perimeter
G1 X130.361 Y36.249 E7.10984 ; perimeter
G1 X132.899 Y36.381 E7.20118 ; perimeter
G1 X135.288 Y36.746 E7.28805 ; perimeter
G1 X137.695 Y37.375 E7.37748 ; perimeter
G1 X139.987 Y38.240 E7.46553 ; perimeter
G1 X142.109 Y39.297 E7.55071 ; perimeter
G1 X144.219 Y40.618 E7.64019 ; perimeter
G1 X145.223 Y41.349 E7.68484 ; perimeter
G1 X146.187 Y42.120 E7.72920 ; perimeter
G1 X147.854 Y43.648 E7.81049 ; perimeter
G1 X149.507 Y45.484 E7.89926 ; perimeter
G1 X151.036 Y47.603 E7.99319 ; perimeter
G1 X152.246 Y49.735 E8.08130 ; perimeter
G1 X153.222 Y51.958 E8.16856 ; perimeter
G1 X154.037 Y54.482 E8.26391 ; perimeter
G1 X154.524 Y56.650 E8.34377 ; perimeter
G1 X154.835 Y59.023 E8.42978 ; perimeter
G1 X154.908 Y61.517 E8.51946 ; perimeter
G1 X154.722 Y63.958 E8.60744 ; perimeter
G1 X154.292 Y66.333 E8.69422 ; perimeter
G1 X153.589 Y68.775 E8.78554 ; perimeter
G1 X153.023 Y70.280 E8.84332 ; perimeter
G1 X152.709 Y71.012 E8.87195 ; perimeter
G1 X151.625 Y73.164 E8.95855 ; perimeter
G1 X150.328 Y75.207 E9.04554 ; perimeter
G1 X148.800 Y77.132 E9.13388 ; perimeter
G1 X147.037 Y78.913 E9.22394 ; perimeter
G1 X145.230 Y80.391 E9.30786 ; perimeter
G1 X143.082 Y81.809 E9.40037 ; perimeter
G1 X142.615 Y82.078 E9.41974 ; perimeter
G1 X141.037 Y82.908 E9.48382 ; perimeter
G1 X138.688 Y83.934 E9.57595 ; perimeter
G1 X136.496 Y84.680 E9.65916 ; perimeter
G1 X134.000 Y85.293 E9.75155 ; perimeter
G1 X131.536 Y85.664 E9.84113 ; perimeter
G1 X129.171 Y85.815 E9.92629 ; perimeter
G1 X127.158 Y85.793 E9.99866 ; perimeter
G1 X124.150 Y85.672 E10.10686 ; perimeter
G1 X119.289 Y85.536 E10.28162 ; perimeter
G1 X114.425 Y85.473 E10.45647 ; perimeter
G1 X104.415 Y85.501 E10.81627 ; perimeter
G1 X96.830 Y85.496 E11.08888 ; perimeter
G1 X87.053 Y85.433 E11.44030 ; perimeter
G1 X72.006 Y85.266 E11.98115 ; perimeter
G1 X66.752 Y85.267 E12.16998 ; perimeter
M204 S3000 ; adjust acceleration
G1 X66.425 Y84.836 F7800.000 ; move inwards before travel
G1 X66.672 Y84.653 F7800.000 ; move to first perimeter point
M204 S2000 ; adjust acceleration
G1 X61.695 Y84.694 E12.34887 F1200.000 ; perimeter
G1 X59.651 Y84.693 E12.42235 ; perimeter
G1 X57.168 Y84.619 E12.51164 ; perimeter
G1 X54.708 Y84.468 E12.60022 ; perimeter
G1 X52.295 Y84.247 E12.68732 ; perimeter
G1 X49.823 Y83.946 E12.77683 ; perimeter
G1 X47.620 Y83.615 E12.85690 ; perimeter
G1 X45.099 Y83.163 E12.94894 ; perimeter
G1 X42.809 Y82.519 E13.03444 ; perimeter
G1 X40.735 Y81.555 E13.11666 ; perimeter
G1 X38.871 Y80.227 E13.19890 ; perimeter
G1 X37.231 Y78.473 E13.28519 ; perimeter
G1 X36.035 Y76.593 E13.36532 ; perimeter
G1 X35.064 Y74.347 E13.45324 ; perimeter
G1 X34.963 Y74.050 E13.46454 ; perimeter
G1 X34.336 Y72.086 E13.53863 ; perimeter
G1 X33.634 Y69.726 E13.62714 ; perimeter
G1 X32.989 Y67.368 E13.71498 ; perimeter
G1 X32.390 Y64.966 E13.80396 ; perimeter
G1 X31.839 Y62.518 E13.89417 ; perimeter
G1 X31.370 Y60.181 E13.97982 ; perimeter
G1 X30.949 Y57.798 E14.06679 ; perimeter
G1 X30.708 Y55.368 E14.15458 ; perimeter
G1 X30.790 Y53.111 E14.23575 ; perimeter
G1 X31.237 Y50.710 E14.32353 ; perimeter
G1 X32.010 Y48.500 E14.40769 ; perimeter
G1 X33.055 Y46.476 E14.48955 ; perimeter
G1 X34.453 Y44.451 E14.57800 ; perimeter
G1 X35.072 Y43.697 E14.61306 ; perimeter
