; generated by Slic3r 1.2.9 on 2015-12-05 at 18:53:30

; external perimeters extrusion width = 0.55mm
; perimeters extrusion width = 0.61mm
; infill extrusion width = 0.60mm
; solid infill extrusion width = 0.60mm
; top infill extrusion width = 0.60mm
; support material extrusion width = 0.70mm

M107 ; disable fan
;start gcode
M80 ;ATX on
M190 S52 ; wait for start bed temperature to be reached PLA
;M190 S82 ; wait for start bed temperature to be reached
M140 S65 ; set  bed temp to be
M104 S215 ; set temperature
G28 ; home all axes
M190 S65 ; set and wait for bed temp to be reached
M109 S215; wait for extruder temp to be reached
G21 ; set units to millimeters
G90 ; use absolute coordinates
M82 ; use absolute distances for extrusion
G92 E0 ; reset extrusion distance
G1 E-1.10000 F1800.00000 ; retract
G92 E0 ; reset extrusion distance
G1 Z0.430 F7800.000 ; lift Z
G1 Z0.630 F7800.000 ; move to next layer (0)
G1 Z0.830 F7800.000 ; lift Z
G1 X33.957 Y41.255 F7800.000 ; move to first brim point
G1 Z0.630 F7800.000 ; restore layer Z
G1 E1.10000 F1800.00000 ; unretract
M204 S2000 ; adjust acceleration
G1 X38.634 Y37.416 E1.33652 F1200.000 ; brim
G1 X38.844 Y37.293 E1.34603 ; brim
G1 X44.610 Y35.049 E1.58787 ; brim
G1 X44.797 Y35.002 E1.59541 ; brim
G1 X48.354 Y34.575 E1.73544 ; brim
G1 X51.009 Y34.483 E1.83927 ; brim
G1 X57.592 Y34.335 E2.09664 ; brim
G1 X63.534 Y34.303 E2.32889 ; brim
G1 X75.519 Y34.353 E2.79736 F1200.000 ; brim
G1 X118.289 Y34.345 E4.46910 ; brim
G1 X130.465 Y34.366 E4.94501 ; brim
G1 X136.880 Y35.171 E5.19772 ; brim
G1 X137.072 Y35.221 E5.20547 ; brim
G1 X142.968 Y37.599 E5.45399 ; brim
G1 X143.104 Y37.671 E5.45997 ; brim
G1 X146.356 Y39.814 E5.61222 ; brim
G1 X147.901 Y41.071 E5.69007 ; brim
G1 X152.330 Y46.076 E5.95129 ; brim
G1 X152.440 Y46.239 E5.95897 ; brim
G1 X155.128 Y51.567 E6.19222 ; brim
G1 X155.917 Y54.057 E6.29435 ; brim
G1 X156.658 Y57.866 E6.44600 ; brim
G1 X156.672 Y58.002 E6.45134 ; brim
G1 X156.580 Y64.601 E6.70928 ; brim
G1 X156.552 Y64.797 E6.71704 ; brim
G1 X154.845 Y70.913 E6.96523 ; brim
G1 X154.777 Y71.080 E6.97229 ; brim
G1 X151.759 Y76.512 E7.21516 ; brim
G1 X151.642 Y76.670 E7.22284 ; brim
G1 X147.335 Y81.179 E7.46657 ; brim
G1 X147.209 Y81.285 E7.47302 ; brim
G1 X143.651 Y83.685 E7.64076 ; brim
G1 X141.810 Y84.650 E7.72198 ; brim
G1 X136.076 Y86.767 E7.96092 ; brim
G1 X135.916 Y86.808 E7.96737 ; brim
G1 X129.612 Y87.691 E8.21617 ; brim
G1 X127.144 Y87.680 E8.31263 ; brim
G1 X123.388 Y87.534 E8.45955 ; brim
G1 X117.344 Y87.390 E8.69586 ; brim
G1 X110.744 Y87.364 E8.95382 ; brim
G1 X105.385 Y87.388 E9.16330 ; brim
G1 X94.405 Y87.374 E9.59249 ; brim
G1 X87.077 Y87.321 E9.87891 ; brim
G1 X74.558 Y87.172 E10.36826 ; brim
G1 X68.452 Y87.149 E10.60692 ; brim
G1 X61.722 Y87.196 E10.87000 ; brim
G1 X56.309 Y87.079 E11.08163 ; brim
G1 X50.170 Y86.511 E11.32261 ; brim
G1 X44.937 Y85.674 E11.52973 ; brim
G1 X43.944 Y85.462 E11.56941 ; brim
G1 X43.781 Y85.407 E11.57614 ; brim
G1 X38.010 Y82.722 E11.82494 ; brim
G1 X37.734 Y82.507 E11.83862 ; brim
G1 X33.855 Y77.725 E12.07927 ; brim
G1 X33.741 Y77.534 E12.08799 ; brim
G1 X32.635 Y74.845 E12.20161 ; brim
G1 X31.606 Y71.559 E12.33622 ; brim
G1 X29.996 Y65.526 E12.58026 ; brim
G1 X28.803 Y59.814 E12.80837 ; brim
G1 X28.514 Y58.143 E12.87463 ; brim
G1 X28.326 Y53.016 E13.07516 ; brim
G1 X28.356 Y52.774 E13.08470 ; brim
G1 X30.085 Y46.800 E13.32777 ; brim
G1 X30.185 Y46.586 E13.33703 ; brim
G1 X33.137 Y42.172 E13.54457 ; brim
G1 X33.903 Y41.307 E13.58972 ; brim
M204 S3000 ; adjust acceleration
G1 X34.365 Y41.715 F7800.000 ; move to first brim point
M204 S2000 ; adjust acceleration
G1 X38.986 Y37.922 E13.82340 F1200.000 ; brim
G1 X39.112 Y37.848 E13.82910 ; brim
G1 X44.797 Y35.635 E14.06754 ; brim
G1 X44.909 Y35.607 E14.07207 ; brim
G1 X48.388 Y35.188 E14.20904 ; brim
G1 X51.024 Y35.097 E14.31214 ; brim
G1 X57.603 Y34.949 E14.56933 ; brim
G1 X63.372 Y34.917 E14.79482 ; brim
G1 X75.518 Y34.967 E15.26958 F1200.000 ; brim
G1 X118.288 Y34.959 E16.94131 ; brim
G1 X130.444 Y34.981 E17.41647 ; brim
G1 X136.764 Y35.775 E17.66542 ; brim
G1 X136.879 Y35.805 E17.67007 ; brim
G1 X142.792 Y38.200 E17.91941 ; brim
G1 X146.005 Y40.318 E18.06984 ; brim
G1 X147.493 Y41.531 E18.14487 ; brim
G1 X151.843 Y46.453 E18.40163 ; brim
G1 X151.909 Y46.551 E18.40624 ; brim
G1 X154.568 Y51.821 E18.63698 ; brim
G1 X155.318 Y54.192 E18.73416 ; brim
G1 X156.049 Y57.952 E18.88389 ; brim
G1 X155.967 Y64.552 E19.14189 ; brim
G1 X155.950 Y64.670 E19.14655 ; brim
G1 X154.263 Y70.713 E19.39177 ; brim
G1 X151.241 Y76.179 E19.63591 ; brim
G1 X151.171 Y76.274 E19.64051 ; brim
G1 X146.914 Y80.731 E19.88141 ; brim
G1 X143.321 Y83.166 E20.05106 ; brim
G1 X141.579 Y84.080 E20.12796 ; brim
G1 X135.894 Y86.180 E20.36484 ; brim
G1 X129.549 Y87.079 E20.61531 ; brim
G1 X127.163 Y87.066 E20.70857 ; brim
G1 X123.407 Y86.921 E20.85549 ; brim
G1 X117.353 Y86.776 E21.09221 ; brim
G1 X110.744 Y86.749 E21.35051 ; brim
G1 X105.384 Y86.774 E21.56002 ; brim
G1 X94.409 Y86.760 E21.98902 ; brim
G1 X87.083 Y86.707 E22.27535 ; brim
G1 X74.563 Y86.558 E22.76476 ; brim
G1 X68.452 Y86.535 E23.00364 ; brim
G1 X61.730 Y86.582 E23.26637 ; brim
G1 X56.333 Y86.466 E23.47737 ; brim
G1 X50.257 Y85.903 E23.71588 ; brim
G1 X45.042 Y85.068 E23.92229 ; brim
G1 X44.107 Y84.868 E23.95968 ; brim
G1 X38.332 Y82.195 E24.20841 ; brim
G1 X38.167 Y82.065 E24.21662 ; brim
G1 X34.360 Y77.373 E24.45279 ; brim
G1 X34.292 Y77.258 E24.45803 ; brim
G1 X33.217 Y74.649 E24.56831 ; brim
G1 X32.198 Y71.394 E24.70164 ; brim
G1 X30.596 Y65.392 E24.94442 ; brim
G1 X29.405 Y59.693 E25.17199 ; brim
G1 X29.123 Y58.059 E25.23681 ; brim
G1 X28.941 Y53.043 E25.43300 ; brim
G1 X28.959 Y52.898 E25.43872 ; brim
G1 X30.662 Y47.017 E25.67804 ; brim
G1 X30.722 Y46.888 E25.68359 ; brim
G1 X33.636 Y42.531 E25.88845 ; brim
G1 X34.311 Y41.767 E25.92831 ; brim
M204 S3000 ; adjust acceleration
G1 X34.773 Y42.174 F7800.000 ; move to first brim point
M204 S2000 ; adjust acceleration
G1 X39.380 Y38.403 E26.16104 F1200.000 ; brim
G1 X45.021 Y36.212 E26.39756 ; brim
G1 X48.423 Y35.801 E26.53149 ; brim
G1 X51.040 Y35.711 E26.63385 ; brim
G1 X57.614 Y35.563 E26.89087 ; brim
G1 X63.528 Y35.531 E27.12204 ; brim
G1 X75.516 Y35.582 E27.59061 F1200.000 ; brim
G1 X118.288 Y35.573 E29.26241 ; brim
G1 X130.424 Y35.595 E29.73677 ; brim
G1 X136.686 Y36.389 E29.98350 ; brim
G1 X142.479 Y38.730 E30.22771 ; brim
G1 X145.654 Y40.822 E30.37633 ; brim
G1 X147.085 Y41.990 E30.44854 ; brim
G1 X151.357 Y46.830 E30.70084 ; brim
G1 X154.009 Y52.076 E30.93059 ; brim
G1 X154.718 Y54.326 E31.02282 ; brim
G1 X155.440 Y58.038 E31.17064 ; brim
G1 X155.353 Y64.504 E31.42339 ; brim
G1 X153.682 Y70.513 E31.66719 ; brim
G1 X150.700 Y75.878 E31.90710 ; brim
G1 X146.493 Y80.282 E32.14517 ; brim
G1 X142.992 Y82.647 E32.31030 ; brim
G1 X141.347 Y83.511 E32.38290 ; brim
G1 X135.712 Y85.592 E32.61770 ; brim
G1 X129.486 Y86.468 E32.86344 ; brim
G1 X127.182 Y86.453 E32.95350 ; brim
G1 X123.427 Y86.307 E33.10041 ; brim
G1 X117.361 Y86.162 E33.33755 ; brim
G1 X110.744 Y86.135 E33.59619 ; brim
G1 X105.384 Y86.159 E33.80572 ; brim
G1 X94.411 Y86.146 E34.23460 ; brim
G1 X87.090 Y86.093 E34.52077 ; brim
G1 X74.568 Y85.944 E35.01025 ; brim
G1 X68.451 Y85.921 E35.24934 ; brim
G1 X61.738 Y85.968 E35.51172 ; brim
G1 X56.357 Y85.852 E35.72210 ; brim
G1 X50.344 Y85.295 E35.95814 ; brim
G1 X45.147 Y84.463 E36.16384 ; brim
G1 X44.269 Y84.275 E36.19893 ; brim
G1 X38.655 Y81.667 E36.44091 ; brim
G1 X38.600 Y81.624 E36.44364 ; brim
G1 X34.865 Y77.021 E36.67534 ; brim
G1 X33.799 Y74.453 E36.78402 ; brim
G1 X32.792 Y71.235 E36.91580 ; brim
G1 X31.195 Y65.259 E37.15760 ; brim
G1 X30.007 Y59.573 E37.38463 ; brim
G1 X29.732 Y57.975 E37.44800 ; brim
G1 X29.563 Y53.022 E37.64172 ; brim
G1 X31.259 Y47.190 E37.87911 ; brim
G1 X34.135 Y42.891 E38.08130 ; brim
G1 X34.722 Y42.229 E38.11587 ; brim
M204 S3000 ; adjust acceleration
G1 E37.01587 F1800.00000 ; retract
G92 E0 ; reset extrusion distance
G1 Z0.830 F7800.000 ; lift Z
G1 X64.689 Y85.290 F7800.000 ; move to first perimeter point
G1 Z0.630 F7800.000 ; restore layer Z
G1 E1.10000 F1800.00000 ; unretract
M204 S2000 ; adjust acceleration
G1 X61.745 Y85.311 E1.21508 F1200.000 ; perimeter
G1 X56.389 Y85.195 E1.42447 ; perimeter
G1 X50.431 Y84.644 E1.65834 ; perimeter
G1 X45.264 Y83.817 E1.86287 ; perimeter
G1 X44.463 Y83.645 E1.89491 ; perimeter
G1 X39.037 Y81.120 E2.12881 ; perimeter
G1 X35.422 Y76.664 E2.35311 ; perimeter
G1 X34.419 Y74.235 E2.45581 ; perimeter
G1 X33.422 Y71.049 E2.58630 ; perimeter
G1 X31.835 Y65.111 E2.82655 ; perimeter
G1 X30.652 Y59.447 E3.05269 ; perimeter
G1 X30.385 Y57.897 E3.11418 ; perimeter
G1 X30.216 Y53.127 E3.30073 ; perimeter
G1 X31.848 Y47.490 E3.53010 ; perimeter
G1 X34.662 Y43.285 E3.72788 ; perimeter
G1 X35.220 Y42.657 E3.76072 ; perimeter
G1 X39.693 Y38.986 E3.98690 ; perimeter
G1 X45.163 Y36.857 E4.21632 ; perimeter
G1 X48.467 Y36.457 E4.34641 ; perimeter
G1 X51.058 Y36.368 E4.44773 ; perimeter
G1 X57.625 Y36.220 E4.70447 ; perimeter
G1 X63.527 Y36.189 E4.93518 ; perimeter
G1 X75.515 Y36.239 E5.40377 ; perimeter
G1 X118.288 Y36.230 E7.07558 F1200.000 ; perimeter
G1 X130.391 Y36.252 E7.54868 ; perimeter
G1 X136.501 Y37.023 E7.78937 ; perimeter
G1 X142.160 Y39.306 E8.02788 ; perimeter
G1 X145.271 Y41.357 E8.17353 ; perimeter
G1 X146.638 Y42.473 E8.24251 ; perimeter
G1 X150.821 Y47.216 E8.48970 ; perimeter
G1 X153.404 Y52.335 E8.71381 ; perimeter
G1 X154.079 Y54.479 E8.80167 ; perimeter
G1 X154.785 Y58.113 E8.94634 ; perimeter
G1 X154.697 Y64.430 E9.19328 ; perimeter
G1 X153.065 Y70.280 E9.43067 ; perimeter
G1 X150.180 Y75.471 E9.66281 ; perimeter
G1 X146.055 Y79.789 E9.89623 ; perimeter
G1 X142.647 Y82.087 E10.05688 ; perimeter
G1 X141.089 Y82.906 E10.12568 ; perimeter
G1 X135.535 Y84.957 E10.35709 ; perimeter
G1 X129.432 Y85.812 E10.59798 ; perimeter
G1 X127.200 Y85.796 E10.68522 ; perimeter
G1 X123.449 Y85.650 E10.83192 ; perimeter
G1 X117.373 Y85.505 E11.06948 ; perimeter
G1 X110.743 Y85.478 E11.32866 ; perimeter
G1 X105.383 Y85.502 E11.53817 ; perimeter
G1 X94.414 Y85.489 E11.96690 ; perimeter
G1 X87.096 Y85.436 E12.25293 ; perimeter
G1 X74.574 Y85.287 E12.74241 ; perimeter
G1 X68.451 Y85.264 E12.98173 ; perimeter
G1 X64.764 Y85.290 E13.12586 ; perimeter
M204 S3000 ; adjust acceleration
G1 X64.436 Y84.859 F7800.000 ; move inwards before travel
G1 X64.685 Y84.676 F7800.000 ; move to first perimeter point
M204 S2000 ; adjust acceleration
G1 X61.749 Y84.697 E13.24060 F1200.000 ; perimeter
G1 X56.424 Y84.582 E13.44879 ; perimeter
G1 X50.508 Y84.034 E13.68102 ; perimeter
G1 X45.377 Y83.213 E13.88411 ; perimeter
G1 X44.659 Y83.059 E13.91282 ; perimeter
G1 X39.425 Y80.623 E14.13848 ; perimeter
G1 X35.955 Y76.347 E14.35373 ; perimeter
G1 X34.997 Y74.026 E14.45186 ; perimeter
G1 X34.012 Y70.878 E14.58079 ; perimeter
G1 X32.433 Y64.968 E14.81987 ; perimeter
G1 X31.256 Y59.332 E15.04493 ; perimeter
G1 X30.997 Y57.834 E15.10436 ; perimeter
G1 X30.834 Y53.204 E15.28544 ; perimeter
G1 X32.411 Y47.753 E15.50725 ; perimeter
G1 X35.149 Y43.662 E15.69965 ; perimeter
G1 X35.647 Y43.101 E15.72896 ; perimeter
G1 X40.007 Y39.523 E15.94944 ; perimeter
G1 X45.313 Y37.457 E16.17200 ; perimeter
G1 X48.515 Y37.070 E16.29803 ; perimeter
G1 X51.075 Y36.981 E16.39818 ; perimeter
G1 X57.633 Y36.835 E16.65457 ; perimeter
G1 X63.527 Y36.803 E16.88496 ; perimeter
G1 X75.514 Y36.853 E17.35349 ; perimeter
G1 X118.287 Y36.844 E19.02533 F1200.000 ; perimeter
G1 X130.352 Y36.866 E19.49692 ; perimeter
G1 X136.345 Y37.622 E19.73301 ; perimeter
G1 X141.873 Y39.853 E19.96601 ; perimeter
G1 X144.907 Y41.852 E20.10803 ; perimeter
G1 X146.210 Y42.917 E20.17382 ; perimeter
G1 X150.308 Y47.563 E20.41596 ; perimeter
G1 X152.833 Y52.567 E20.63503 ; perimeter
G1 X153.483 Y54.631 E20.71959 ; perimeter
G1 X154.170 Y58.167 E20.86042 ; perimeter
G1 X154.084 Y64.341 E21.10176 ; perimeter
G1 X152.493 Y70.045 E21.33320 ; perimeter
G1 X149.682 Y75.104 E21.55942 ; perimeter
G1 X145.657 Y79.317 E21.78718 ; perimeter
G1 X142.332 Y81.559 E21.94392 ; perimeter
G1 X140.839 Y82.344 E22.00984 ; perimeter
G1 X135.385 Y84.358 E22.23710 ; perimeter
G1 X129.391 Y85.198 E22.47365 ; perimeter
G1 X127.214 Y85.182 E22.55875 ; perimeter
G1 X123.469 Y85.036 E22.70525 ; perimeter
G1 X117.382 Y84.891 E22.94323 ; perimeter
G1 X110.743 Y84.864 E23.20274 ; perimeter
G1 X105.382 Y84.888 E23.41229 ; perimeter
G1 X94.416 Y84.874 E23.84088 ; perimeter
G1 X87.102 Y84.822 E24.12678 ; perimeter
G1 X74.579 Y84.672 E24.61630 ; perimeter
G1 X68.450 Y84.650 E24.85585 ; perimeter
G1 X64.760 Y84.676 E25.00011 ; perimeter
M204 S3000 ; adjust acceleration
G1 X64.680 Y84.062 F7800.000 ; move to first perimeter point
M204 S2000 ; adjust acceleration
G1 X61.754 Y84.083 E25.11450 F1200.000 ; perimeter
G1 X56.459 Y83.968 E25.32150 ; perimeter
G1 X50.585 Y83.424 E25.55208 ; perimeter
G1 X45.490 Y82.609 E25.75374 ; perimeter
G1 X44.855 Y82.473 E25.77912 ; perimeter
G1 X39.812 Y80.126 E25.99654 ; perimeter
G1 X36.489 Y76.029 E26.20274 ; perimeter
G1 X35.575 Y73.817 E26.29631 ; perimeter
G1 X34.602 Y70.707 E26.42367 ; perimeter
G1 X33.031 Y64.826 E26.66158 ; perimeter
G1 X31.859 Y59.217 E26.88556 ; perimeter
G1 X31.609 Y57.770 E26.94294 ; perimeter
G1 X31.451 Y53.280 E27.11855 ; perimeter
G1 X32.975 Y48.015 E27.33280 ; perimeter
G1 X35.635 Y44.038 E27.51982 ; perimeter
G1 X36.074 Y43.546 E27.54560 ; perimeter
G1 X40.321 Y40.060 E27.76037 ; perimeter
G1 X45.464 Y38.057 E27.97608 ; perimeter
G1 X48.562 Y37.683 E28.09805 ; perimeter
G1 X51.093 Y37.595 E28.19703 ; perimeter
G1 X57.642 Y37.449 E28.45306 ; perimeter
G1 X63.528 Y37.417 E28.68313 ; perimeter
G1 X75.513 Y37.467 E29.15160 ; perimeter
G1 X118.287 Y37.458 E30.82347 F1200.000 ; perimeter
G1 X130.313 Y37.480 E31.29355 ; perimeter
G1 X136.189 Y38.222 E31.52503 ; perimeter
G1 X141.586 Y40.399 E31.75252 ; perimeter
G1 X144.543 Y42.348 E31.89092 ; perimeter
G1 X145.783 Y43.361 E31.95352 ; perimeter
G1 X149.796 Y47.910 E32.19061 ; perimeter
G1 X152.262 Y52.799 E32.40465 ; perimeter
G1 X152.886 Y54.782 E32.48590 ; perimeter
G1 X153.555 Y58.222 E32.62289 ; perimeter
G1 X153.471 Y64.253 E32.85864 ; perimeter
G1 X151.920 Y69.810 E33.08412 ; perimeter
G1 X149.183 Y74.737 E33.30443 ; perimeter
G1 X145.258 Y78.845 E33.52651 ; perimeter
G1 X142.016 Y81.031 E33.67935 ; perimeter
G1 X140.588 Y81.782 E33.74239 ; perimeter
G1 X135.234 Y83.759 E33.96550 ; perimeter
G1 X129.351 Y84.583 E34.19770 ; perimeter
G1 X127.228 Y84.568 E34.28066 ; perimeter
G1 X123.488 Y84.422 E34.42697 ; perimeter
G1 X117.391 Y84.277 E34.66536 ; perimeter
G1 X110.742 Y84.250 E34.92521 ; perimeter
G1 X105.381 Y84.274 E35.13479 ; perimeter
G1 X94.419 Y84.260 E35.56325 ; perimeter
G1 X87.108 Y84.207 E35.84902 ; perimeter
G1 X74.584 Y84.058 E36.33858 ; perimeter
G1 X68.449 Y84.035 E36.57836 ; perimeter
G1 X64.755 Y84.062 E36.72274 ; perimeter
M204 S3000 ; adjust acceleration
G1 E35.62274 F1800.00000 ; retract
G92 E0 ; reset extrusion distance
G1 Z0.830 F7800.000 ; lift Z
G1 X114.576 Y72.208 F7800.000 ; move to first perimeter point
G1 Z0.630 F7800.000 ; restore layer Z
G1 E1.10000 F1800.00000 ; unretract
M204 S2000 ; adjust acceleration
G1 X114.461 Y71.460 E1.12958 F1200.000 ; perimeter
G1 X114.461 Y71.303 E1.13574 ; perimeter
G1 X114.609 Y70.460 E1.16919 ; perimeter
G1 X115.044 Y69.703 E1.20333 ; perimeter
G1 X115.619 Y69.192 E1.23338 ; perimeter
G1 X116.382 Y68.858 E1.26594 ; perimeter
G1 X116.989 Y68.783 E1.28984 ; perimeter
G1 X122.634 Y68.783 E1.51049 F1200.000 ; perimeter
G1 X123.295 Y68.873 E1.53656 ; perimeter
G1 X124.060 Y69.230 E1.56955 ; perimeter
G1 X124.653 Y69.799 E1.60167 ; perimeter
G1 X125.045 Y70.559 E1.63509 ; perimeter
G1 X125.161 Y71.306 E1.66467 ; perimeter
G1 X125.161 Y71.465 E1.67086 ; perimeter
G1 X125.005 Y72.327 E1.70510 ; perimeter
G1 X124.576 Y73.065 E1.73845 ; perimeter
G1 X124.003 Y73.575 E1.76847 ; perimeter
G1 X123.239 Y73.908 E1.80103 ; perimeter
G1 X122.632 Y73.983 E1.82493 ; perimeter
G1 X116.987 Y73.983 E2.04558 ; perimeter
G1 X116.329 Y73.895 E2.07153 ; perimeter
