; generated by Slic3r 1.2.9 on 2015-10-04 at 17:00:53

; external perimeters extrusion width = 0.55mm
; perimeters extrusion width = 0.61mm
; infill extrusion width = 0.60mm
; solid infill extrusion width = 0.60mm
; top infill extrusion width = 0.60mm
; support material extrusion width = 0.70mm

M107 ; disable fan
;start gcode
M80 ;ATX on
M190 S52 ; wait for start bed temperature to be reached
M140 S90 ; set  bed temp to be
M104 S225 ; set temperature
G28 ; home all axes
M190 S90 ; set and wait for bed temp to be reached
M109 S225; wait for extruder temp to be reached
G21 ; set units to millimeters
G90 ; use absolute coordinates
M82 ; use absolute distances for extrusion
G92 E0 ; reset extrusion distance
G1 E-1.10000 F1800.00000 ; retract
G92 E0 ; reset extrusion distance
G1 Z0.500 F7800.000 ; lift Z
G1 Z0.700 F7800.000 ; move to next layer (0)
G1 Z0.900 F7800.000 ; lift Z
G1 X64.152 Y42.551 F7800.000 ; move to first skirt point
G1 Z0.700 F7800.000 ; restore layer Z
G1 E1.10000 F1800.00000 ; unretract
M204 S2000 ; adjust acceleration
G1 X64.630 Y41.834 E1.14359 F1200.000 ; skirt
G1 X65.281 Y40.922 E1.20026 ; skirt
G1 X65.960 Y40.031 E1.25690 ; skirt
G1 X66.669 Y39.164 E1.31356 ; skirt
G1 X67.382 Y38.348 E1.36836 ; skirt
G1 X68.093 Y37.583 E1.42117 ; skirt
G1 X68.782 Y36.887 E1.47070 ; skirt
G1 X69.579 Y36.128 E1.52637 ; skirt
G1 X70.413 Y35.385 E1.58287 ; skirt
G1 X71.261 Y34.677 E1.63869 ; skirt
G1 X71.872 Y34.195 E1.67806 ; skirt
G1 X72.771 Y33.527 E1.73473 ; skirt
G1 X73.692 Y32.888 E1.79139 ; skirt
G1 X74.633 Y32.281 E1.84805 ; skirt
G1 X75.594 Y31.705 E1.90470 ; skirt
G1 X76.573 Y31.161 E1.96136 ; skirt
G1 X77.571 Y30.650 E2.01804 ; skirt
G1 X78.584 Y30.172 E2.07469 ; skirt
G1 X79.578 Y29.742 E2.12947 ; skirt
G1 X80.478 Y29.385 E2.17841 ; skirt
G1 X81.413 Y29.045 E2.22877 ; skirt
G1 X82.506 Y28.687 E2.28692 ; skirt
G1 X83.478 Y28.402 E2.33813 ; skirt
G1 X84.532 Y28.128 E2.39320 ; skirt
G1 X85.555 Y27.897 E2.44626 ; skirt
G1 X86.546 Y27.705 E2.49732 ; skirt
G1 X87.474 Y27.552 E2.54488 ; skirt
G1 X88.585 Y27.404 E2.60156 ; skirt
G1 X89.700 Y27.292 E2.65821 ; skirt
G1 X90.819 Y27.218 E2.71492 ; skirt
G1 X91.900 Y27.182 E2.76966 ; skirt
G1 X93.021 Y27.180 E2.82633 ; skirt
G1 X94.315 Y27.226 E2.89184 F1200.000 ; skirt
G1 X95.259 Y27.289 E2.93964 ; skirt
G1 X96.135 Y27.373 E2.98416 ; skirt
G1 X97.484 Y27.546 E3.05296 ; skirt
G1 X98.589 Y27.729 E3.10961 ; skirt
G1 X99.724 Y27.957 E3.16816 ; skirt
G1 X101.415 Y28.372 E3.25618 ; skirt
G1 X102.604 Y28.722 E3.31888 ; skirt
G1 X103.427 Y28.990 E3.36267 ; skirt
G1 X104.330 Y29.314 E3.41119 ; skirt
G1 X105.522 Y29.784 E3.47599 ; skirt
G1 X106.720 Y30.311 E3.54216 ; skirt
G1 X107.527 Y30.698 E3.58743 ; skirt
G1 X108.355 Y31.123 E3.63448 ; skirt
G1 X109.500 Y31.759 E3.70076 ; skirt
G1 X110.460 Y32.338 E3.75743 ; skirt
G1 X111.516 Y33.029 E3.82127 ; skirt
G1 X112.419 Y33.665 E3.87709 ; skirt
G1 X113.827 Y34.747 E3.96690 ; skirt
G1 X114.740 Y35.516 E4.02729 ; skirt
G1 X115.832 Y36.513 E4.10207 ; skirt
G1 X116.888 Y37.565 E4.17745 ; skirt
G1 X117.799 Y38.550 E4.24529 ; skirt
G1 X118.734 Y39.650 E4.31834 ; skirt
G1 X119.548 Y40.693 E4.38520 ; skirt
G1 X120.346 Y41.801 E4.45427 ; skirt
G1 X121.022 Y42.821 E4.51618 ; skirt
G1 X121.556 Y43.686 E4.56758 ; skirt
G1 X121.961 Y44.386 E4.60849 ; skirt
G1 X122.488 Y45.356 E4.66431 ; skirt
G1 X123.130 Y46.654 E4.73754 ; skirt
G1 X123.582 Y47.662 E4.79341 ; skirt
G1 X124.256 Y49.358 E4.88571 ; skirt
G1 X124.647 Y50.483 E4.94590 ; skirt
G1 X125.037 Y51.760 E5.01347 ; skirt
G1 X125.423 Y53.251 E5.09133 ; skirt
G1 X125.704 Y54.553 E5.15872 ; skirt
G1 X125.904 Y55.692 E5.21718 ; skirt
G1 X126.071 Y56.885 E5.27813 ; skirt
G1 X126.179 Y57.878 E5.32864 ; skirt
G1 X126.245 Y58.702 E5.37044 ; skirt
G1 X126.312 Y60.116 E5.44201 ; skirt
G1 X126.322 Y61.235 E5.49862 ; skirt
G1 X126.294 Y62.392 E5.55717 ; skirt
G1 X126.168 Y64.230 E5.65035 ; skirt
G1 X126.016 Y65.552 E5.71760 ; skirt
G1 X125.830 Y66.760 E5.77944 ; skirt
G1 X125.590 Y68.009 E5.84376 ; skirt
G1 X125.270 Y69.376 E5.91475 ; skirt
G1 X124.868 Y70.815 E5.99035 ; skirt
G1 X124.488 Y71.990 E6.05277 ; skirt
G1 X123.988 Y73.351 E6.12611 ; skirt
G1 X123.469 Y74.599 E6.19444 ; skirt
G1 X122.690 Y76.249 E6.28675 ; skirt
G1 X122.133 Y77.306 E6.34716 ; skirt
G1 X121.577 Y78.279 E6.40382 ; skirt
G1 X120.848 Y79.449 E6.47354 ; skirt
G1 X120.231 Y80.364 E6.52936 ; skirt
G1 X119.719 Y81.078 E6.57380 ; skirt
G1 X119.146 Y81.832 E6.62168 ; skirt
G1 X118.331 Y82.836 E6.68711 ; skirt
G1 X117.475 Y83.809 E6.75265 ; skirt
G1 X116.414 Y84.920 E6.83032 ; skirt
G1 X115.421 Y85.872 E6.89989 ; skirt
G1 X114.035 Y87.081 E6.99288 ; skirt
G1 X113.128 Y87.805 E7.05161 ; skirt
G1 X112.228 Y88.474 E7.10832 ; skirt
G1 X111.065 Y89.273 E7.17967 ; skirt
G1 X110.367 Y89.719 E7.22157 ; skirt
G1 X109.512 Y90.233 E7.27199 ; skirt
G1 X108.426 Y90.840 E7.33493 ; skirt
G1 X107.430 Y91.350 E7.39152 ; skirt
G1 X106.225 Y91.913 E7.45878 ; skirt
G1 X104.895 Y92.471 E7.53169 ; skirt
G1 X103.307 Y93.050 E7.61718 ; skirt
G1 X101.843 Y93.508 E7.69477 ; skirt
G1 X100.607 Y93.838 E7.75948 ; skirt
G1 X99.288 Y94.136 E7.82787 ; skirt
G1 X97.884 Y94.392 E7.90002 ; skirt
G1 X96.415 Y94.596 E7.97503 ; skirt
G1 X95.096 Y94.723 E8.04204 ; skirt
G1 X93.995 Y94.790 E8.09786 ; skirt
G1 X93.099 Y94.818 E8.14318 ; skirt
G1 X92.170 Y94.821 E8.19018 ; skirt
G1 X90.860 Y94.784 E8.25644 ; skirt
G1 X89.583 Y94.697 E8.32115 ; skirt
G1 X88.626 Y94.601 E8.36983 ; skirt
G1 X87.770 Y94.490 E8.41346 ; skirt
G1 X86.680 Y94.318 E8.46928 ; skirt
G1 X85.312 Y94.051 E8.53976 ; skirt
G1 X84.233 Y93.798 E8.59580 ; skirt
G1 X82.675 Y93.365 E8.67760 ; skirt
G1 X81.573 Y93.010 E8.73614 ; skirt
G1 X80.518 Y92.630 E8.79284 ; skirt
G1 X79.289 Y92.136 E8.85983 ; skirt
G1 X78.451 Y91.768 E8.90615 ; skirt
G1 X77.629 Y91.378 E8.95214 ; skirt
G1 X76.445 Y90.770 E9.01946 ; skirt
G1 X75.349 Y90.151 E9.08312 ; skirt
G1 X74.541 Y89.662 E9.13087 ; skirt
G1 X73.801 Y89.184 E9.17543 ; skirt
G1 X72.683 Y88.410 E9.24418 ; skirt
G1 X71.803 Y87.752 E9.29976 ; skirt
G1 X70.660 Y86.827 E9.37415 ; skirt
G1 X69.547 Y85.843 E9.44928 ; skirt
G1 X68.543 Y84.877 E9.51970 ; skirt
G1 X67.619 Y83.912 E9.58727 ; skirt
G1 X66.726 Y82.902 E9.65548 ; skirt
G1 X65.963 Y81.972 E9.71632 ; skirt
G1 X65.224 Y81.000 E9.77803 ; skirt
G1 X64.654 Y80.200 E9.82773 ; skirt
G1 X64.185 Y79.500 E9.87034 ; skirt
G1 X63.444 Y78.314 E9.94108 ; skirt
G1 X62.887 Y77.342 E9.99773 ; skirt
G1 X62.338 Y76.304 E10.05714 ; skirt
G1 X61.556 Y74.654 E10.14944 ; skirt
G1 X61.121 Y73.623 E10.20607 ; skirt
G1 X60.614 Y72.282 E10.27854 ; skirt
G1 X60.263 Y71.236 E10.33436 ; skirt
G1 X59.773 Y69.543 E10.42351 ; skirt
G1 X59.491 Y68.377 E10.48416 ; skirt
G1 X59.296 Y67.447 E10.53220 ; skirt
G1 X59.142 Y66.585 E10.57647 ; skirt
G1 X58.943 Y65.235 E10.64550 ; skirt
G1 X58.818 Y64.085 E10.70402 ; skirt
G1 X58.732 Y62.916 E10.76327 ; skirt
G1 X58.688 Y61.885 E10.81547 ; skirt
G1 X58.677 Y61.092 E10.85558 ; skirt
G1 X58.704 Y59.645 E10.92878 ; skirt
G1 X58.767 Y58.541 E10.98467 ; skirt
G1 X58.865 Y57.442 E11.04050 ; skirt
G1 X59.103 Y55.649 E11.13199 ; skirt
G1 X59.359 Y54.241 E11.20436 ; skirt
G1 X59.654 Y52.925 E11.27254 ; skirt
G1 X59.964 Y51.757 E11.33368 ; skirt
G1 X60.366 Y50.444 E11.40309 ; skirt
G1 X60.867 Y49.026 E11.47915 ; skirt
G1 X61.396 Y47.714 E11.55069 ; skirt
G1 X61.853 Y46.691 E11.60736 ; skirt
G1 X62.484 Y45.410 E11.67958 ; skirt
G1 X62.867 Y44.694 E11.72066 ; skirt
G1 X63.404 Y43.754 E11.77543 ; skirt
G1 X64.111 Y42.614 E11.84325 ; skirt
M204 S3000 ; adjust acceleration
G1 X64.871 Y43.030 F7800.000 ; move to first skirt point
M204 S2000 ; adjust acceleration
G1 X65.345 Y42.320 E11.88642 F1200.000 ; skirt
G1 X65.978 Y41.432 E11.94159 ; skirt
G1 X66.640 Y40.565 E11.99674 ; skirt
G1 X67.330 Y39.721 E12.05191 ; skirt
G1 X68.023 Y38.927 E12.10521 ; skirt
G1 X68.720 Y38.178 E12.15692 ; skirt
G1 X69.381 Y37.509 E12.20451 ; skirt
G1 X70.158 Y36.769 E12.25875 ; skirt
G1 X70.970 Y36.045 E12.31377 ; skirt
G1 X71.796 Y35.356 E12.36817 ; skirt
G1 X72.406 Y34.875 E12.40746 ; skirt
G1 X73.281 Y34.224 E12.46263 ; skirt
G1 X74.178 Y33.603 E12.51780 ; skirt
G1 X75.095 Y33.011 E12.57296 ; skirt
G1 X76.030 Y32.451 E12.62813 ; skirt
G1 X76.984 Y31.921 E12.68329 ; skirt
G1 X77.955 Y31.424 E12.73848 ; skirt
G1 X78.941 Y30.958 E12.79364 ; skirt
G1 X79.909 Y30.540 E12.84693 ; skirt
G1 X80.781 Y30.195 E12.89437 ; skirt
G1 X81.692 Y29.863 E12.94339 ; skirt
G1 X82.762 Y29.512 E13.00036 ; skirt
G1 X83.705 Y29.235 E13.05007 ; skirt
G1 X84.737 Y28.968 E13.10399 ; skirt
G1 X85.737 Y28.742 E13.15583 ; skirt
G1 X86.703 Y28.554 E13.20559 ; skirt
G1 X87.607 Y28.406 E13.25190 ; skirt
G1 X88.688 Y28.262 E13.30708 ; skirt
G1 X89.773 Y28.153 E13.36224 ; skirt
G1 X90.863 Y28.081 E13.41745 ; skirt
G1 X91.915 Y28.046 E13.47071 ; skirt
G1 X93.006 Y28.044 E13.52588 ; skirt
G1 X94.260 Y28.088 E13.58933 F1200.000 ; skirt
G1 X95.185 Y28.150 E13.63621 ; skirt
G1 X96.051 Y28.233 E13.68022 ; skirt
G1 X97.352 Y28.400 E13.74655 ; skirt
G1 X98.428 Y28.578 E13.80170 ; skirt
G1 X99.534 Y28.800 E13.85876 ; skirt
G1 X101.185 Y29.205 E13.94473 ; skirt
G1 X102.337 Y29.543 E14.00544 ; skirt
G1 X103.152 Y29.809 E14.04879 ; skirt
G1 X104.037 Y30.126 E14.09633 ; skirt
G1 X105.192 Y30.582 E14.15912 ; skirt
G1 X106.348 Y31.092 E14.22303 ; skirt
G1 X107.143 Y31.472 E14.26758 ; skirt
G1 X107.958 Y31.891 E14.31393 ; skirt
G1 X109.064 Y32.505 E14.37793 ; skirt
G1 X109.998 Y33.069 E14.43310 ; skirt
G1 X111.023 Y33.739 E14.49502 ; skirt
G1 X111.903 Y34.358 E14.54942 ; skirt
G1 X113.285 Y35.420 E14.63760 ; skirt
G1 X114.169 Y36.164 E14.69601 ; skirt
G1 X115.233 Y37.136 E14.76889 ; skirt
G1 X116.267 Y38.165 E14.84268 ; skirt
G1 X117.150 Y39.122 E14.90852 ; skirt
G1 X118.061 Y40.193 E14.97963 ; skirt
G1 X118.863 Y41.219 E15.04548 ; skirt
G1 X119.632 Y42.287 E15.11204 ; skirt
G1 X120.288 Y43.278 E15.17218 ; skirt
G1 X120.810 Y44.122 E15.22236 ; skirt
G1 X121.213 Y44.819 E15.26307 ; skirt
G1 X121.726 Y45.764 E15.31746 ; skirt
G1 X122.343 Y47.012 E15.38785 ; skirt
G1 X122.784 Y47.994 E15.44229 ; skirt
G1 X123.448 Y49.664 E15.53316 ; skirt
G1 X123.827 Y50.758 E15.59173 ; skirt
G1 X124.204 Y51.990 E15.65689 ; skirt
G1 X124.584 Y53.458 E15.73356 ; skirt
G1 X124.855 Y54.714 E15.79857 ; skirt
G1 X125.050 Y55.824 E15.85556 ; skirt
G1 X125.213 Y56.981 E15.91466 ; skirt
G1 X125.318 Y57.952 E15.96403 ; skirt
G1 X125.383 Y58.770 E16.00555 ; skirt
G1 X125.448 Y60.130 E16.07441 ; skirt
G1 X125.458 Y61.220 E16.12953 ; skirt
G1 X125.431 Y62.349 E16.18665 ; skirt
G1 X125.307 Y64.157 E16.27827 ; skirt
G1 X125.160 Y65.431 E16.34316 ; skirt
G1 X124.977 Y66.617 E16.40382 ; skirt
G1 X124.744 Y67.831 E16.46636 ; skirt
G1 X124.434 Y69.157 E16.53525 ; skirt
G1 X124.040 Y70.568 E16.60932 ; skirt
G1 X123.669 Y71.714 E16.67024 ; skirt
G1 X123.182 Y73.039 E16.74164 ; skirt
G1 X122.681 Y74.242 E16.80752 ; skirt
G1 X121.915 Y75.867 E16.89841 ; skirt
G1 X121.390 Y76.863 E16.95530 ; skirt
G1 X120.831 Y77.842 E17.01234 ; skirt
G1 X120.129 Y78.970 E17.07950 ; skirt
G1 X119.528 Y79.862 E17.13390 ; skirt
G1 X119.022 Y80.568 E17.17784 ; skirt
G1 X118.460 Y81.307 E17.22480 ; skirt
G1 X117.670 Y82.280 E17.28818 ; skirt
G1 X116.843 Y83.220 E17.35149 ; skirt
G1 X115.798 Y84.313 E17.42798 ; skirt
G1 X114.842 Y85.231 E17.49499 ; skirt
G1 X113.478 Y86.420 E17.58650 ; skirt
G1 X112.594 Y87.125 E17.64371 ; skirt
G1 X111.718 Y87.777 E17.69893 ; skirt
G1 X110.598 Y88.545 E17.76759 ; skirt
G1 X109.905 Y88.989 E17.80920 ; skirt
G1 X109.070 Y89.490 E17.85848 ; skirt
G1 X108.015 Y90.079 E17.91958 ; skirt
G1 X107.046 Y90.576 E17.97468 ; skirt
G1 X105.883 Y91.119 E18.03958 ; skirt
G1 X104.582 Y91.665 E18.11090 ; skirt
G1 X103.032 Y92.231 E18.19437 ; skirt
G1 X101.601 Y92.678 E18.27020 ; skirt
G1 X100.401 Y92.998 E18.33299 ; skirt
G1 X99.119 Y93.288 E18.39949 ; skirt
G1 X97.751 Y93.538 E18.46980 ; skirt
G1 X96.312 Y93.738 E18.54327 ; skirt
G1 X95.039 Y93.861 E18.60794 ; skirt
G1 X93.966 Y93.926 E18.66234 ; skirt
G1 X93.084 Y93.954 E18.70694 ; skirt
G1 X92.169 Y93.957 E18.75323 ; skirt
G1 X90.904 Y93.921 E18.81721 ; skirt
G1 X89.667 Y93.837 E18.87993 ; skirt
G1 X88.729 Y93.743 E18.92762 ; skirt
G1 X87.882 Y93.634 E18.97082 ; skirt
G1 X86.819 Y93.465 E19.02522 ; skirt
G1 X85.502 Y93.208 E19.09308 ; skirt
G1 X84.451 Y92.961 E19.14769 ; skirt
G1 X82.922 Y92.537 E19.22793 ; skirt
G1 X81.849 Y92.191 E19.28497 ; skirt
G1 X80.821 Y91.821 E19.34018 ; skirt
G1 X79.635 Y91.344 E19.40484 ; skirt
G1 X78.808 Y90.981 E19.45051 ; skirt
G1 X78.001 Y90.598 E19.49573 ; skirt
G1 X76.855 Y90.010 E19.56083 ; skirt
G1 X75.795 Y89.411 E19.62243 ; skirt
G1 X75.003 Y88.931 E19.66926 ; skirt
G1 X74.271 Y88.459 E19.71332 ; skirt
G1 X73.193 Y87.713 E19.77959 ; skirt
G1 X72.336 Y87.071 E19.83376 ; skirt
G1 X71.216 Y86.166 E19.90658 ; skirt
G1 X70.131 Y85.206 E19.97985 ; skirt
G1 X69.157 Y84.269 E20.04819 ; skirt
G1 X68.259 Y83.331 E20.11389 ; skirt
G1 X67.382 Y82.340 E20.18078 ; skirt
G1 X66.643 Y81.438 E20.23979 ; skirt
G1 X65.927 Y80.497 E20.29959 ; skirt
G1 X65.369 Y79.714 E20.34821 ; skirt
G1 X64.903 Y79.019 E20.39048 ; skirt
G1 X64.190 Y77.878 E20.45858 ; skirt
G1 X63.647 Y76.931 E20.51374 ; skirt
G1 X63.112 Y75.920 E20.57158 ; skirt
G1 X62.342 Y74.297 E20.66246 ; skirt
G1 X61.919 Y73.292 E20.71760 ; skirt
G1 X61.432 Y72.003 E20.78729 ; skirt
G1 X61.090 Y70.983 E20.84168 ; skirt
G1 X60.611 Y69.330 E20.92875 ; skirt
G1 X60.337 Y68.197 E20.98768 ; skirt
G1 X60.145 Y67.286 E21.03477 ; skirt
G1 X59.992 Y66.434 E21.07857 ; skirt
G1 X59.801 Y65.132 E21.14509 ; skirt
G1 X59.679 Y64.011 E21.20212 ; skirt
G1 X59.595 Y62.876 E21.25966 ; skirt
G1 X59.541 Y61.080 E21.35055 ; skirt
G1 X59.567 Y59.689 E21.42090 ; skirt
G1 X59.628 Y58.614 E21.47537 ; skirt
G1 X59.723 Y57.542 E21.52977 ; skirt
G1 X59.957 Y55.781 E21.61964 ; skirt
G1 X60.206 Y54.409 E21.69017 ; skirt
G1 X60.494 Y53.130 E21.75646 ; skirt
G1 X60.794 Y51.996 E21.81580 ; skirt
G1 X61.185 Y50.720 E21.88330 ; skirt
G1 X61.676 Y49.330 E21.95784 ; skirt
G1 X62.194 Y48.045 E22.02789 ; skirt
G1 X62.639 Y47.049 E22.08307 ; skirt
G1 X63.247 Y45.817 E22.15252 ; skirt
G1 X63.627 Y45.105 E22.19338 ; skirt
G1 X64.150 Y44.190 E22.24667 ; skirt
G1 X64.830 Y43.093 E22.31193 ; skirt
M204 S3000 ; adjust acceleration
G1 X65.590 Y43.510 F7800.000 ; move to first skirt point
M204 S2000 ; adjust acceleration
G1 X66.059 Y42.807 E22.35466 F1200.000 ; skirt
G1 X66.675 Y41.942 E22.40835 ; skirt
G1 X67.319 Y41.099 E22.46201 ; skirt
G1 X67.991 Y40.277 E22.51568 ; skirt
G1 X68.665 Y39.506 E22.56749 ; skirt
G1 X69.347 Y38.773 E22.61809 ; skirt
G1 X69.981 Y38.131 E22.66373 ; skirt
G1 X70.737 Y37.411 E22.71655 ; skirt
G1 X71.527 Y36.706 E22.77009 ; skirt
G1 X72.331 Y36.035 E22.82307 ; skirt
G1 X72.940 Y35.554 E22.86228 ; skirt
G1 X73.792 Y34.922 E22.91596 ; skirt
G1 X74.664 Y34.317 E22.96963 ; skirt
G1 X75.556 Y33.742 E23.02330 ; skirt
G1 X76.466 Y33.197 E23.07697 ; skirt
G1 X77.394 Y32.682 E23.13065 ; skirt
G1 X78.339 Y32.197 E23.18434 ; skirt
G1 X79.299 Y31.745 E23.23801 ; skirt
G1 X80.239 Y31.339 E23.28981 ; skirt
G1 X81.084 Y31.004 E23.33576 ; skirt
G1 X81.970 Y30.681 E23.38343 ; skirt
G1 X82.887 Y30.378 E23.43231 ; skirt
G1 X83.857 Y30.090 E23.48344 ; skirt
G1 X84.943 Y29.807 E23.54020 ; skirt
G1 X85.919 Y29.587 E23.59081 ; skirt
G1 X86.860 Y29.404 E23.63928 ; skirt
G1 X87.739 Y29.260 E23.68433 ; skirt
G1 X88.791 Y29.120 E23.73803 ; skirt
G1 X89.847 Y29.014 E23.79169 ; skirt
G1 X90.907 Y28.944 E23.84541 ; skirt
G1 X91.930 Y28.910 E23.89717 ; skirt
G1 X92.991 Y28.908 E23.95085 ; skirt
G1 X94.205 Y28.951 E24.01224 F1200.000 ; skirt
G1 X95.111 Y29.011 E24.05820 ; skirt
G1 X95.968 Y29.093 E24.10171 ; skirt
G1 X97.220 Y29.254 E24.16555 ; skirt
G1 X98.267 Y29.427 E24.21921 ; skirt
G1 X99.344 Y29.643 E24.27477 ; skirt
G1 X100.955 Y30.038 E24.35870 ; skirt
G1 X102.070 Y30.365 E24.41743 ; skirt
G1 X102.876 Y30.628 E24.46033 ; skirt
G1 X103.743 Y30.939 E24.50689 ; skirt
G1 X104.861 Y31.380 E24.56768 ; skirt
G1 X105.976 Y31.872 E24.62932 ; skirt
G1 X106.758 Y32.246 E24.67315 ; skirt
G1 X107.561 Y32.659 E24.71879 ; skirt
