; generated by Slic3r 1.2.9 on 2015-09-11 at 21:17:48

; external perimeters extrusion width = 0.55mm
; perimeters extrusion width = 0.61mm
; infill extrusion width = 0.60mm
; solid infill extrusion width = 0.60mm
; top infill extrusion width = 0.60mm
; support material extrusion width = 0.70mm

M107 ; disable fan
;start gcode
M80 ;ATX on
M190 S52 ; wait for start bed temperature to be reached
M140 S65 ; set  bed temp to be
M104 S215 ; set temperature
G28 ; home all axes
M190 S65 ; set and wait for bed temp to be reached
M109 S215; wait for extruder temp to be reached
G21 ; set units to millimeters
G90 ; use absolute coordinates
M82 ; use absolute distances for extrusion
G92 E0 ; reset extrusion distance
G1 E-1.10000 F1800.00000 ; retract
G92 E0 ; reset extrusion distance
G1 Z0.510 F7800.000 ; lift Z
G1 Z0.710 F7800.000 ; move to next layer (0)
G1 Z0.910 F7800.000 ; lift Z
G1 X68.094 Y44.712 F7800.000 ; move to first skirt point
G1 Z0.710 F7800.000 ; restore layer Z
G1 E1.10000 F1800.00000 ; unretract
M204 S2000 ; adjust acceleration
G1 X69.042 Y43.374 E1.19018 F1200.000 ; skirt
G1 X69.673 Y42.564 E1.24666 ; skirt
G1 X70.189 Y41.943 E1.29105 ; skirt
G1 X71.099 Y40.927 E1.36608 ; skirt
G1 X71.650 Y40.355 E1.40976 ; skirt
G1 X72.869 Y39.192 E1.50239 ; skirt
G1 X74.080 Y38.160 E1.58990 ; skirt
G1 X74.714 Y37.663 E1.63421 ; skirt
G1 X75.537 Y37.059 E1.69035 ; skirt
G1 X76.945 Y36.121 E1.78340 ; skirt
G1 X77.650 Y35.693 E1.82876 ; skirt
G1 X78.840 Y35.032 E1.90365 ; skirt
G1 X80.370 Y34.283 E1.99731 ; skirt
G1 X81.151 Y33.942 E2.04417 ; skirt
G1 X82.128 Y33.552 E2.10205 ; skirt
G1 X82.955 Y33.254 E2.15040 ; skirt
G1 X83.780 Y32.984 E2.19813 ; skirt
G1 X84.580 Y32.747 E2.24399 ; skirt
G1 X85.435 Y32.522 E2.29263 ; skirt
G1 X86.313 Y32.318 E2.34223 ; skirt
G1 X87.190 Y32.143 E2.39142 ; skirt
G1 X88.034 Y32.000 E2.43845 ; skirt
G1 X88.969 Y31.872 E2.49037 ; skirt
G1 X89.875 Y31.776 E2.54049 ; skirt
G1 X90.807 Y31.707 E2.59186 ; skirt
G1 X91.731 Y31.668 E2.64275 ; skirt
G1 X92.642 Y31.659 E2.69286 ; skirt
G1 X93.610 Y31.679 E2.74611 F1200.000 ; skirt
G1 X95.147 Y31.778 E2.83080 ; skirt
G1 X96.068 Y31.876 E2.88173 ; skirt
G1 X97.216 Y32.040 E2.94554 ; skirt
G1 X98.741 Y32.330 E3.03089 ; skirt
G1 X99.849 Y32.593 E3.09354 ; skirt
G1 X101.252 Y32.994 E3.17379 ; skirt
G1 X102.264 Y33.330 E3.23241 ; skirt
G1 X103.110 Y33.644 E3.28205 ; skirt
G1 X104.425 Y34.191 E3.36037 ; skirt
G1 X105.432 Y34.661 E3.42149 ; skirt
G1 X106.632 Y35.286 E3.49593 ; skirt
G1 X107.590 Y35.836 E3.55668 ; skirt
G1 X108.788 Y36.594 E3.63464 ; skirt
G1 X109.656 Y37.196 E3.69274 ; skirt
G1 X110.753 Y38.027 E3.76843 ; skirt
G1 X111.557 Y38.689 E3.82567 ; skirt
G1 X112.573 Y39.599 E3.90072 ; skirt
G1 X113.318 Y40.323 E3.95783 ; skirt
G1 X114.308 Y41.369 E4.03703 ; skirt
G1 X114.985 Y42.148 E4.09381 ; skirt
G1 X115.837 Y43.214 E4.16886 ; skirt
G1 X116.441 Y44.036 E4.22498 ; skirt
G1 X117.248 Y45.236 E4.30450 ; skirt
G1 X117.807 Y46.150 E4.36340 ; skirt
G1 X118.468 Y47.340 E4.43830 ; skirt
G1 X118.969 Y48.337 E4.49961 ; skirt
G1 X119.558 Y49.651 E4.57881 ; skirt
G1 X119.948 Y50.628 E4.63669 ; skirt
G1 X120.441 Y52.043 E4.71908 ; skirt
G1 X120.753 Y53.079 E4.77862 ; skirt
G1 X120.978 Y53.935 E4.82727 ; skirt
G1 X121.310 Y55.439 E4.91201 ; skirt
G1 X121.500 Y56.534 E4.97308 ; skirt
G1 X121.628 Y57.469 E5.02500 ; skirt
G1 X121.776 Y59.034 E5.11147 ; skirt
G1 X121.823 Y59.963 E5.16263 ; skirt
G1 X121.841 Y61.142 E5.22750 ; skirt
G1 X121.821 Y62.110 E5.28072 ; skirt
G1 X121.722 Y63.647 E5.36543 ; skirt
G1 X121.624 Y64.568 E5.41635 ; skirt
G1 X121.460 Y65.716 E5.48017 ; skirt
G1 X121.170 Y67.241 E5.56551 ; skirt
G1 X120.907 Y68.349 E5.62816 ; skirt
G1 X120.506 Y69.752 E5.70841 ; skirt
G1 X120.170 Y70.763 E5.76702 ; skirt
G1 X119.856 Y71.610 E5.81669 ; skirt
G1 X119.309 Y72.925 E5.89499 ; skirt
G1 X118.839 Y73.931 E5.95610 ; skirt
G1 X118.214 Y75.132 E6.03055 ; skirt
G1 X117.664 Y76.090 E6.09129 ; skirt
G1 X116.906 Y77.288 E6.16926 ; skirt
G1 X116.304 Y78.156 E6.22736 ; skirt
G1 X115.473 Y79.253 E6.30305 ; skirt
G1 X114.811 Y80.057 E6.36030 ; skirt
G1 X113.901 Y81.073 E6.43534 ; skirt
G1 X113.177 Y81.818 E6.49244 ; skirt
G1 X112.131 Y82.808 E6.57165 ; skirt
G1 X111.352 Y83.485 E6.62843 ; skirt
G1 X110.286 Y84.337 E6.70348 ; skirt
G1 X109.463 Y84.941 E6.75961 ; skirt
G1 X108.264 Y85.748 E6.83912 ; skirt
G1 X107.350 Y86.307 E6.89802 ; skirt
G1 X106.160 Y86.968 E6.97292 ; skirt
G1 X105.163 Y87.469 E7.03424 ; skirt
G1 X103.849 Y88.058 E7.11344 ; skirt
G1 X102.872 Y88.448 E7.17132 ; skirt
G1 X101.457 Y88.941 E7.25371 ; skirt
G1 X100.421 Y89.253 E7.31325 ; skirt
G1 X98.945 Y89.625 E7.39695 ; skirt
G1 X98.061 Y89.810 E7.44664 ; skirt
G1 X96.966 Y90.000 E7.50771 ; skirt
G1 X96.031 Y90.128 E7.55962 ; skirt
G1 X94.466 Y90.276 E7.64610 ; skirt
G1 X93.537 Y90.323 E7.69726 ; skirt
G1 X92.358 Y90.341 E7.76212 ; skirt
G1 X91.390 Y90.321 E7.81537 ; skirt
G1 X89.853 Y90.222 E7.90005 ; skirt
G1 X88.667 Y90.090 E7.96565 ; skirt
G1 X87.136 Y89.847 E8.05093 ; skirt
G1 X86.259 Y89.670 E8.10014 ; skirt
G1 X85.151 Y89.407 E8.16279 ; skirt
G1 X83.748 Y89.006 E8.24303 ; skirt
G1 X82.736 Y88.670 E8.30165 ; skirt
G1 X81.320 Y88.128 E8.38507 ; skirt
G1 X80.351 Y87.709 E8.44311 ; skirt
G1 X79.059 Y87.082 E8.52209 ; skirt
G1 X78.156 Y86.597 E8.57848 ; skirt
G1 X77.410 Y86.164 E8.62592 ; skirt
G1 X76.212 Y85.406 E8.70388 ; skirt
G1 X75.344 Y84.804 E8.76198 ; skirt
G1 X74.247 Y83.973 E8.83767 ; skirt
G1 X73.443 Y83.311 E8.89492 ; skirt
G1 X72.427 Y82.401 E8.96996 ; skirt
G1 X71.682 Y81.677 E9.02707 ; skirt
G1 X70.692 Y80.631 E9.10627 ; skirt
G1 X70.015 Y79.852 E9.16306 ; skirt
G1 X69.163 Y78.786 E9.23810 ; skirt
G1 X68.559 Y77.963 E9.29423 ; skirt
G1 X67.752 Y76.764 E9.37375 ; skirt
G1 X67.193 Y75.850 E9.43266 ; skirt
G1 X66.532 Y74.660 E9.50754 ; skirt
G1 X66.031 Y73.663 E9.56886 ; skirt
G1 X65.442 Y72.349 E9.64806 ; skirt
G1 X65.052 Y71.372 E9.70594 ; skirt
G1 X64.559 Y69.957 E9.78833 ; skirt
G1 X64.247 Y68.920 E9.84787 ; skirt
G1 X63.875 Y67.445 E9.93157 ; skirt
G1 X63.690 Y66.561 E9.98126 ; skirt
G1 X63.500 Y65.467 E10.04232 ; skirt
G1 X63.372 Y64.531 E10.09424 ; skirt
G1 X63.224 Y62.966 E10.18072 ; skirt
G1 X63.177 Y62.037 E10.23188 ; skirt
G1 X63.159 Y60.858 E10.29673 ; skirt
G1 X63.179 Y59.890 E10.34999 ; skirt
G1 X63.278 Y58.353 E10.43467 ; skirt
G1 X63.376 Y57.432 E10.48560 ; skirt
G1 X63.540 Y56.284 E10.54941 ; skirt
G1 X63.830 Y54.759 E10.63476 ; skirt
G1 X64.093 Y53.651 E10.69741 ; skirt
G1 X64.494 Y52.248 E10.77766 ; skirt
G1 X64.830 Y51.236 E10.83627 ; skirt
G1 X65.144 Y50.390 E10.88592 ; skirt
G1 X65.691 Y49.075 E10.96424 ; skirt
G1 X66.161 Y48.068 E11.02536 ; skirt
G1 X66.786 Y46.868 E11.09979 ; skirt
G1 X67.336 Y45.910 E11.16055 ; skirt
G1 X68.053 Y44.775 E11.23438 ; skirt
M204 S3000 ; adjust acceleration
G1 X68.818 Y45.184 F7800.000 ; move to first skirt point
M204 S2000 ; adjust acceleration
G1 X69.738 Y43.886 E11.32188 F1200.000 ; skirt
G1 X70.340 Y43.113 E11.37576 ; skirt
G1 X70.841 Y42.511 E11.41885 ; skirt
G1 X71.735 Y41.512 E11.49259 ; skirt
G1 X72.270 Y40.957 E11.53497 ; skirt
G1 X73.453 Y39.829 E11.62488 ; skirt
G1 X74.629 Y38.828 E11.70981 ; skirt
G1 X75.245 Y38.345 E11.75283 ; skirt
G1 X76.029 Y37.769 E11.80637 ; skirt
G1 X77.395 Y36.858 E11.89668 ; skirt
G1 X78.080 Y36.443 E11.94072 ; skirt
G1 X79.250 Y35.793 E12.01432 ; skirt
G1 X80.735 Y35.066 E12.10524 ; skirt
G1 X81.493 Y34.735 E12.15074 ; skirt
G1 X82.425 Y34.364 E12.20592 ; skirt
G1 X83.228 Y34.074 E12.25285 ; skirt
G1 X84.029 Y33.811 E12.29920 ; skirt
G1 X85.634 Y33.363 E12.39086 ; skirt
G1 X86.486 Y33.165 E12.43900 ; skirt
G1 X87.338 Y32.994 E12.48677 ; skirt
G1 X88.155 Y32.856 E12.53236 ; skirt
G1 X89.063 Y32.730 E12.58277 ; skirt
G1 X89.943 Y32.637 E12.63140 ; skirt
G1 X90.847 Y32.570 E12.68127 ; skirt
G1 X91.744 Y32.532 E12.73067 ; skirt
G1 X92.628 Y32.523 E12.77927 ; skirt
G1 X93.568 Y32.542 E12.83096 F1200.000 ; skirt
G1 X95.078 Y32.639 E12.91420 ; skirt
G1 X95.972 Y32.735 E12.96367 ; skirt
G1 X97.068 Y32.891 E13.02453 ; skirt
G1 X98.566 Y33.176 E13.10840 ; skirt
G1 X99.624 Y33.428 E13.16820 ; skirt
G1 X101.003 Y33.821 E13.24707 ; skirt
G1 X101.967 Y34.142 E13.30296 ; skirt
G1 X102.789 Y34.446 E13.35117 ; skirt
G1 X104.081 Y34.984 E13.42813 ; skirt
G1 X105.043 Y35.433 E13.48653 ; skirt
G1 X106.223 Y36.047 E13.55968 ; skirt
G1 X107.139 Y36.573 E13.61775 ; skirt
G1 X108.316 Y37.318 E13.69436 ; skirt
G1 X109.144 Y37.892 E13.74978 ; skirt
G1 X110.222 Y38.709 E13.82416 ; skirt
G1 X110.989 Y39.341 E13.87883 ; skirt
G1 X111.988 Y40.235 E13.95257 ; skirt
G1 X112.698 Y40.925 E14.00703 ; skirt
G1 X113.671 Y41.953 E14.08487 ; skirt
G1 X114.317 Y42.697 E14.13906 ; skirt
G1 X115.155 Y43.745 E14.21281 ; skirt
G1 X115.731 Y44.529 E14.26634 ; skirt
G1 X116.524 Y45.708 E14.34449 ; skirt
G1 X117.057 Y46.580 E14.40070 ; skirt
G1 X117.707 Y47.750 E14.47431 ; skirt
G1 X118.185 Y48.702 E14.53289 ; skirt
G1 X118.765 Y49.993 E14.61072 ; skirt
G1 X119.136 Y50.925 E14.66591 ; skirt
G1 X119.621 Y52.315 E14.74687 ; skirt
G1 X119.918 Y53.304 E14.80365 ; skirt
G1 X120.137 Y54.134 E14.85086 ; skirt
G1 X120.463 Y55.612 E14.93414 ; skirt
G1 X120.644 Y56.655 E14.99235 ; skirt
G1 X120.770 Y57.563 E15.04276 ; skirt
G1 X120.914 Y59.102 E15.12774 ; skirt
G1 X120.960 Y60.003 E15.17739 ; skirt
G1 X120.977 Y61.128 E15.23926 ; skirt
G1 X120.958 Y62.068 E15.29093 ; skirt
G1 X120.861 Y63.578 E15.37417 ; skirt
G1 X120.765 Y64.472 E15.42365 ; skirt
G1 X120.609 Y65.568 E15.48451 ; skirt
G1 X120.324 Y67.066 E15.56838 ; skirt
G1 X120.072 Y68.124 E15.62818 ; skirt
G1 X119.679 Y69.503 E15.70704 ; skirt
G1 X119.358 Y70.467 E15.76293 ; skirt
G1 X119.054 Y71.289 E15.81115 ; skirt
G1 X118.516 Y72.581 E15.88811 ; skirt
G1 X118.067 Y73.543 E15.94650 ; skirt
G1 X117.453 Y74.723 E16.01966 ; skirt
G1 X116.927 Y75.639 E16.07771 ; skirt
G1 X116.182 Y76.816 E16.15433 ; skirt
G1 X115.608 Y77.644 E16.20975 ; skirt
G1 X114.791 Y78.722 E16.28414 ; skirt
G1 X114.159 Y79.489 E16.33881 ; skirt
G1 X113.265 Y80.488 E16.41255 ; skirt
G1 X112.575 Y81.198 E16.46700 ; skirt
G1 X111.547 Y82.171 E16.54485 ; skirt
G1 X110.803 Y82.817 E16.59903 ; skirt
G1 X109.755 Y83.655 E16.67278 ; skirt
G1 X108.971 Y84.231 E16.72633 ; skirt
G1 X107.792 Y85.024 E16.80447 ; skirt
G1 X106.920 Y85.557 E16.86068 ; skirt
G1 X105.750 Y86.207 E16.93428 ; skirt
G1 X104.798 Y86.685 E16.99287 ; skirt
G1 X103.507 Y87.265 E17.07070 ; skirt
G1 X102.575 Y87.636 E17.12588 ; skirt
G1 X101.185 Y88.121 E17.20685 ; skirt
G1 X100.196 Y88.418 E17.26363 ; skirt
G1 X98.746 Y88.784 E17.34589 ; skirt
G1 X97.888 Y88.963 E17.39411 ; skirt
G1 X96.845 Y89.144 E17.45232 ; skirt
G1 X95.937 Y89.270 E17.50273 ; skirt
G1 X94.398 Y89.414 E17.58772 ; skirt
G1 X93.497 Y89.460 E17.63737 ; skirt
G1 X92.372 Y89.477 E17.69923 ; skirt
G1 X91.432 Y89.458 E17.75093 ; skirt
G1 X89.922 Y89.361 E17.83415 ; skirt
G1 X88.789 Y89.235 E17.89682 ; skirt
G1 X87.284 Y88.996 E17.98063 ; skirt
G1 X86.434 Y88.824 E18.02836 ; skirt
G1 X85.376 Y88.572 E18.08816 ; skirt
G1 X83.997 Y88.179 E18.16702 ; skirt
G1 X83.033 Y87.858 E18.22291 ; skirt
G1 X81.640 Y87.326 E18.30489 ; skirt
G1 X80.717 Y86.926 E18.36022 ; skirt
G1 X79.447 Y86.310 E18.43784 ; skirt
G1 X78.586 Y85.847 E18.49161 ; skirt
G1 X77.861 Y85.427 E18.53769 ; skirt
G1 X76.684 Y84.682 E18.61430 ; skirt
G1 X75.856 Y84.108 E18.66973 ; skirt
G1 X74.778 Y83.291 E18.74412 ; skirt
G1 X74.011 Y82.659 E18.79878 ; skirt
G1 X73.012 Y81.765 E18.87253 ; skirt
G1 X72.302 Y81.075 E18.92698 ; skirt
G1 X71.329 Y80.047 E19.00482 ; skirt
G1 X70.683 Y79.303 E19.05902 ; skirt
G1 X69.845 Y78.255 E19.13276 ; skirt
G1 X69.269 Y77.471 E19.18630 ; skirt
G1 X68.476 Y76.292 E19.26444 ; skirt
G1 X67.943 Y75.420 E19.32066 ; skirt
G1 X67.293 Y74.250 E19.39425 ; skirt
G1 X66.815 Y73.298 E19.45284 ; skirt
G1 X66.235 Y72.007 E19.53068 ; skirt
G1 X65.864 Y71.075 E19.58586 ; skirt
G1 X65.379 Y69.685 E19.66683 ; skirt
G1 X65.082 Y68.696 E19.72361 ; skirt
G1 X64.716 Y67.246 E19.80586 ; skirt
G1 X64.537 Y66.388 E19.85409 ; skirt
G1 X64.356 Y65.345 E19.91230 ; skirt
G1 X64.230 Y64.437 E19.96271 ; skirt
G1 X64.086 Y62.898 E20.04769 ; skirt
G1 X64.040 Y61.997 E20.09734 ; skirt
G1 X64.023 Y60.872 E20.15920 ; skirt
G1 X64.042 Y59.932 E20.21090 ; skirt
G1 X64.139 Y58.422 E20.29412 ; skirt
G1 X64.235 Y57.528 E20.34360 ; skirt
G1 X64.391 Y56.432 E20.40446 ; skirt
G1 X64.676 Y54.934 E20.48833 ; skirt
G1 X64.928 Y53.876 E20.54813 ; skirt
G1 X65.321 Y52.497 E20.62700 ; skirt
G1 X65.642 Y51.533 E20.68289 ; skirt
G1 X65.946 Y50.711 E20.73110 ; skirt
G1 X66.484 Y49.419 E20.80806 ; skirt
G1 X66.933 Y48.457 E20.86646 ; skirt
G1 X67.547 Y47.277 E20.93961 ; skirt
G1 X68.073 Y46.361 E20.99768 ; skirt
G1 X68.777 Y45.247 E21.07016 ; skirt
M204 S3000 ; adjust acceleration
G1 X69.542 Y45.656 F7800.000 ; move to first skirt point
M204 S2000 ; adjust acceleration
G1 X70.434 Y44.398 E21.15499 F1200.000 ; skirt
G1 X71.007 Y43.663 E21.20626 ; skirt
G1 X71.492 Y43.078 E21.24807 ; skirt
G1 X72.371 Y42.097 E21.32051 ; skirt
G1 X72.890 Y41.559 E21.36159 ; skirt
G1 X74.038 Y40.466 E21.44878 ; skirt
G1 X75.178 Y39.495 E21.53112 ; skirt
G1 X75.775 Y39.028 E21.57284 ; skirt
G1 X76.521 Y38.479 E21.62379 ; skirt
G1 X77.846 Y37.595 E21.71137 ; skirt
G1 X78.510 Y37.192 E21.75408 ; skirt
G1 X79.659 Y36.553 E21.82639 ; skirt
G1 X81.100 Y35.849 E21.91458 ; skirt
G1 X81.836 Y35.529 E21.95871 ; skirt
G1 X82.722 Y35.176 E22.01119 ; skirt
G1 X84.277 Y34.639 E22.10167 ; skirt
G1 X85.833 Y34.203 E22.19050 ; skirt
G1 X86.659 Y34.011 E22.23717 ; skirt
G1 X87.486 Y33.845 E22.28354 ; skirt
G1 X88.277 Y33.711 E22.32768 ; skirt
G1 X89.158 Y33.589 E22.37658 ; skirt
G1 X90.010 Y33.499 E22.42372 ; skirt
G1 X90.887 Y33.434 E22.47208 ; skirt
G1 X91.758 Y33.396 E22.52000 ; skirt
G1 X92.614 Y33.387 E22.56708 ; skirt
G1 X93.525 Y33.406 E22.61722 F1200.000 ; skirt
G1 X95.009 Y33.501 E22.69899 ; skirt
G1 X95.877 Y33.594 E22.74701 ; skirt
G1 X96.920 Y33.742 E22.80493 ; skirt
G1 X98.391 Y34.022 E22.88733 ; skirt
G1 X99.399 Y34.262 E22.94427 ; skirt
G1 X100.753 Y34.649 E23.02175 ; skirt
G1 X101.671 Y34.954 E23.07492 ; skirt
G1 X102.468 Y35.248 E23.12169 ; skirt
G1 X103.738 Y35.776 E23.19730 ; skirt
G1 X104.655 Y36.205 E23.25298 ; skirt
G1 X105.814 Y36.808 E23.32485 ; skirt
G1 X106.687 Y37.310 E23.38022 ; skirt
G1 X107.844 Y38.042 E23.45548 ; skirt
G1 X108.632 Y38.588 E23.50823 ; skirt
G1 X109.691 Y39.390 E23.58131 ; skirt
G1 X110.422 Y39.992 E23.63338 ; skirt
G1 X111.403 Y40.871 E23.70584 ; skirt
G1 X112.079 Y41.528 E23.75764 ; skirt
G1 X113.034 Y42.538 E23.83411 ; skirt
G1 X113.650 Y43.246 E23.88572 ; skirt
G1 X114.472 Y44.275 E23.95817 ; skirt
G1 X115.021 Y45.021 E24.00911 ; skirt
G1 X115.800 Y46.180 E24.08588 ; skirt
G1 X116.308 Y47.010 E24.13941 ; skirt
G1 X116.947 Y48.159 E24.21172 ; skirt
G1 X117.402 Y49.067 E24.26757 ; skirt
G1 X117.971 Y50.335 E24.34404 ; skirt
G1 X118.324 Y51.222 E24.39652 ; skirt
G1 X118.801 Y52.588 E24.47607 ; skirt
G1 X119.084 Y53.528 E24.53009 ; skirt
G1 X119.297 Y54.333 E24.57585 ; skirt
G1 X119.617 Y55.785 E24.65767 ; skirt
G1 X119.789 Y56.777 E24.71302 ; skirt
G1 X119.911 Y57.658 E24.76192 ; skirt
G1 X120.053 Y59.169 E24.84541 ; skirt
G1 X120.097 Y60.044 E24.89355 ; skirt
G1 X120.113 Y61.114 E24.95242 ; skirt
G1 X120.094 Y62.025 E25.00255 ; skirt
G1 X119.999 Y63.509 E25.08433 ; skirt
G1 X119.906 Y64.377 E25.13234 ; skirt
G1 X119.758 Y65.420 E25.19026 ; skirt
G1 X119.478 Y66.891 E25.27266 ; skirt
G1 X119.238 Y67.899 E25.32961 ; skirt
G1 X118.851 Y69.253 E25.40708 ; skirt
G1 X118.546 Y70.171 E25.46024 ; skirt
G1 X118.251 Y70.969 E25.50702 ; skirt
G1 X117.724 Y72.238 E25.58263 ; skirt
G1 X117.295 Y73.155 E25.63830 ; skirt
G1 X116.692 Y74.314 E25.71018 ; skirt
G1 X116.191 Y75.187 E25.76553 ; skirt
G1 X115.458 Y76.344 E25.84081 ; skirt
G1 X114.912 Y77.132 E25.89356 ; skirt
G1 X114.110 Y78.191 E25.96664 ; skirt
G1 X113.508 Y78.922 E26.01872 ; skirt
G1 X112.629 Y79.903 E26.09117 ; skirt
G1 X111.973 Y80.579 E26.14297 ; skirt
G1 X110.962 Y81.534 E26.21944 ; skirt
G1 X110.254 Y82.150 E26.27105 ; skirt
G1 X109.225 Y82.972 E26.34350 ; skirt
