; generated by Slic3r 1.2.9 on 2015-09-11 at 20:46:10

; external perimeters extrusion width = 0.55mm
; perimeters extrusion width = 0.61mm
; infill extrusion width = 0.60mm
; solid infill extrusion width = 0.60mm
; top infill extrusion width = 0.60mm
; support material extrusion width = 0.70mm

M107 ; disable fan
;start gcode
M80 ;ATX on
M190 S52 ; wait for start bed temperature to be reached
M140 S65 ; set  bed temp to be
M104 S215 ; set temperature
G28 ; home all axes
M190 S65 ; set and wait for bed temp to be reached
M109 S215; wait for extruder temp to be reached
G21 ; set units to millimeters
G90 ; use absolute coordinates
M82 ; use absolute distances for extrusion
G92 E0 ; reset extrusion distance
G1 E-1.10000 F1800.00000 ; retract
G92 E0 ; reset extrusion distance
G1 Z0.510 F7800.000 ; lift Z
G1 Z0.710 F7800.000 ; move to next layer (0)
G1 Z0.910 F7800.000 ; lift Z
G1 X67.887 Y44.572 F7800.000 ; move to first skirt point
G1 Z0.710 F7800.000 ; restore layer Z
G1 E1.10000 F1800.00000 ; unretract
M204 S2000 ; adjust acceleration
G1 X68.843 Y43.223 E1.19095 F1200.000 ; skirt
G1 X69.478 Y42.408 E1.24779 ; skirt
G1 X69.998 Y41.782 E1.29256 ; skirt
G1 X70.917 Y40.755 E1.36834 ; skirt
G1 X71.473 Y40.178 E1.41239 ; skirt
G1 X72.702 Y39.006 E1.50581 ; skirt
G1 X73.924 Y37.965 E1.59407 ; skirt
G1 X74.563 Y37.464 E1.63876 ; skirt
G1 X75.391 Y36.855 E1.69526 ; skirt
G1 X76.811 Y35.909 E1.78911 ; skirt
G1 X77.523 Y35.478 E1.83485 ; skirt
G1 X78.725 Y34.810 E1.91050 ; skirt
G1 X80.267 Y34.055 E2.00495 ; skirt
G1 X81.055 Y33.711 E2.05221 ; skirt
G1 X82.039 Y33.319 E2.11046 ; skirt
G1 X82.873 Y33.018 E2.15923 ; skirt
G1 X83.705 Y32.745 E2.20737 ; skirt
G1 X84.511 Y32.507 E2.25361 ; skirt
G1 X85.373 Y32.279 E2.30267 ; skirt
G1 X86.259 Y32.074 E2.35268 ; skirt
G1 X87.144 Y31.897 E2.40230 ; skirt
G1 X87.994 Y31.753 E2.44973 ; skirt
G1 X88.937 Y31.623 E2.50208 ; skirt
G1 X89.852 Y31.527 E2.55264 ; skirt
G1 X90.791 Y31.458 E2.60445 ; skirt
G1 X91.723 Y31.418 E2.65576 ; skirt
G1 X92.642 Y31.409 E2.70631 ; skirt
G1 X93.619 Y31.429 E2.76002 F1200.000 ; skirt
G1 X95.171 Y31.529 E2.84555 ; skirt
G1 X96.099 Y31.628 E2.89692 ; skirt
G1 X97.255 Y31.793 E2.96114 ; skirt
G1 X98.795 Y32.086 E3.04734 ; skirt
G1 X99.911 Y32.351 E3.11041 ; skirt
G1 X101.328 Y32.756 E3.19145 ; skirt
G1 X102.346 Y33.094 E3.25045 ; skirt
G1 X103.200 Y33.410 E3.30053 ; skirt
G1 X104.527 Y33.963 E3.37962 ; skirt
G1 X105.541 Y34.437 E3.44115 ; skirt
G1 X106.754 Y35.067 E3.51633 ; skirt
G1 X107.718 Y35.621 E3.57750 ; skirt
G1 X108.928 Y36.387 E3.65623 ; skirt
G1 X109.801 Y36.993 E3.71471 ; skirt
G1 X110.910 Y37.832 E3.79115 ; skirt
G1 X111.718 Y38.498 E3.84879 ; skirt
G1 X112.745 Y39.417 E3.92457 ; skirt
G1 X113.495 Y40.146 E3.98205 ; skirt
G1 X114.494 Y41.202 E4.06205 ; skirt
G1 X115.176 Y41.987 E4.11920 ; skirt
G1 X116.036 Y43.063 E4.19499 ; skirt
G1 X116.645 Y43.891 E4.25150 ; skirt
G1 X117.459 Y45.103 E4.33180 ; skirt
G1 X118.022 Y46.023 E4.39109 ; skirt
G1 X118.690 Y47.225 E4.46674 ; skirt
G1 X119.194 Y48.228 E4.52846 ; skirt
G1 X119.789 Y49.555 E4.60845 ; skirt
G1 X120.181 Y50.539 E4.66670 ; skirt
G1 X120.680 Y51.967 E4.74992 ; skirt
G1 X120.993 Y53.011 E4.80984 ; skirt
G1 X121.221 Y53.873 E4.85891 ; skirt
G1 X121.556 Y55.393 E4.94449 ; skirt
G1 X121.747 Y56.494 E5.00596 ; skirt
G1 X121.877 Y57.437 E5.05831 ; skirt
G1 X122.025 Y59.019 E5.14566 ; skirt
G1 X122.073 Y59.955 E5.19725 ; skirt
G1 X122.091 Y61.142 E5.26253 ; skirt
G1 X122.071 Y62.119 E5.31624 ; skirt
G1 X121.971 Y63.671 E5.40177 ; skirt
G1 X121.872 Y64.599 E5.45314 ; skirt
G1 X121.707 Y65.755 E5.51736 ; skirt
G1 X121.414 Y67.295 E5.60356 ; skirt
G1 X121.149 Y68.411 E5.66662 ; skirt
G1 X120.744 Y69.828 E5.74767 ; skirt
G1 X120.406 Y70.846 E5.80667 ; skirt
G1 X120.090 Y71.700 E5.85675 ; skirt
G1 X119.537 Y73.027 E5.93584 ; skirt
G1 X119.063 Y74.041 E5.99737 ; skirt
G1 X118.433 Y75.254 E6.07255 ; skirt
G1 X117.879 Y76.218 E6.13372 ; skirt
G1 X117.113 Y77.428 E6.21244 ; skirt
G1 X116.507 Y78.301 E6.27093 ; skirt
G1 X115.668 Y79.410 E6.34738 ; skirt
G1 X115.002 Y80.219 E6.40501 ; skirt
G1 X114.083 Y81.245 E6.48079 ; skirt
G1 X113.354 Y81.995 E6.53827 ; skirt
G1 X112.298 Y82.994 E6.61826 ; skirt
G1 X111.513 Y83.676 E6.67542 ; skirt
G1 X110.437 Y84.536 E6.75121 ; skirt
G1 X109.609 Y85.145 E6.80772 ; skirt
G1 X108.397 Y85.959 E6.88801 ; skirt
G1 X107.477 Y86.522 E6.94731 ; skirt
G1 X106.275 Y87.190 E7.02295 ; skirt
G1 X105.272 Y87.694 E7.08467 ; skirt
G1 X103.945 Y88.289 E7.16468 ; skirt
G1 X102.961 Y88.681 E7.22292 ; skirt
G1 X101.533 Y89.180 E7.30614 ; skirt
G1 X100.489 Y89.493 E7.36606 ; skirt
G1 X98.999 Y89.869 E7.45060 ; skirt
G1 X98.107 Y90.056 E7.50071 ; skirt
G1 X97.006 Y90.247 E7.56217 ; skirt
G1 X96.063 Y90.377 E7.61453 ; skirt
G1 X94.481 Y90.525 E7.70187 ; skirt
G1 X93.544 Y90.573 E7.75347 ; skirt
G1 X92.358 Y90.591 E7.81874 ; skirt
G1 X91.381 Y90.571 E7.87245 ; skirt
G1 X89.829 Y90.471 E7.95799 ; skirt
G1 X88.636 Y90.338 E8.02403 ; skirt
G1 X87.089 Y90.093 E8.11016 ; skirt
G1 X86.205 Y89.914 E8.15978 ; skirt
G1 X85.089 Y89.649 E8.22284 ; skirt
G1 X83.672 Y89.244 E8.30389 ; skirt
G1 X82.654 Y88.906 E8.36289 ; skirt
G1 X81.223 Y88.359 E8.44713 ; skirt
G1 X80.249 Y87.937 E8.50555 ; skirt
G1 X78.944 Y87.304 E8.58532 ; skirt
G1 X78.035 Y86.815 E8.64207 ; skirt
G1 X77.282 Y86.379 E8.68993 ; skirt
G1 X76.072 Y85.613 E8.76866 ; skirt
G1 X75.199 Y85.007 E8.82715 ; skirt
G1 X74.090 Y84.168 E8.90359 ; skirt
G1 X73.282 Y83.502 E8.96122 ; skirt
G1 X72.255 Y82.583 E9.03701 ; skirt
G1 X71.505 Y81.854 E9.09448 ; skirt
G1 X70.506 Y80.798 E9.17448 ; skirt
G1 X69.824 Y80.013 E9.23164 ; skirt
G1 X68.964 Y78.937 E9.30743 ; skirt
G1 X68.355 Y78.109 E9.36393 ; skirt
G1 X67.541 Y76.897 E9.44423 ; skirt
G1 X66.978 Y75.977 E9.50353 ; skirt
G1 X66.310 Y74.775 E9.57917 ; skirt
G1 X65.806 Y73.772 E9.64089 ; skirt
G1 X65.211 Y72.445 E9.72089 ; skirt
G1 X64.819 Y71.461 E9.77914 ; skirt
G1 X64.320 Y70.033 E9.86235 ; skirt
G1 X64.007 Y68.989 E9.92228 ; skirt
G1 X63.631 Y67.499 E10.00681 ; skirt
G1 X63.444 Y66.607 E10.05692 ; skirt
G1 X63.253 Y65.506 E10.11839 ; skirt
G1 X63.123 Y64.563 E10.17075 ; skirt
G1 X62.975 Y62.981 E10.25809 ; skirt
G1 X62.927 Y62.044 E10.30969 ; skirt
G1 X62.909 Y60.858 E10.37496 ; skirt
G1 X62.929 Y59.881 E10.42867 ; skirt
G1 X63.029 Y58.329 E10.51420 ; skirt
G1 X63.128 Y57.401 E10.56557 ; skirt
G1 X63.293 Y56.245 E10.62979 ; skirt
G1 X63.586 Y54.705 E10.71599 ; skirt
G1 X63.851 Y53.589 E10.77906 ; skirt
G1 X64.256 Y52.172 E10.86011 ; skirt
G1 X64.594 Y51.154 E10.91911 ; skirt
G1 X64.910 Y50.301 E10.96917 ; skirt
G1 X65.463 Y48.972 E11.04828 ; skirt
G1 X65.937 Y47.959 E11.10980 ; skirt
G1 X66.567 Y46.746 E11.18499 ; skirt
G1 X67.121 Y45.782 E11.24615 ; skirt
G1 X67.846 Y44.635 E11.32076 ; skirt
M204 S3000 ; adjust acceleration
G1 X68.611 Y45.045 F7800.000 ; move to first skirt point
M204 S2000 ; adjust acceleration
G1 X69.539 Y43.735 E11.40903 F1200.000 ; skirt
G1 X70.145 Y42.957 E11.46327 ; skirt
G1 X70.650 Y42.349 E11.50675 ; skirt
G1 X71.553 Y41.340 E11.58123 ; skirt
G1 X72.093 Y40.780 E11.62399 ; skirt
G1 X73.287 Y39.643 E11.71469 ; skirt
G1 X74.473 Y38.633 E11.80036 ; skirt
G1 X75.094 Y38.146 E11.84375 ; skirt
G1 X75.884 Y37.565 E11.89766 ; skirt
G1 X77.262 Y36.647 E11.98877 ; skirt
G1 X77.953 Y36.228 E12.03319 ; skirt
G1 X79.134 Y35.571 E12.10754 ; skirt
G1 X80.632 Y34.838 E12.19926 ; skirt
G1 X81.397 Y34.504 E12.24516 ; skirt
G1 X82.336 Y34.131 E12.30071 ; skirt
G1 X83.145 Y33.838 E12.34806 ; skirt
G1 X83.953 Y33.573 E12.39482 ; skirt
G1 X85.572 Y33.120 E12.48728 ; skirt
G1 X86.432 Y32.920 E12.53584 ; skirt
G1 X87.292 Y32.748 E12.58404 ; skirt
G1 X88.116 Y32.609 E12.63002 ; skirt
G1 X89.032 Y32.482 E12.68087 ; skirt
G1 X89.919 Y32.389 E12.72993 ; skirt
G1 X90.831 Y32.321 E12.78023 ; skirt
G1 X91.737 Y32.282 E12.83007 ; skirt
G1 X92.628 Y32.273 E12.87910 ; skirt
G1 X93.576 Y32.293 E12.93125 F1200.000 ; skirt
G1 X95.102 Y32.390 E13.01532 ; skirt
G1 X96.004 Y32.487 E13.06524 ; skirt
G1 X97.107 Y32.644 E13.12651 ; skirt
G1 X98.620 Y32.932 E13.21124 ; skirt
G1 X99.686 Y33.185 E13.27145 ; skirt
G1 X101.078 Y33.583 E13.35112 ; skirt
G1 X102.049 Y33.906 E13.40739 ; skirt
G1 X102.879 Y34.213 E13.45602 ; skirt
G1 X104.184 Y34.756 E13.53376 ; skirt
G1 X105.153 Y35.209 E13.59257 ; skirt
G1 X106.345 Y35.828 E13.66647 ; skirt
G1 X107.267 Y36.358 E13.72494 ; skirt
G1 X108.455 Y37.111 E13.80233 ; skirt
G1 X109.289 Y37.689 E13.85814 ; skirt
G1 X110.379 Y38.513 E13.93327 ; skirt
G1 X111.151 Y39.150 E13.98832 ; skirt
G1 X112.160 Y40.053 E14.06281 ; skirt
G1 X112.875 Y40.748 E14.11764 ; skirt
G1 X113.857 Y41.787 E14.19627 ; skirt
G1 X114.508 Y42.536 E14.25083 ; skirt
G1 X115.354 Y43.594 E14.32533 ; skirt
G1 X115.935 Y44.384 E14.37924 ; skirt
G1 X116.735 Y45.575 E14.45817 ; skirt
G1 X117.272 Y46.453 E14.51477 ; skirt
G1 X117.929 Y47.634 E14.58913 ; skirt
G1 X118.410 Y48.593 E14.64811 ; skirt
G1 X118.996 Y49.897 E14.72674 ; skirt
G1 X119.369 Y50.836 E14.78230 ; skirt
G1 X119.859 Y52.240 E14.86409 ; skirt
G1 X120.158 Y53.235 E14.92126 ; skirt
G1 X120.380 Y54.072 E14.96887 ; skirt
G1 X120.709 Y55.566 E15.05300 ; skirt
G1 X120.891 Y56.616 E15.11160 ; skirt
G1 X121.018 Y57.532 E15.16245 ; skirt
G1 X121.164 Y59.086 E15.24830 ; skirt
G1 X121.210 Y59.996 E15.29839 ; skirt
G1 X121.227 Y61.128 E15.36067 ; skirt
G1 X121.207 Y62.076 E15.41282 ; skirt
G1 X121.110 Y63.602 E15.49689 ; skirt
G1 X121.013 Y64.504 E15.54681 ; skirt
G1 X120.856 Y65.607 E15.60808 ; skirt
G1 X120.568 Y67.120 E15.69281 ; skirt
G1 X120.315 Y68.186 E15.75302 ; skirt
G1 X119.917 Y69.578 E15.83269 ; skirt
G1 X119.594 Y70.549 E15.88896 ; skirt
G1 X119.287 Y71.379 E15.93760 ; skirt
G1 X118.744 Y72.684 E16.01534 ; skirt
G1 X118.291 Y73.653 E16.07415 ; skirt
G1 X117.672 Y74.845 E16.14804 ; skirt
G1 X117.142 Y75.767 E16.20652 ; skirt
G1 X116.389 Y76.955 E16.28390 ; skirt
G1 X115.811 Y77.789 E16.33971 ; skirt
G1 X114.987 Y78.879 E16.41485 ; skirt
G1 X114.350 Y79.651 E16.46990 ; skirt
G1 X113.447 Y80.660 E16.54438 ; skirt
G1 X112.752 Y81.375 E16.59921 ; skirt
G1 X111.713 Y82.357 E16.67784 ; skirt
G1 X110.964 Y83.008 E16.73241 ; skirt
G1 X109.906 Y83.854 E16.80690 ; skirt
G1 X109.116 Y84.435 E16.86081 ; skirt
G1 X107.925 Y85.235 E16.93974 ; skirt
G1 X107.047 Y85.772 E16.99634 ; skirt
G1 X105.866 Y86.429 E17.07070 ; skirt
G1 X104.907 Y86.910 E17.12968 ; skirt
G1 X103.603 Y87.496 E17.20832 ; skirt
G1 X102.664 Y87.869 E17.26387 ; skirt
G1 X101.260 Y88.359 E17.34566 ; skirt
G1 X100.265 Y88.658 E17.40283 ; skirt
G1 X98.800 Y89.028 E17.48592 ; skirt
G1 X97.934 Y89.209 E17.53457 ; skirt
G1 X96.884 Y89.391 E17.59317 ; skirt
G1 X95.968 Y89.518 E17.64403 ; skirt
G1 X94.414 Y89.664 E17.72988 ; skirt
G1 X93.504 Y89.710 E17.77996 ; skirt
G1 X92.372 Y89.727 E17.84224 ; skirt
G1 X91.424 Y89.707 E17.89440 ; skirt
G1 X89.898 Y89.610 E17.97847 ; skirt
G1 X88.758 Y89.483 E18.04158 ; skirt
G1 X87.238 Y89.242 E18.12623 ; skirt
G1 X86.380 Y89.068 E18.17438 ; skirt
G1 X85.314 Y88.815 E18.23460 ; skirt
G1 X83.922 Y88.417 E18.31426 ; skirt
G1 X82.951 Y88.094 E18.37053 ; skirt
G1 X81.544 Y87.557 E18.45333 ; skirt
G1 X80.615 Y87.154 E18.50904 ; skirt
G1 X79.332 Y86.532 E18.58745 ; skirt
G1 X78.465 Y86.066 E18.64158 ; skirt
G1 X77.733 Y85.642 E18.68809 ; skirt
G1 X76.545 Y84.889 E18.76547 ; skirt
G1 X75.711 Y84.311 E18.82128 ; skirt
G1 X74.621 Y83.487 E18.89642 ; skirt
G1 X73.849 Y82.850 E18.95146 ; skirt
G1 X72.840 Y81.947 E19.02595 ; skirt
G1 X72.125 Y81.252 E19.08078 ; skirt
G1 X71.143 Y80.213 E19.15941 ; skirt
G1 X70.492 Y79.464 E19.21398 ; skirt
G1 X69.646 Y78.406 E19.28847 ; skirt
G1 X69.065 Y77.616 E19.34238 ; skirt
G1 X68.265 Y76.425 E19.42131 ; skirt
G1 X67.728 Y75.547 E19.47792 ; skirt
G1 X67.071 Y74.366 E19.55227 ; skirt
G1 X66.590 Y73.407 E19.61125 ; skirt
G1 X66.004 Y72.103 E19.68989 ; skirt
G1 X65.631 Y71.164 E19.74544 ; skirt
G1 X65.141 Y69.760 E19.82723 ; skirt
G1 X64.842 Y68.765 E19.88440 ; skirt
G1 X64.472 Y67.300 E19.96749 ; skirt
G1 X64.291 Y66.434 E20.01614 ; skirt
G1 X64.109 Y65.384 E20.07474 ; skirt
G1 X63.982 Y64.468 E20.12560 ; skirt
G1 X63.836 Y62.914 E20.21144 ; skirt
G1 X63.790 Y62.004 E20.26153 ; skirt
G1 X63.773 Y60.872 E20.32381 ; skirt
G1 X63.793 Y59.924 E20.37597 ; skirt
G1 X63.890 Y58.398 E20.46004 ; skirt
G1 X63.987 Y57.496 E20.50995 ; skirt
G1 X64.144 Y56.393 E20.57122 ; skirt
G1 X64.432 Y54.880 E20.65595 ; skirt
G1 X64.685 Y53.815 E20.71616 ; skirt
G1 X65.083 Y52.422 E20.79583 ; skirt
G1 X65.406 Y51.451 E20.85210 ; skirt
G1 X65.713 Y50.621 E20.90073 ; skirt
G1 X66.256 Y49.316 E20.97848 ; skirt
G1 X66.709 Y48.348 E21.03728 ; skirt
G1 X67.328 Y47.155 E21.11119 ; skirt
G1 X67.858 Y46.233 E21.16965 ; skirt
G1 X68.570 Y45.107 E21.24292 ; skirt
M204 S3000 ; adjust acceleration
G1 X69.334 Y45.517 F7800.000 ; move to first skirt point
M204 S2000 ; adjust acceleration
G1 X70.235 Y44.247 E21.32851 F1200.000 ; skirt
G1 X70.812 Y43.507 E21.38016 ; skirt
G1 X71.302 Y42.916 E21.42234 ; skirt
G1 X72.189 Y41.925 E21.49553 ; skirt
G1 X72.713 Y41.382 E21.53699 ; skirt
G1 X73.871 Y40.279 E21.62497 ; skirt
G1 X75.022 Y39.300 E21.70805 ; skirt
G1 X75.624 Y38.828 E21.75015 ; skirt
G1 X76.376 Y38.276 E21.80146 ; skirt
G1 X77.713 Y37.384 E21.88984 ; skirt
G1 X78.383 Y36.977 E21.93294 ; skirt
G1 X79.544 Y36.332 E22.00599 ; skirt
G1 X80.998 Y35.621 E22.09498 ; skirt
G1 X81.740 Y35.298 E22.13951 ; skirt
G1 X82.633 Y34.942 E22.19236 ; skirt
G1 X84.202 Y34.401 E22.28367 ; skirt
G1 X85.771 Y33.961 E22.37330 ; skirt
G1 X86.605 Y33.767 E22.42039 ; skirt
G1 X87.439 Y33.600 E22.46718 ; skirt
G1 X88.238 Y33.464 E22.51172 ; skirt
G1 X89.127 Y33.341 E22.56107 ; skirt
G1 X89.987 Y33.250 E22.60863 ; skirt
G1 X90.871 Y33.184 E22.65743 ; skirt
G1 X91.750 Y33.147 E22.70578 ; skirt
G1 X92.614 Y33.137 E22.75329 ; skirt
G1 X93.534 Y33.156 E22.80389 F1200.000 ; skirt
G1 X95.033 Y33.252 E22.88650 ; skirt
G1 X95.909 Y33.346 E22.93496 ; skirt
G1 X96.959 Y33.496 E22.99329 ; skirt
G1 X98.446 Y33.778 E23.07654 ; skirt
G1 X99.460 Y34.020 E23.13390 ; skirt
G1 X100.829 Y34.410 E23.21218 ; skirt
G1 X101.753 Y34.718 E23.26573 ; skirt
G1 X102.558 Y35.015 E23.31292 ; skirt
G1 X103.840 Y35.548 E23.38931 ; skirt
G1 X104.764 Y35.981 E23.44540 ; skirt
G1 X105.936 Y36.590 E23.51801 ; skirt
G1 X106.815 Y37.095 E23.57379 ; skirt
G1 X107.983 Y37.834 E23.64984 ; skirt
G1 X108.777 Y38.385 E23.70297 ; skirt
G1 X109.847 Y39.195 E23.77680 ; skirt
G1 X110.584 Y39.802 E23.82926 ; skirt
G1 X111.575 Y40.689 E23.90245 ; skirt
G1 X112.256 Y41.351 E23.95463 ; skirt
G1 X113.221 Y42.371 E24.03189 ; skirt
G1 X113.841 Y43.085 E24.08387 ; skirt
G1 X114.672 Y44.124 E24.15707 ; skirt
G1 X115.224 Y44.876 E24.20839 ; skirt
G1 X116.011 Y46.046 E24.28594 ; skirt
G1 X116.523 Y46.883 E24.33986 ; skirt
G1 X117.168 Y48.044 E24.41292 ; skirt
G1 X117.627 Y48.958 E24.46918 ; skirt
G1 X118.202 Y50.240 E24.54644 ; skirt
G1 X118.558 Y51.133 E24.59929 ; skirt
G1 X119.039 Y52.512 E24.67966 ; skirt
G1 X119.324 Y53.460 E24.73407 ; skirt
G1 X119.539 Y54.271 E24.78025 ; skirt
G1 X119.862 Y55.739 E24.86291 ; skirt
G1 X120.036 Y56.738 E24.91865 ; skirt
G1 X120.159 Y57.627 E24.96800 ; skirt
G1 X120.302 Y59.154 E25.05236 ; skirt
G1 X120.347 Y60.036 E25.10093 ; skirt
G1 X120.363 Y61.114 E25.16022 ; skirt
G1 X120.344 Y62.034 E25.21082 ; skirt
G1 X120.248 Y63.533 E25.29343 ; skirt
G1 X120.154 Y64.409 E25.34188 ; skirt
G1 X120.004 Y65.458 E25.40021 ; skirt
G1 X119.722 Y66.946 E25.48347 ; skirt
G1 X119.480 Y67.960 E25.54083 ; skirt
G1 X119.090 Y69.329 E25.61911 ; skirt
G1 X118.782 Y70.253 E25.67265 ; skirt
G1 X118.485 Y71.058 E25.71985 ; skirt
G1 X117.952 Y72.340 E25.79624 ; skirt
G1 X117.519 Y73.264 E25.85233 ; skirt
G1 X116.910 Y74.436 E25.92494 ; skirt
G1 X116.405 Y75.315 E25.98072 ; skirt
G1 X115.666 Y76.483 E26.05676 ; skirt
G1 X115.115 Y77.277 E26.10989 ; skirt
G1 X114.305 Y78.347 E26.18372 ; skirt
G1 X113.698 Y79.084 E26.23619 ; skirt
G1 X112.811 Y80.075 E26.30938 ; skirt
G1 X112.149 Y80.755 E26.36155 ; skirt
G1 X111.129 Y81.721 E26.43882 ; skirt
G1 X110.415 Y82.341 E26.49080 ; skirt
G1 X109.376 Y83.172 E26.56400 ; skirt
